DanielTruong99/aidin_humanoid_actuator_dynamic/isaac_lab_for_ik/joint_states.csv
timestamp,L_hip_joint,L_hip2_joint,L_thigh_joint,L_calf_joint,L_toe_joint
0.0,-0.027832023799419403,-0.08014634996652603,-1.0326563119888306,1.4390721321105957,-0.3871247172355652
0.03880906105041504,-0.03222273290157318,-0.08624172955751419,-1.062168836593628,1.4309598207473755,-0.3838023245334625
0.0777285099029541,-0.02627437748014927,-0.07690900564193726,-1.0442079305648804,1.4349318742752075,-0.3828903138637543
0.11643290519714355,-0.0314595103263855,-0.08295071870088577,-1.0534759759902954,1.4319485425949097,-0.38118690252304077
0.15500378608703613,-0.026613080874085426,-0.0758533701300621,-1.0541352033615112,1.4315276145935059,-0.3788115084171295
0.19452238082885742,-0.029116805642843246,-0.07758387178182602,-1.0521668195724487,1.4313679933547974,-0.37704968452453613
0.23336505889892578,-0.0270718764513731,-0.07408028841018677,-1.0576331615447998,1.4294706583023071,-0.37437352538108826
0.27141308784484863,-0.02676464058458805,-0.07204554975032806,-1.056113600730896,1.4292480945587158,-0.37198150157928467
0.3110630512237549,-0.026520894840359688,-0.07032860815525055,-1.0592877864837646,1.4277853965759277,-0.36926594376564026
0.35013484954833984,-0.02493569627404213,-0.06668198108673096,-1.0606781244277954,1.4268079996109009,-0.36641746759414673
0.38828468322753906,-0.024855615571141243,-0.06473208963871002,-1.062036156654358,1.4257698059082031,-0.363556832075119
0.42801547050476074,-0.023251904174685478,-0.06089555099606514,-1.0644315481185913,1.4244906902313232,-0.3605321943759918
0.4667017459869385,-0.02252091094851494,-0.05787300691008568,-1.06578528881073,1.423467755317688,-0.3575257658958435
0.5048916339874268,-0.021177655085921288,-0.054067160934209824,-1.0678669214248657,1.4222688674926758,-0.3544920086860657
0.5436630249023438,-0.019825784489512444,-0.05007503554224968,-1.0696650743484497,1.4211769104003906,-0.3514796197414398
0.5830132961273193,-0.018474137410521507,-0.045965053141117096,-1.07138192653656,1.4201349020004272,-0.34855350852012634
0.6218564510345459,-0.016772644594311714,-0.04131915047764778,-1.073256492614746,1.4191105365753174,-0.3457191288471222
0.6598563194274902,-0.01515328697860241,-0.036624643951654434,-1.0748454332351685,1.4182252883911133,-0.3430487811565399
0.7009522914886475,-0.013242729939520359,-0.031473226845264435,-1.076483130455017,1.4174116849899292,-0.3405771851539612
0.7376904487609863,-0.011283375322818756,-0.02612660638988018,-1.0779484510421753,1.4167476892471313,-0.3383535146713257
0.7775301933288574,-0.009162609465420246,-0.02046748623251915,-1.079257845878601,1.4162448644638062,-0.3364372253417969
0.8156154155731201,-0.006902432534843683,-0.014515825547277927,-1.0804433822631836,1.41591477394104,-0.33487239480018616
0.8550939559936523,-0.004543697461485863,-0.008319729939103127,-1.0813839435577393,1.4158095121383667,-0.3337234556674957
0.8970963954925537,-0.002040868392214179,-0.0018278092611581087,-1.082135796546936,1.4159348011016846,-0.33304286003112793
0.9354450702667236,0.0005450475728139281,0.004893365316092968,-1.082618236541748,1.4163323640823364,-0.33289045095443726
0.9777517318725586,0.003235654206946492,0.011867562308907509,-1.0828208923339844,1.4170260429382324,-0.3333274722099304
1.0160021781921387,0.00599441584199667,0.01905629225075245,-1.0827161073684692,1.4180407524108887,-0.3344099223613739
1.0552642345428467,0.008806710131466389,0.02644466422498226,-1.0822603702545166,1.4194082021713257,-0.33620014786720276
1.094191551208496,0.01165107823908329,0.03401004895567894,-1.081435203552246,1.421148419380188,-0.3387538194656372
1.1331355571746826,0.014494972303509712,0.04171663150191307,-1.0801973342895508,1.4232897758483887,-0.3421291708946228
1.171858787536621,0.01731359399855137,0.049537818878889084,-1.0785212516784668,1.4258490800857544,-0.3463781476020813
1.211395263671875,0.020069029182195663,0.05742987245321274,-1.0763686895370483,1.4288456439971924,-0.35155174136161804
1.2496485710144043,0.022728201001882553,0.06535201519727707,-1.07370924949646,1.4322930574417114,-0.35769540071487427
1.2885124683380127,0.025251513347029686,0.07325399667024612,-1.0705093145370483,1.436200737953186,-0.36484915018081665
1.327392339706421,0.027599766850471497,0.08108121156692505,-1.0667364597320557,1.4405757188796997,-0.37304627895355225
1.3671467304229736,0.029731784015893936,0.08877281099557877,-1.0623626708984375,1.4454156160354614,-0.3823123574256897
1.4042468070983887,0.03160718083381653,0.09626102447509766,-1.0573580265045166,1.4507144689559937,-0.3926636874675751
1.4432010650634766,0.03318712115287781,0.10347238183021545,-1.051701307296753,1.4564602375030518,-0.4041062891483307
1.4818332195281982,0.034433797001838684,0.1103261336684227,-1.0453741550445557,1.4626343250274658,-0.41663435101509094
1.5212841033935547,0.03531550616025925,0.1167365163564682,-1.0383628606796265,1.4692126512527466,-0.43022823333740234
1.5600049495697021,0.03580404072999954,0.12261049449443817,-1.0306668281555176,1.4761626720428467,-0.44485506415367126
1.5990359783172607,0.03587996959686279,0.12785150110721588,-1.022289752960205,1.4834452867507935,-0.4604646563529968
1.6378161907196045,0.03553175553679466,0.13235823810100555,-1.0132534503936768,1.491018533706665,-0.47699201107025146
1.676844835281372,0.034757912158966064,0.13602764904499054,-1.003588080406189,1.49883234500885,-0.4943526089191437
1.7168810367584229,0.03356831520795822,0.13875579833984375,-0.9933426380157471,1.5068296194076538,-0.5124433040618896
1.7543716430664062,0.03198561072349548,0.1404414176940918,-0.9825819134712219,1.5149527788162231,-0.5311429500579834
1.7930450439453125,0.030043907463550568,0.14098703861236572,-0.9713900089263916,1.523139476776123,-0.550312876701355
1.8332898616790771,0.0277896448969841,0.14030298590660095,-0.9598657488822937,1.531322717666626,-0.5697920918464661
1.8709135055541992,0.025280240923166275,0.1383107751607895,-0.9481293559074402,1.5394351482391357,-0.5894061326980591
1.910097599029541,0.022581366822123528,0.13494493067264557,-0.9363162517547607,1.5474059581756592,-0.6089606881141663
1.9492955207824707,0.01976543292403221,0.13015775382518768,-0.9245776534080505,1.5551718473434448,-0.6282529234886169
1.9870874881744385,0.01690754108130932,0.12392064183950424,-0.913077175617218,1.5626606941223145,-0.6470634341239929
2.0268213748931885,0.014080734923481941,0.11622706800699234,-0.901986837387085,1.5698093175888062,-0.6651679277420044
2.066114664077759,0.011353254318237305,0.10709453374147415,-0.8914845585823059,1.5765546560287476,-0.6823346614837646
2.1036627292633057,0.008783692494034767,0.09656507521867752,-0.8817517757415771,1.5828375816345215,-0.6983342170715332
2.142808675765991,0.0064165024086833,0.08470607548952103,-0.8729636073112488,1.5885990858078003,-0.7129358053207397
2.1831271648406982,0.004280003719031811,0.07161060720682144,-0.8652931451797485,1.593787431716919,-0.7259177565574646
2.2195255756378174,0.0023823254741728306,0.05739528313279152,-0.8589009642601013,1.5983549356460571,-0.7370691895484924
2.2588188648223877,0.000712265376932919,0.04220088943839073,-0.8539364337921143,1.602256178855896,-0.746191680431366
2.2970616817474365,-0.0007626956212334335,0.026189550757408142,-0.8505324125289917,1.605448603630066,-0.7531058192253113
2.335465431213379,-0.0020943598356097937,0.009544146247208118,-0.8488032817840576,1.6078979969024658,-0.7576522827148438
2.373142719268799,-0.003350641345605254,-0.007533692754805088,-0.8488459587097168,1.6095695495605469,-0.759697437286377
2.414088726043701,-0.004612722434103489,-0.024826688691973686,-0.8507301211357117,1.6104354858398438,-0.7591345906257629
2.4541714191436768,-0.005967763252556324,-0.04210170358419418,-0.8545054197311401,1.6104718446731567,-0.7558885812759399
2.4935994148254395,-0.007505149580538273,-0.05911397561430931,-0.8601934909820557,1.6096619367599487,-0.7499178647994995
2.5335419178009033,-0.009307840839028358,-0.07561089098453522,-0.8677829504013062,1.6079888343811035,-0.7412163615226746
2.5723135471343994,-0.0114436661824584,-0.09133251756429672,-0.8772341012954712,1.6054482460021973,-0.7298202514648438
2.6129040718078613,-0.013959613628685474,-0.10602028667926788,-0.8884690999984741,1.6020416021347046,-0.7158055305480957
2.6515471935272217,-0.016873907297849655,-0.11942027509212494,-0.9013745784759521,1.5977797508239746,-0.6992943286895752
2.6906402111053467,-0.020169228315353394,-0.13129079341888428,-0.9157963395118713,1.5926833152770996,-0.6804516315460205
2.730923891067505,-0.023791145533323288,-0.14140968024730682,-0.9315439462661743,1.5867886543273926,-0.6594896912574768
2.7696340084075928,-0.02764461375772953,-0.1495828628540039,-0.948388934135437,1.580143928527832,-0.6366649866104126
2.809422254562378,-0.03159942477941513,-0.15565116703510284,-0.9660724401473999,1.572816014289856,-0.6122742891311646
2.8497331142425537,-0.03549306094646454,-0.15949629247188568,-0.9843114614486694,1.564887523651123,-0.5866523385047913
2.8874382972717285,-0.039141781628131866,-0.16104857623577118,-1.002808690071106,1.5564614534378052,-0.5601644515991211
2.927877902984619,-0.042351316660642624,-0.16028578579425812,-1.0212641954421997,1.5476592779159546,-0.5331999063491821
2.9682376384735107,-0.0449293814599514,-0.15723617374897003,-1.0393882989883423,1.5386202335357666,-0.5061625242233276
3.0074684619903564,-0.04669874161481857,-0.1519729048013687,-1.056907296180725,1.5295014381408691,-0.4794631004333496
3.0477309226989746,-0.04750915616750717,-0.14461097121238708,-1.0735801458358765,1.5204724073410034,-0.4535093605518341
3.087048053741455,-0.047245945781469345,-0.1352977752685547,-1.0891996622085571,1.5117164850234985,-0.42869651317596436
3.12640118598938,-0.04583745449781418,-0.12420735508203506,-1.1035982370376587,1.5034247636795044,-0.40540388226509094
3.167632579803467,-0.04325723648071289,-0.1115286573767662,-1.1166455745697021,1.4957859516143799,-0.38398149609565735
3.207051992416382,-0.03952600061893463,-0.09746173769235611,-1.1282484531402588,1.488992691040039,-0.36475279927253723
3.2483789920806885,-0.034708842635154724,-0.08220735937356949,-1.138346791267395,1.4832242727279663,-0.3480043113231659
3.2889177799224854,-0.028910022228956223,-0.06596431136131287,-1.1468976736068726,1.4786474704742432,-0.33398720622062683
3.3291332721710205,-0.02227097935974598,-0.04892660304903984,-1.1538846492767334,1.4754106998443604,-0.32291364669799805
3.3687546253204346,-0.014960812404751778,-0.03128034248948097,-1.1592930555343628,1.4736354351043701,-0.3149566352367401
3.408710241317749,-0.007172449491918087,-0.013205894269049168,-1.1631184816360474,1.4734169244766235,-0.31024789810180664
3.4482626914978027,0.0008838002104312181,0.005121512804180384,-1.1653501987457275,1.474815011024475,-0.3088797330856323
3.4865469932556152,0.008988398127257824,0.023528659716248512,-1.1659764051437378,1.4778578281402588,-0.3109035789966583
3.5256855487823486,0.016916001215577126,0.041840892285108566,-1.164977788925171,1.4825332164764404,-0.3163294196128845
3.5652413368225098,0.024444859474897385,0.05988039821386337,-1.1623287200927734,1.4887983798980713,-0.3251267373561859
3.604393243789673,0.031360868364572525,0.07745988667011261,-1.1580041646957397,1.496573567390442,-0.33722320199012756
3.644016981124878,0.03746579587459564,0.09438358247280121,-1.1519771814346313,1.505746603012085,-0.35250499844551086
3.683694362640381,0.042584873735904694,0.11044236272573471,-1.1442301273345947,1.5161793231964111,-0.3708157241344452
3.7217295169830322,0.04657360911369324,0.12541568279266357,-1.1347652673721313,1.527711272239685,-0.391955703496933
3.7605042457580566,0.04932604730129242,0.13907413184642792,-1.1236040592193604,1.5401616096496582,-0.4156833291053772
3.8009955883026123,0.05078098550438881,0.15118025243282318,-1.1108077764511108,1.5533417463302612,-0.44171345233917236
3.8377721309661865,0.05092845857143402,0.16149845719337463,-1.096476674079895,1.5670510530471802,-0.46972036361694336
3.8766746520996094,0.0498134009540081,0.16980183124542236,-1.0807603597640991,1.5810940265655518,-0.49934014678001404
3.916135311126709,0.04753449186682701,0.17588067054748535,-1.06386399269104,1.5952770709991455,-0.5301739573478699
3.9537413120269775,0.044242918491363525,0.17955681681632996,-1.0460379123687744,1.609415054321289,-0.5617952942848206
3.9930477142333984,0.04013248160481453,0.18069078028202057,-1.0275861024856567,1.623335599899292,-0.5937562584877014
4.032574653625488,0.03543002903461456,0.17919470369815826,-1.0088469982147217,1.636885404586792,-0.6255981922149658
4.070576190948486,0.030376950278878212,0.17503559589385986,-0.9901847839355469,1.6499284505844116,-0.6568623781204224
4.109722375869751,0.025217054411768913,0.16824229061603546,-0.9719751477241516,1.6623462438583374,-0.6870982646942139
4.149977207183838,0.020174946635961533,0.15890242159366608,-0.9545848369598389,1.6740440130233765,-0.7158793807029724
4.187803268432617,0.015444697812199593,0.14716187119483948,-0.9383620023727417,1.6849408149719238,-0.7428073883056641
4.226680755615234,0.011175449006259441,0.13321377336978912,-0.9236207008361816,1.694977879524231,-0.767526388168335
4.26597785949707,0.007466325536370277,0.11729472875595093,-0.9106321930885315,1.704110860824585,-0.7897231578826904
4.303607940673828,0.004576489329338074,0.09957988560199738,-0.8993939161300659,1.711897850036621,-0.8000001907348633
4.343102693557739,0.0026571471244096756,0.08065732568502426,-0.8877571225166321,1.718509316444397,-0.8000006675720215
4.382124900817871,0.0006904805777594447,0.0604262538254261,-0.8801854252815247,1.724035620689392,-0.8000010251998901
4.420492649078369,-0.000952786416746676,0.03948972001671791,-0.8746615052223206,1.7289042472839355,-0.800001323223114
4.459552764892578,-0.0025020597968250513,0.018023379147052765,-0.8720321655273438,1.7329254150390625,-0.8000015020370483
4.499299764633179,-0.003970323130488396,-0.0036634281277656555,-0.8723353147506714,1.7361639738082886,-0.8000015616416931
4.538097858428955,-0.005398443900048733,-0.025219667702913284,-0.8751779794692993,1.7386585474014282,-0.8000016212463379
4.576772928237915,-0.006888880394399166,-0.04643324762582779,-0.880939245223999,1.7403730154037476,-0.8000015020370483
4.616635322570801,-0.008461558260023594,-0.06696026772260666,-0.8891124129295349,1.7413848638534546,-0.800001323223114
4.65501594543457,-0.010191110894083977,-0.08660762012004852,-0.8998374342918396,1.741678237915039,-0.8000010848045349
4.693413496017456,-0.012092078104615211,-0.10509996861219406,-0.9127480387687683,1.7413136959075928,-0.800000786781311
4.733119010925293,-0.014194179326295853,-0.12226618081331253,-0.9277293682098389,1.740309476852417,-0.8000003695487976
4.771116733551025,-0.01654195971786976,-0.1378811001777649,-0.9444805979728699,1.7386330366134644,-0.7973397970199585
4.81048846244812,-0.02011226676404476,-0.15174491703510284,-0.9610195755958557,1.735750675201416,-0.7785105109214783
4.850750207901001,-0.024216340854763985,-0.1639147400856018,-0.9783414006233215,1.732131838798523,-0.7579591274261475
4.888058185577393,-0.028508497402071953,-0.1739274561405182,-0.9973096251487732,1.7279040813446045,-0.7358935475349426
4.927475452423096,-0.033230703324079514,-0.18216472864151,-1.0162349939346313,1.7233127355575562,-0.7126913666725159
4.966522216796875,-0.03786337375640869,-0.18823303282260895,-1.0361336469650269,1.718245267868042,-0.6886309385299683
5.003821611404419,-0.042575638741254807,-0.1924208104610443,-1.0558726787567139,1.7129323482513428,-0.6640224456787109
5.043627977371216,-0.047012388706207275,-0.19463126361370087,-1.0756856203079224,1.70736563205719,-0.6391686201095581
5.083482980728149,-0.051131945103406906,-0.19500379264354706,-1.095215916633606,1.7016733884811401,-0.6143402457237244
5.121651887893677,-0.054793693125247955,-0.19366256892681122,-1.1142092943191528,1.6959445476531982,-0.5898123979568481
5.159956216812134,-0.057854317128658295,-0.19069485366344452,-1.1326539516448975,1.6902470588684082,-0.5658174157142639
5.200079441070557,-0.060286618769168854,-0.18629902601242065,-1.1502604484558105,1.6846942901611328,-0.5425742864608765
5.238116979598999,-0.061979666352272034,-0.18058718740940094,-1.1670461893081665,1.6793451309204102,-0.5202710032463074
5.277379512786865,-0.0629381611943245,-0.17374511063098907,-1.1828705072402954,1.674294352531433,-0.49906671047210693
5.317125558853149,-0.06313265115022659,-0.16591782867908478,-1.197709560394287,1.6696070432662964,-0.47909772396087646
5.35545015335083,-0.06258036196231842,-0.1572587788105011,-1.2115485668182373,1.6653449535369873,-0.46046483516693115
5.39333963394165,-0.06131540611386299,-0.14791613817214966,-1.2243643999099731,1.6615700721740723,-0.44325190782546997
5.433179140090942,-0.05937569960951805,-0.13801871240139008,-1.2361913919448853,1.6583237648010254,-0.427512526512146
5.47138786315918,-0.056825049221515656,-0.12769544124603271,-1.2470394372940063,1.6556476354599,-0.41328179836273193
5.510727882385254,-0.05372358858585358,-0.11705470085144043,-1.2569525241851807,1.6535680294036865,-0.4005734920501709
5.550213575363159,-0.05014480650424957,-0.10620003938674927,-1.265971064567566,1.652105689048767,-0.38938432931900024
5.588256597518921,-0.04616057127714157,-0.09522057324647903,-1.2741373777389526,1.6512724161148071,-0.3796965777873993
5.627523183822632,-0.04184470325708389,-0.0841955617070198,-1.28150475025177,1.6510653495788574,-0.3714762032032013
5.6668620109558105,-0.03727069869637489,-0.07319588959217072,-1.28811776638031,1.6514848470687866,-0.364680677652359
5.70511269569397,-0.032507676631212234,-0.062282778322696686,-1.294027328491211,1.6525135040283203,-0.3592568635940552
5.743943691253662,-0.027622312307357788,-0.05151030793786049,-1.2992788553237915,1.6541333198547363,-0.3551439046859741
5.782500743865967,-0.0226760096848011,-0.040925681591033936,-1.3039215803146362,1.6563209295272827,-0.3522739112377167
5.822179317474365,-0.01772456243634224,-0.0305696502327919,-1.307997465133667,1.6590464115142822,-0.35057514905929565
5.8609466552734375,-0.01281958632171154,-0.02047787979245186,-1.3115497827529907,1.662277102470398,-0.34997040033340454
5.90025520324707,-0.008005086332559586,-0.01068088784813881,-1.3146204948425293,1.6659764051437378,-0.35038113594055176
5.939390420913696,-0.003321184776723385,-0.0012061421293765306,-1.317247986793518,1.6701061725616455,-0.3517265021800995
5.979344606399536,0.0011993717635050416,0.00792467501014471,-1.3194701671600342,1.6746281385421753,-0.3539246916770935
6.018885612487793,0.005527850706130266,0.01669110171496868,-1.3213244676589966,1.679500937461853,-0.3568943440914154
6.0569164752960205,0.00964270904660225,0.02507746033370495,-1.322845220565796,1.6846848726272583,-0.3605537414550781
6.096296548843384,0.013525488786399364,0.03307012468576431,-1.3240673542022705,1.690140724182129,-0.3648235499858856
6.135095834732056,0.017163332551717758,0.04065743461251259,-1.3250246047973633,1.6958286762237549,-0.36962515115737915
6.173396587371826,0.020548300817608833,0.047832049429416656,-1.3257490396499634,1.701711893081665,-0.37488290667533875
6.21253228187561,0.02367454208433628,0.05458718165755272,-1.3262726068496704,1.7077534198760986,-0.3805234432220459
6.251659631729126,0.026541369035840034,0.060918744653463364,-1.3266257047653198,1.7139203548431396,-0.38647663593292236
6.292825222015381,0.029150312766432762,0.06682488322257996,-1.3268393278121948,1.7201787233352661,-0.3926745653152466
6.329533815383911,0.031505875289440155,0.07230519503355026,-1.3269412517547607,1.7264996767044067,-0.3990554213523865
6.367977857589722,0.033614158630371094,0.07736118137836456,-1.3269609212875366,1.7328566312789917,-0.40555882453918457
6.40688419342041,0.03548334166407585,0.08199690282344818,-1.3269237279891968,1.7392231225967407,-0.4121295213699341
6.447117328643799,0.03712242841720581,0.08621536940336227,-1.3268554210662842,1.745576024055481,-0.4187149703502655
6.485041379928589,0.038543302565813065,0.09002400189638138,-1.3267807960510254,1.7518945932388306,-0.425269216299057
6.522858619689941,0.03975559398531914,0.09342864900827408,-1.3267207145690918,1.7581596374511719,-0.4317479431629181
6.5618462562561035,0.04077218845486641,0.09643802791833878,-1.3266974687576294,1.7643553018569946,-0.4381120204925537
6.601817846298218,0.04160371050238609,0.09906017035245895,-1.3267288208007812,1.7704665660858154,-0.44432714581489563
6.638925075531006,0.0422622449696064,0.10130520164966583,-1.3268333673477173,1.7764836549758911,-0.45036327838897705
6.678161859512329,0.04275859147310257,0.10318218171596527,-1.3270238637924194,1.7823926210403442,-0.456193208694458
6.717563629150391,0.0431036613881588,0.10470159351825714,-1.327315092086792,1.7881841659545898,-0.46179354190826416
6.755548000335693,0.043307188898324966,0.1058732122182846,-1.3277173042297363,1.7938547134399414,-0.4671480655670166
6.794846057891846,0.04337861016392708,0.10670792311429977,-1.3282393217086792,1.7993957996368408,-0.47223973274230957
6.834632396697998,0.04332577809691429,0.10721573978662491,-1.3288872241973877,1.8048040866851807,-0.47705891728401184
6.871936082839966,0.043156303465366364,0.10740629583597183,-1.329667091369629,1.8100780248641968,-0.4815984070301056
6.910942077636719,0.042877208441495895,0.10728952288627625,-1.3305792808532715,1.815213680267334,-0.4858538806438446
6.950668573379517,0.04249366745352745,0.10687488317489624,-1.3316240310668945,1.8202120065689087,-0.48982468247413635
6.988158226013184,0.042010363191366196,0.10617125034332275,-1.3328009843826294,1.8250739574432373,-0.4935149848461151
7.02678656578064,0.04143129661679268,0.10518749058246613,-1.3341057300567627,1.8298016786575317,-0.4969291090965271
7.066777467727661,0.04075939953327179,0.10393185913562775,-1.3355313539505005,1.8343969583511353,-0.5000768899917603
7.104051113128662,0.03999710828065872,0.10241206735372543,-1.3370716571807861,1.838864803314209,-0.5029699802398682
7.14324688911438,0.039146292954683304,0.10063595324754715,-1.3387161493301392,1.8432103395462036,-0.5056234002113342
7.1825175285339355,0.03820794075727463,0.09861083328723907,-1.3404535055160522,1.847438097000122,-0.5080544352531433
7.220108270645142,0.037182942032814026,0.09634406864643097,-1.3422720432281494,1.8515558242797852,-0.5102819204330444
7.25875186920166,0.03607232868671417,0.09384249895811081,-1.3441559076309204,1.85556960105896,-0.5123286843299866
7.297984600067139,0.034875232726335526,0.09111426770687103,-1.3460890054702759,1.8594871759414673,-0.514218807220459
7.335250377655029,0.03359305113554001,0.0881657525897026,-1.3480560779571533,1.8633180856704712,-0.5159792900085449
7.374057054519653,0.03222625330090523,0.08500564098358154,-1.3500373363494873,1.8670718669891357,-0.5176380276679993
7.412248611450195,0.0307756420224905,0.08164163678884506,-1.3520125150680542,1.8707584142684937,-0.5192252993583679
7.4514546394348145,0.029242029413580894,0.07808265089988708,-1.353964924812317,1.874387264251709,-0.5207725167274475
7.488017320632935,0.02762802690267563,0.0743386447429657,-1.3558679819107056,1.8779710531234741,-0.5223134160041809
7.527926921844482,0.025935906916856766,0.07041992992162704,-1.3577051162719727,1.8815191984176636,-0.5238804817199707
7.566624879837036,0.024169573560357094,0.06633840501308441,-1.3594496250152588,1.8850432634353638,-0.5255095362663269
7.60603404045105,0.022333940491080284,0.06210679933428764,-1.3610817193984985,1.8885551691055298,-0.5272359251976013
7.645551681518555,0.020434027537703514,0.05773943290114403,-1.362577199935913,1.892066478729248,-0.5290960669517517
7.686375141143799,0.018478255718946457,0.053252898156642914,-1.3639140129089355,1.895587682723999,-0.5311229228973389
7.724580526351929,0.016474103555083275,0.04866413027048111,-1.3650683164596558,1.8991305828094482,-0.5333539843559265
7.764471054077148,0.014432564377784729,0.04399307817220688,-1.3660188913345337,1.9027042388916016,-0.5358206033706665
7.801684141159058,0.012364578433334827,0.03926115483045578,-1.366744041442871,1.9063189029693604,-0.5385565161705017
7.840593576431274,0.010282997041940689,0.03449181839823723,-1.3672235012054443,1.909983515739441,-0.5415917038917542
7.880307197570801,0.00820254348218441,0.029711030423641205,-1.3674379587173462,1.9137036800384521,-0.5449530482292175
7.919266939163208,0.006138729862868786,0.024946438148617744,-1.3673704862594604,1.917487382888794,-0.5486652851104736
7.958236217498779,0.004108356777578592,0.020228905603289604,-1.367004156112671,1.9213371276855469,-0.5527493357658386
7.998796224594116,0.002129422966390848,0.01558992825448513,-1.3663278818130493,1.925255298614502,-0.5572203993797302
8.036444902420044,0.00021962018217891455,0.011065148748457432,-1.3653302192687988,1.9292433261871338,-0.562090277671814
8.075591564178467,-0.001601350144483149,0.006690459791570902,-1.364003300666809,1.9332966804504395,-0.5673636794090271
8.114507913589478,-0.003315406385809183,0.0025050677359104156,-1.3623448610305786,1.9374103546142578,-0.5730391144752502
8.153479814529419,-0.004904246889054775,-0.0014517002273350954,-1.3603551387786865,1.9415768384933472,-0.5791085958480835
8.192348957061768,-0.006349556613713503,-0.005138304550200701,-1.358041524887085,1.9457863569259644,-0.5855540633201599
8.231355428695679,-0.007636386901140213,-0.00851286668330431,-1.3554129600524902,1.9500226974487305,-0.5923519730567932
8.268985509872437,-0.008748826570808887,-0.011533159762620926,-1.3524878025054932,1.954270362854004,-0.5994677543640137
8.308244228363037,-0.009676077403128147,-0.014158597216010094,-1.3492896556854248,1.9585093259811401,-0.6068588495254517
8.3484525680542,-0.010407429188489914,-0.01634894125163555,-1.3458473682403564,1.9627143144607544,-0.6144713163375854
8.38626217842102,-0.010936740785837173,-0.0180672500282526,-1.342198371887207,1.9668601751327515,-0.6222432851791382
8.425451517105103,-0.011260341852903366,-0.019279927015304565,-1.3383874893188477,1.9709181785583496,-0.630102276802063
8.465036392211914,-0.011378344148397446,-0.019958987832069397,-1.3344649076461792,1.974855899810791,-0.6379660367965698
8.502282619476318,-0.011293231509625912,-0.020081674680113792,-1.3304883241653442,1.9786391258239746,-0.6457455158233643
8.541359424591064,-0.011012140661478043,-0.019633589312434196,-1.3265225887298584,1.9822331666946411,-0.6533404588699341
8.58100175857544,-0.010543984360992908,-0.018608765676617622,-1.3226360082626343,1.9856003522872925,-0.6606481075286865
8.619647979736328,-0.009901219047605991,-0.01701204478740692,-1.3189032077789307,1.9887032508850098,-0.6675570011138916
8.65727186203003,-0.009097998030483723,-0.014858979731798172,-1.3154003620147705,1.991503357887268,-0.6739549040794373
8.696864604949951,-0.008150970563292503,-0.012178301811218262,-1.3122056722640991,1.9939630031585693,-0.6797276735305786
8.736174583435059,-0.007077019661664963,-0.00901077687740326,-1.3093955516815186,1.9960452318191528,-0.6847618818283081
8.776513814926147,-0.005894921254366636,-0.005411923862993717,-1.3070436716079712,1.9977151155471802,-0.6889484524726868
8.816031694412231,-0.004624064080417156,-0.0014500166289508343,-1.305220127105713,1.9989408254623413,-0.6921863555908203
8.856269836425781,-0.0032843053340911865,0.0027930045034736395,-1.3039860725402832,1.999693512916565,-0.6943839192390442
8.896234035491943,-0.0018962277099490166,0.007223635911941528,-1.303390383720398,1.99994695186615,-0.6954624652862549
8.936468601226807,-0.00048194313421845436,0.011735403910279274,-1.3034744262695312,1.999680519104004,-0.695359468460083
8.975140571594238,0.0009354188805446029,0.016215279698371887,-1.3042596578598022,1.9988805055618286,-0.6940325498580933
9.014806032180786,0.0023293886333703995,0.020540514960885048,-1.3057544231414795,1.9975385665893555,-0.6914599537849426
9.052527904510498,0.003670967184007168,0.024585062637925148,-1.3079464435577393,1.9956525564193726,-0.6876452565193176
9.092148065567017,0.004927560221403837,0.02822166308760643,-1.3108073472976685,1.993229627609253,-0.6826185584068298
9.132078170776367,0.006061875261366367,0.031324420124292374,-1.3142844438552856,1.9902853965759277,-0.6764355301856995
9.169452428817749,0.007032547611743212,0.03377268463373184,-1.3183118104934692,1.9868414402008057,-0.669182538986206
9.208607912063599,0.007793623022735119,0.03545496612787247,-1.3227953910827637,1.9829336404800415,-0.6609732508659363
9.248035192489624,0.008296875283122063,0.03627181798219681,-1.3276352882385254,1.9786049127578735,-0.6519480347633362
9.285030364990234,0.00849177222698927,0.03613751009106636,-1.332707166671753,1.9739083051681519,-0.6422739028930664
9.322961568832397,0.008328940719366074,0.03498550131917,-1.3378782272338867,1.9689056873321533,-0.6321421265602112
9.361924171447754,0.007761034648865461,0.032767586410045624,-1.3430070877075195,1.963670015335083,-0.6217628717422485
9.401011228561401,0.0067481365986168385,0.029457228258252144,-1.34794282913208,1.9582809209823608,-0.611365556716919
9.44094181060791,0.005259111523628235,0.02504892088472843,-1.3525395393371582,1.9528270959854126,-0.6011888980865479
9.481011152267456,0.0032753306441009045,0.019558081403374672,-1.356641173362732,1.9474021196365356,-0.5914829969406128
9.519361972808838,0.00079412164632231,0.013022360391914845,-1.3601059913635254,1.9421014785766602,-0.5824995040893555
9.559898614883423,-0.002169195096939802,0.005498162005096674,-1.362788438796997,1.9370278120040894,-0.5744888782501221
9.599748849868774,-0.005580266006290913,-0.0029384715016931295,-1.3645577430725098,1.9322770833969116,-0.5676966309547424
9.63761591911316,-0.009383192285895348,-0.012194723822176456,-1.3652853965759277,1.9279463291168213,-0.5623546242713928
9.67780065536499,-0.013501428067684174,-0.02216123417019844,-1.364855170249939,1.92412269115448,-0.5586825013160706
9.716810941696167,-0.017838547006249428,-0.032712072134017944,-1.3631591796875,1.920885443687439,-0.5568780303001404
9.754789113998413,-0.022280853241682053,-0.04370710253715515,-1.360098123550415,1.9183026552200317,-0.5571150779724121
9.794530153274536,-0.026698218658566475,-0.05499013140797615,-1.3555841445922852,1.9164259433746338,-0.5595395565032959
9.833667516708374,-0.030951092019677162,-0.06638967990875244,-1.3495360612869263,1.9152898788452148,-0.5642657279968262
9.871999502182007,-0.03489259257912636,-0.0777180939912796,-1.3418906927108765,1.914906620979309,-0.5713696479797363
9.91261625289917,-0.03837747871875763,-0.0887705385684967,-1.3325951099395752,1.9152708053588867,-0.580886721611023
9.951056003570557,-0.041267029941082,-0.09932617098093033,-1.3216205835342407,1.9163531064987183,-0.5928078293800354
9.989006042480469,-0.043437790125608444,-0.10914729535579681,-1.3089600801467896,1.9181010723114014,-0.6070727705955505
10.029077529907227,-0.044790592044591904,-0.11798310279846191,-1.2946399450302124,1.9204411506652832,-0.6235689520835876
10.067010879516602,-0.04525629058480263,-0.1255725622177124,-1.278722882270813,1.9232797622680664,-0.6421279311180115
10.106735467910767,-0.044806286692619324,-0.13165125250816345,-1.261319637298584,1.9265042543411255,-0.662520170211792
10.146679639816284,-0.04345550388097763,-0.1359577476978302,-1.2425893545150757,1.9299893379211426,-0.6844606399536133
10.185642957687378,-0.04126698896288872,-0.13824714720249176,-1.2227498292922974,1.9335944652557373,-0.7076016664505005
10.22543978691101,-0.0383484922349453,-0.13830029964447021,-1.202068567276001,1.9371734857559204,-0.7315449714660645
10.26454782485962,-0.03484940528869629,-0.13593725860118866,-1.1808711290359497,1.9405765533447266,-0.7558454275131226
10.302822828292847,-0.03094915859401226,-0.1310315877199173,-1.1595230102539062,1.9436559677124023,-0.7800183892250061
10.342465162277222,-0.02697853371500969,-0.12341802567243576,-1.138278603553772,1.9461711645126343,-0.8000000715255737
10.381455183029175,-0.024060185998678207,-0.11321742832660675,-1.1148977279663086,1.9475774765014648,-0.8000006675720215
10.420061826705933,-0.0208616703748703,-0.10054125636816025,-1.093156099319458,1.9481548070907593,-0.8000012636184692
10.459330797195435,-0.01764651946723461,-0.08548494428396225,-1.0732264518737793,1.9480037689208984,-0.800001859664917
10.499534130096436,-0.014532677829265594,-0.06840021163225174,-1.0550552606582642,1.9470237493515015,-0.8000022768974304
10.537538766860962,-0.011411511339247227,-0.04937276616692543,-1.0397682189941406,1.9450801610946655,-0.8000026345252991
10.57701325416565,-0.008454428054392338,-0.028888417407870293,-1.027015209197998,1.9421892166137695,-0.800002932548523
10.61588454246521,-0.005508252419531345,-0.007177166640758514,-1.0176352262496948,1.9382268190383911,-0.8000030517578125
10.654595613479614,-0.0026361201889812946,0.015253639779984951,-1.0114306211471558,1.933212161064148,-0.8000031113624573
10.695520162582397,0.00028310343623161316,0.03804653510451317,-1.0087963342666626,1.9270751476287842,-0.8000031113624573
10.734750509262085,0.0032626288011670113,0.06070784479379654,-1.0096030235290527,1.9198286533355713,-0.8000028729438782
10.775079011917114,0.006377986166626215,0.0828264132142067,-1.0138999223709106,1.9114490747451782,-0.8000025749206543
10.81396222114563,0.009648414328694344,0.10394734889268875,-1.0215003490447998,1.9019570350646973,-0.8000021576881409
10.852569103240967,0.013093123212456703,0.12367496639490128,-1.0322072505950928,1.8913698196411133,-0.8000016212463379
10.892503499984741,0.01668773964047432,0.1416226476430893,-1.0457115173339844,1.8797262907028198,-0.8000010251998901
10.932132482528687,0.020388325676321983,0.15746590495109558,-1.061646580696106,1.8670779466629028,-0.8000002503395081
10.971368074417114,0.024993037804961205,0.1705312281847,-1.0786101818084717,1.8528894186019897,-0.7824602127075195
11.010368824005127,0.031066197901964188,0.18122096359729767,-1.0936857461929321,1.8374481201171875,-0.7515220046043396
11.050476312637329,0.03660387173295021,0.18858812749385834,-1.1118683815002441,1.8207993507385254,-0.7185838222503662
11.088637113571167,0.04243851825594902,0.19318218529224396,-1.1294137239456177,1.8035695552825928,-0.6841998100280762
11.128701210021973,0.047608282417058945,0.19464461505413055,-1.1474056243896484,1.7855989933013916,-0.6489709615707397
11.167508602142334,0.05212882533669472,0.1931363344192505,-1.164974570274353,1.767155408859253,-0.6134052276611328
11.206512928009033,0.05570809915661812,0.18887947499752045,-1.1814700365066528,1.7484360933303833,-0.5781129598617554
11.248509407043457,0.05799534171819687,0.18191897869110107,-1.1970515251159668,1.7295483350753784,-0.5435808300971985
11.287036895751953,0.05902834236621857,0.17267780005931854,-1.2109100818634033,1.710791826248169,-0.510321319103241
11.324252843856812,0.058525774627923965,0.1612900048494339,-1.2232472896575928,1.6922855377197266,-0.47876670956611633
11.364836692810059,0.056607261300086975,0.1481454223394394,-1.2336772680282593,1.674290418624878,-0.44930142164230347
11.402505159378052,0.053225718438625336,0.1334807574748993,-1.2422271966934204,1.656975507736206,-0.422261506319046
11.442577362060547,0.04851456731557846,0.11759524792432785,-1.2488749027252197,1.6405305862426758,-0.39790987968444824
11.48151159286499,0.04261172562837601,0.10075388103723526,-1.253581166267395,1.6251336336135864,-0.3764711022377014
11.5201895236969,0.0356818363070488,0.08318556100130081,-1.2564619779586792,1.6109176874160767,-0.3581019639968872
11.560451745986938,0.027947885915637016,0.0651245191693306,-1.2575169801712036,1.5980182886123657,-0.3429182171821594
11.598916053771973,0.01961204595863819,0.04675719887018204,-1.2568596601486206,1.5865199565887451,-0.3309858441352844
11.637842893600464,0.010913915932178497,0.028272001072764397,-1.2545413970947266,1.5764884948730469,-0.3223244845867157
11.677254676818848,0.0020740313921123743,0.009830491617321968,-1.2506325244903564,1.5679535865783691,-0.3169179856777191
11.71671724319458,-0.0066843037493526936,-0.008411252871155739,-1.2452043294906616,1.560914397239685,-0.31470879912376404
11.755293607711792,-0.015150235034525394,-0.026304343715310097,-1.2383030652999878,1.5553370714187622,-0.3156042695045471
11.794614315032959,-0.023134157061576843,-0.043708913028240204,-1.2299898862838745,1.5511598587036133,-0.3194774091243744
11.832887649536133,-0.030460715293884277,-0.06048149615526199,-1.2203086614608765,1.5482964515686035,-0.3261715769767761
11.870530128479004,-0.03698616474866867,-0.07648390531539917,-1.209312915802002,1.5466334819793701,-0.3354976177215576
11.91066026687622,-0.04259085655212402,-0.09157615154981613,-1.1970568895339966,1.546043038368225,-0.3472406566143036
11.94980764389038,-0.0471881665289402,-0.10562073439359665,-1.1836093664169312,1.5463825464248657,-0.3611586391925812
11.988034725189209,-0.05072604864835739,-0.11848472058773041,-1.1690497398376465,1.5475002527236938,-0.37699049711227417
12.027837038040161,-0.05318525806069374,-0.13004033267498016,-1.1534758806228638,1.5492407083511353,-0.39445391297340393
12.067615747451782,-0.05458313971757889,-0.1401725709438324,-1.137007474899292,1.551448106765747,-0.41325175762176514
12.106548309326172,-0.054968640208244324,-0.14878079295158386,-1.1197831630706787,1.5539730787277222,-0.4330787658691406
12.146653652191162,-0.05442185327410698,-0.1557835340499878,-1.1019630432128906,1.556671380996704,-0.4536217749118805
12.184025526046753,-0.05304776504635811,-0.16112473607063293,-1.083722710609436,1.5594091415405273,-0.4745696783065796
12.223554134368896,-0.05097024142742157,-0.16477365791797638,-1.065253734588623,1.5620670318603516,-0.49561792612075806
12.26331877708435,-0.04832713305950165,-0.16673065721988678,-1.0467541217803955,1.5645381212234497,-0.5164714455604553
12.30248737335205,-0.04526017978787422,-0.16702458262443542,-1.0284219980239868,1.5667327642440796,-0.536855936050415
12.341677188873291,-0.04190995544195175,-0.16571509838104248,-1.010453224182129,1.5685750246047974,-0.5565170049667358
12.381699562072754,-0.03840849921107292,-0.16288866102695465,-0.9930323362350464,1.5700030326843262,-0.5752245187759399
12.419733047485352,-0.034873344004154205,-0.15865623950958252,-0.9763227701187134,1.5709713697433472,-0.592782199382782
12.459541320800781,-0.03140506148338318,-0.1531495302915573,-0.9604726433753967,1.5714480876922607,-0.6090224981307983
12.498910665512085,-0.028082633391022682,-0.1465141624212265,-0.945601761341095,1.571408987045288,-0.6238096952438354
12.536914348602295,-0.024966100230813026,-0.13890814781188965,-0.9318077564239502,1.5708478689193726,-0.6370425224304199
12.574723720550537,-0.022093873471021652,-0.1304938644170761,-0.9191598296165466,1.5697619915008545,-0.648649275302887
12.614391565322876,-0.01948629878461361,-0.12143602222204208,-0.907704770565033,1.5681577920913696,-0.6585888266563416
12.653053998947144,-0.017147591337561607,-0.11189678311347961,-0.8974636793136597,1.5660511255264282,-0.6668465733528137
12.693004369735718,-0.01506893988698721,-0.10203178972005844,-0.8884397745132446,1.5634610652923584,-0.6734354496002197
12.732394218444824,-0.013233288191258907,-0.09198934584856033,-0.8806145787239075,1.560410737991333,-0.6783890128135681
12.770465612411499,-0.011615588329732418,-0.08190695196390152,-0.873955488204956,1.5569287538528442,-0.6817594170570374
12.810152053833008,-0.010187901556491852,-0.07191066443920135,-0.8684186339378357,1.553045392036438,-0.6836166381835938
12.84908413887024,-0.00892154686152935,-0.06211360916495323,-0.8639451265335083,1.5487936735153198,-0.6840440630912781
12.888247013092041,-0.007787953596562147,-0.05261622369289398,-0.8604717254638672,1.5442075729370117,-0.6831348538398743
12.927993059158325,-0.006761534605175257,-0.043505117297172546,-0.8579275608062744,1.539323329925537,-0.6809908747673035
12.96687364578247,-0.0058201090432703495,-0.03485492244362831,-0.8562376499176025,1.5341768264770508,-0.6777207851409912
13.007213115692139,-0.004945872817188501,-0.026725929230451584,-0.8553253412246704,1.5288074016571045,-0.6734371185302734
13.046209335327148,-0.004124796018004417,-0.01916727051138878,-0.8551115989685059,1.5232486724853516,-0.6682511568069458
13.085053443908691,-0.0033477600663900375,-0.012216255068778992,-0.855519711971283,1.517539620399475,-0.6622779965400696
13.124979019165039,-0.0026091234758496284,-0.005898831412196159,-0.8564732074737549,1.5117172002792358,-0.6556289196014404
13.163701057434082,-0.0019071390852332115,-0.00023173916270025074,-0.8578996062278748,1.5058174133300781,-0.64841228723526
13.201732873916626,-0.001242658356204629,0.004777757450938225,-0.8597294092178345,1.499874234199524,-0.6407327055931091
13.241722583770752,-0.0006188532570376992,0.009131225757300854,-0.8618966937065125,1.4939213991165161,-0.6326892971992493
13.28056812286377,-4.074448952451348e-05,0.012836272828280926,-0.8643415570259094,1.487992525100708,-0.6243752241134644
13.319525241851807,0.0004861110937781632,0.01590728759765625,-0.8670098185539246,1.482117772102356,-0.6158764958381653
13.360130310058594,0.0009555811993777752,0.01836453378200531,-0.8698503375053406,1.4763264656066895,-0.607273519039154
13.399013757705688,0.0013611778849735856,0.02023138850927353,-0.8728218674659729,1.4706462621688843,-0.5986363887786865
13.43792176246643,0.001697728643193841,0.021536102518439293,-0.8758844137191772,1.465100646018982,-0.5900297164916992
13.477525234222412,0.0019600442610681057,0.02230822481215,-0.87900710105896,1.4597134590148926,-0.5815092325210571
13.516223430633545,0.002144110854715109,0.022581135854125023,-0.8821633458137512,1.4545069932937622,-0.5731242895126343
13.554982662200928,0.0022472203709185123,0.022387925535440445,-0.8853317499160767,1.4494985342025757,-0.5649147629737854
13.594736814498901,0.0022677239030599594,0.021762704476714134,-0.8884968757629395,1.4447022676467896,-0.556914210319519
13.633759498596191,0.0022052060812711716,0.02074071578681469,-0.8916464447975159,1.4401342868804932,-0.5491491556167603
13.673211812973022,0.0020599975250661373,0.01935614086687565,-0.8947731256484985,1.4358028173446655,-0.5416389107704163
13.713084936141968,0.0018336856737732887,0.017643103376030922,-0.8978754281997681,1.4317196607589722,-0.5343971252441406
13.751243114471436,0.0015291618183255196,0.01563471555709839,-0.9009526968002319,1.4278910160064697,-0.5274319648742676
13.789386987686157,0.0011491022305563092,0.013363531790673733,-0.9040084481239319,1.4243172407150269,-0.5207440257072449
13.830018043518066,0.0006979929748922586,0.010860651731491089,-0.9070497155189514,1.4210050106048584,-0.5143319368362427
13.868306398391724,0.0001795449643395841,0.008155562914907932,-0.91008460521698,1.4179526567459106,-0.5081878900527954
13.907145261764526,-0.00040073913987725973,0.005278045777231455,-0.913125216960907,1.4151597023010254,-0.5023005604743958
13.946841478347778,-0.0010386414360255003,0.0022552136797457933,-0.9161838293075562,1.412623405456543,-0.49665552377700806
13.986106157302856,-0.0017283244524151087,-0.0008860199595801532,-0.919274091720581,1.4103384017944336,-0.4912351071834564
14.025163650512695,-0.0024651666171848774,-0.004119804594665766,-0.9224120378494263,1.4082976579666138,-0.48601779341697693
14.064908981323242,-0.0032435012981295586,-0.007421430200338364,-0.9256129860877991,1.4064959287643433,-0.48098230361938477
14.103710889816284,-0.004058179445564747,-0.010766894556581974,-0.9288937449455261,1.4049228429794312,-0.47610336542129517
14.142033576965332,-0.004903892986476421,-0.014132767915725708,-0.9322725534439087,1.4035718441009521,-0.47135546803474426
14.181962490081787,-0.00577544653788209,-0.017495552077889442,-0.9357659816741943,1.402431607246399,-0.4667125940322876
14.220069408416748,-0.0066678510047495365,-0.020832620561122894,-0.9393899440765381,1.4014933109283447,-0.46214666962623596
14.25995397567749,-0.007575655821710825,-0.02412116713821888,-0.9431637525558472,1.4007450342178345,-0.4576314091682434
14.300216913223267,-0.008493106812238693,-0.02733793295919895,-0.9471006393432617,1.4001778364181519,-0.4531385600566864
14.33774471282959,-0.00941553059965372,-0.030460620298981667,-0.9512186646461487,1.3997793197631836,-0.4486429989337921
14.376864433288574,-0.010336237959563732,-0.033464979380369186,-0.9555298089981079,1.3995380401611328,-0.4441182315349579
14.416788101196289,-0.011249586939811707,-0.03632790222764015,-0.9600488543510437,1.3994463682174683,-0.43954163789749146
14.45559024810791,-0.012148357927799225,-0.03902411833405495,-0.9647865891456604,1.3994941711425781,-0.4348900616168976
14.495442628860474,-0.013025405816733837,-0.041529446840286255,-0.9697536826133728,1.399673342704773,-0.4301455616950989
14.534654378890991,-0.013872487470507622,-0.04381744936108589,-0.9749568700790405,1.399971842765808,-0.4252883791923523
14.573321342468262,-0.014680939726531506,-0.04586294665932655,-0.9804022312164307,1.4003877639770508,-0.4203071594238281
14.612975835800171,-0.01543997973203659,-0.04763827472925186,-0.9860949516296387,1.4009126424789429,-0.4151904582977295
14.652796983718872,-0.016139473766088486,-0.0491163469851017,-0.9920334815979004,1.4015449285507202,-0.4099330008029938
14.69275164604187,-0.016766922548413277,-0.05026999115943909,-0.9982171654701233,1.4022793769836426,-0.40453094244003296
14.733182907104492,-0.01730862259864807,-0.0510709322988987,-1.0046409368515015,1.4031201601028442,-0.39899009466171265
14.772081136703491,-0.01774965599179268,-0.05149201676249504,-1.0112961530685425,1.4040635824203491,-0.39331579208374023
14.81202745437622,-0.018074719235301018,-0.05150562897324562,-1.0181728601455688,1.405120849609375,-0.38752481341362
14.850711584091187,-0.018265841528773308,-0.051085248589515686,-1.025255799293518,1.406294345855713,-0.38163572549819946
14.8893404006958,-0.01830531656742096,-0.05020517483353615,-1.0325262546539307,1.4075968265533447,-0.37567538022994995
14.928602933883667,-0.018173784017562866,-0.04884108901023865,-1.039964199066162,1.4090402126312256,-0.3696764409542084
14.967283487319946,-0.017852136865258217,-0.04697013273835182,-1.0475438833236694,1.410640835762024,-0.3636798560619354
15.005001306533813,-0.017320074141025543,-0.04457217827439308,-1.055239200592041,1.4124213457107544,-0.3577316999435425
15.045469522476196,-0.016557861119508743,-0.04162922129034996,-1.0630172491073608,1.4144030809402466,-0.35188621282577515
15.084789991378784,-0.015547466464340687,-0.03812588006258011,-1.0708469152450562,1.4166134595870972,-0.3462046980857849
15.122772693634033,-0.01427049282938242,-0.034050483256578445,-1.0786890983581543,1.4190839529037476,-0.340755432844162
15.161854267120361,-0.012711555697023869,-0.029394738376140594,-1.086506962776184,1.421849012374878,-0.3356122076511383
15.200666904449463,-0.010858166962862015,-0.024154797196388245,-1.0942587852478027,1.4249448776245117,-0.330856591463089
15.240143060684204,-0.008700316771864891,-0.018329748883843422,-1.1019001007080078,1.4284148216247559,-0.3265756070613861
15.279378652572632,-0.006233439315110445,-0.011924267746508121,-1.109387755393982,1.4322994947433472,-0.322860449552536
15.318189859390259,-0.003456755541265011,-0.004947638604789972,-1.1166729927062988,1.4366443157196045,-0.3198077082633972
15.35678482055664,-0.00037576770409941673,0.0025868050288408995,-1.1237093210220337,1.4414962530136108,-0.31751760840415955
15.397032022476196,0.0029964561108499765,0.010660017840564251,-1.1304434537887573,1.4469026327133179,-0.3160926103591919
15.435187339782715,0.006641774903982878,0.01924772560596466,-1.1368272304534912,1.4529086351394653,-0.315637469291687
15.474557399749756,0.010532724671065807,0.0283211562782526,-1.1428035497665405,1.4595599174499512,-0.3162561058998108
15.51401662826538,0.014633559621870518,0.03784378990530968,-1.148316740989685,1.4669009447097778,-0.3180526793003082
15.552817106246948,0.018901178613305092,0.04777507111430168,-1.1533126831054688,1.474969506263733,-0.3211285173892975
15.592424154281616,0.02328292839229107,0.05806667357683182,-1.1577264070510864,1.4838004112243652,-0.3255811631679535
15.632260084152222,0.02771807089447975,0.06866329908370972,-1.1614980697631836,1.4934204816818237,-0.33150234818458557
15.670088768005371,0.032137103378772736,0.0795023962855339,-1.1645638942718506,1.5038495063781738,-0.33897683024406433
15.709733486175537,0.036464132368564606,0.09051192551851273,-1.1668553352355957,1.5151015520095825,-0.3480803668498993
15.749587059020996,0.04061577096581459,0.10161102563142776,-1.1683069467544556,1.5271769762039185,-0.35887768864631653
15.787927150726318,0.04450397565960884,0.11270829290151596,-1.1688499450683594,1.540067195892334,-0.3714197874069214
15.828417301177979,0.04803869128227234,0.1237005814909935,-1.1684198379516602,1.5537554025650024,-0.3857426941394806
15.867455244064331,0.051126617938280106,0.13447250425815582,-1.1669529676437378,1.5682063102722168,-0.40186411142349243
15.905972242355347,0.053680114448070526,0.14489641785621643,-1.1643940210342407,1.5833780765533447,-0.4197811484336853
15.946622371673584,0.05561521276831627,0.15483008325099945,-1.1606967449188232,1.5992153882980347,-0.43946772813796997
15.984059810638428,0.05685829371213913,0.16412025690078735,-1.155829906463623,1.615652322769165,-0.460873544216156
16.0305118560791,0.05735098943114281,0.17260000109672546,-1.1497774124145508,1.6326100826263428,-0.4839164912700653
16.06536626815796,0.05705256387591362,0.18009330332279205,-1.1425518989562988,1.650001049041748,-0.5084854960441589
16.101916074752808,0.0559471920132637,0.18641702830791473,-1.1341917514801025,1.6677296161651611,-0.5344352126121521
16.142037868499756,0.05404505878686905,0.19138534367084503,-1.1247680187225342,1.6856931447982788,-0.5615863800048828
16.18106245994568,0.05138622596859932,0.19481632113456726,-1.1143925189971924,1.7037816047668457,-0.5897233486175537
16.21912169456482,0.0480429008603096,0.19653640687465668,-1.1032150983810425,1.7218844890594482,-0.6185935735702515
16.25880265235901,0.04411548376083374,0.19639088213443756,-1.0914275646209717,1.7398905754089355,-0.6479149460792542
16.29855751991272,0.03973250836133957,0.19424931704998016,-1.079258680343628,1.757684588432312,-0.6773677468299866
16.335976123809814,0.035041455179452896,0.19001440703868866,-1.0669728517532349,1.7751572132110596,-0.7066112756729126
16.376487493515015,0.030201734974980354,0.18362963199615479,-1.0548622608184814,1.7922052145004272,-0.7352833151817322
16.416004419326782,0.025374844670295715,0.17508287727832794,-1.0432358980178833,1.8087289333343506,-0.7630071640014648
16.454251289367676,0.020711086690425873,0.1644119918346405,-1.0324105024337769,1.8246347904205322,-0.7894031405448914
16.494293689727783,0.016812443733215332,0.15148986876010895,-1.0222938060760498,1.8394440412521362,-0.8000003099441528
16.533619165420532,0.014246650971472263,0.13705328106880188,-1.0101585388183594,1.853206753730774,-0.8000009655952454
16.57153034210205,0.01111367903649807,0.12052350491285324,-1.0020017623901367,1.8659378290176392,-0.8000015616416931
16.611653089523315,0.008445300161838531,0.10280964523553848,-0.994885265827179,1.8780908584594727,-0.8000020384788513
16.650564908981323,0.00566878542304039,0.0837477594614029,-0.9906182885169983,1.8893128633499146,-0.8000024557113647
16.689465522766113,0.0030562870670109987,0.0638154149055481,-0.9889174103736877,1.8996860980987549,-0.8000028133392334
16.729528665542603,0.0004889374831691384,0.0432707853615284,-0.9899375438690186,1.9091404676437378,-0.8000030517578125
16.770452737808228,-0.0020596450194716454,0.02244209311902523,-0.9940266609191895,1.917626976966858,-0.800003170967102
16.80887484550476,-0.004596171900629997,0.001728973351418972,-1.0009533166885376,1.9251600503921509,-0.800003170967102
16.850744247436523,-0.00719456234946847,-0.01854717545211315,-1.010938048362732,1.9316961765289307,-0.800003170967102
16.88855290412903,-0.009851441718637943,-0.03798098862171173,-1.0236965417861938,1.9372645616531372,-0.8000029921531677
16.929704427719116,-0.012606414034962654,-0.05624917894601822,-1.039185881614685,1.9418600797653198,-0.8000026941299438
16.968650341033936,-0.015436206012964249,-0.07299885153770447,-1.0570789575576782,1.9455279111862183,-0.8000023365020752
17.008541107177734,-0.018325475975871086,-0.08794789761304855,-1.0771193504333496,1.9483038187026978,-0.8000019192695618
17.04804253578186,-0.021211709827184677,-0.10083377361297607,-1.0989114046096802,1.9502555131912231,-0.8000013828277588
17.08608388900757,-0.024024292826652527,-0.11146395653486252,-1.1220580339431763,1.9514597654342651,-0.8000008463859558
17.125340461730957,-0.026665054261684418,-0.11969511955976486,-1.1461107730865479,1.9520113468170166,-0.8000002503395081
17.166669368743896,-0.029374966397881508,-0.12522269785404205,-1.1702117919921875,1.9517625570297241,-0.7868670225143433
17.20293617248535,-0.03293648734688759,-0.1285012811422348,-1.1908353567123413,1.9508326053619385,-0.7641170620918274
17.2429256439209,-0.03540629893541336,-0.12889951467514038,-1.2131165266036987,1.9492794275283813,-0.7413270473480225
17.282613277435303,-0.03766466677188873,-0.1271936297416687,-1.23337721824646,1.9477839469909668,-0.7190653085708618
17.32142472267151,-0.038888853043317795,-0.12319301813840866,-1.2530596256256104,1.9461838006973267,-0.6978253126144409
17.360257863998413,-0.039393071085214615,-0.1173364669084549,-1.2710806131362915,1.9448004961013794,-0.6780127882957458
17.400168657302856,-0.03893888369202614,-0.10981307923793793,-1.2874459028244019,1.94371497631073,-0.6600668430328369
17.438470602035522,-0.03762229159474373,-0.10093285888433456,-1.302043080329895,1.9430689811706543,-0.6442757248878479
17.478801012039185,-0.035504478961229324,-0.09101657569408417,-1.3145760297775269,1.9429943561553955,-0.6309366822242737
17.517290115356445,-0.0326739177107811,-0.08034426718950272,-1.3251752853393555,1.9435476064682007,-0.6202186942100525
17.555729150772095,-0.02931215986609459,-0.06924688071012497,-1.3336368799209595,1.944818139076233,-0.6122570633888245
17.59603261947632,-0.025558462366461754,-0.05799639970064163,-1.3401089906692505,1.946810007095337,-0.6070923209190369
17.63407278060913,-0.021622179076075554,-0.04689408838748932,-1.344536304473877,1.9495368003845215,-0.6047062873840332
17.673237085342407,-0.017669381573796272,-0.03619978949427605,-1.347058653831482,1.9529492855072021,-0.6050029397010803
17.712318658828735,-0.013888279907405376,-0.026178956031799316,-1.347739338874817,1.9569885730743408,-0.6078248023986816
17.75218629837036,-0.010428023524582386,-0.017066320404410362,-1.346734881401062,1.9615540504455566,-0.6129481196403503
17.790892124176025,-0.007425166666507721,-0.00908636674284935,-1.3441987037658691,1.9665279388427734,-0.6200870275497437
17.82970094680786,-0.004974628333002329,-0.002431889297440648,-1.3403308391571045,1.9717692136764526,-0.6289054751396179
17.867558240890503,-0.0031440192833542824,0.0027287285774946213,-1.3353590965270996,1.9771223068237305,-0.6390159130096436
17.9058735370636,-0.001959634944796562,0.006268474739044905,-1.3295389413833618,1.9824200868606567,-0.6499925255775452
17.9459969997406,-0.0014180024154484272,0.008101966232061386,-1.3231570720672607,1.9874945878982544,-0.6613796353340149
17.9846248626709,-0.0014851981541141868,0.008195435628294945,-1.3165152072906494,1.9921789169311523,-0.672705352306366
18.023249626159668,-0.0021064020693302155,0.006571248173713684,-1.3099278211593628,1.9963065385818481,-0.6834947466850281
18.06212091445923,-0.003211765084415674,0.0033108952920883894,-1.3037083148956299,1.999729037284851,-0.6932848691940308
18.101070880889893,-0.004725594539195299,-0.0014440875966101885,-1.2981541156768799,2.0023105144500732,-0.7016415596008301
18.139482975006104,-0.0065727075561881065,-0.007494507823139429,-1.2935413122177124,2.0039303302764893,-0.7081704139709473
18.179686069488525,-0.008683159947395325,-0.014590528793632984,-1.2900997400283813,2.004488945007324,-0.7125380635261536
18.218530416488647,-0.010994101874530315,-0.022436587139964104,-1.2880131006240845,2.0039093494415283,-0.714476466178894
18.25803232192993,-0.013449607416987419,-0.030707819387316704,-1.2874064445495605,2.0021374225616455,-0.7137979865074158
18.297711849212646,-0.01599636673927307,-0.03905738890171051,-1.28834068775177,1.9991427659988403,-0.7103974223136902
18.337626218795776,-0.018580466508865356,-0.047134704887866974,-1.2908052206039429,1.9949185848236084,-0.7042608261108398
18.37747311592102,-0.02113993838429451,-0.05459682643413544,-1.2947286367416382,1.9894826412200928,-0.6954601407051086
18.41833519935608,-0.023601196706295013,-0.061122700572013855,-1.2999736070632935,1.9828742742538452,-0.6841490268707275
18.456899881362915,-0.025877028703689575,-0.0664261057972908,-1.3063466548919678,1.9751598834991455,-0.6705645322799683
18.4973406791687,-0.02786409854888916,-0.070267453789711,-1.3136091232299805,1.9664252996444702,-0.6550065875053406
18.53568720817566,-0.029448190703988075,-0.07245901226997375,-1.3214893341064453,1.956778883934021,-0.637834906578064
18.57471537590027,-0.030509062111377716,-0.07287229597568512,-1.3296924829483032,1.9463472366333008,-0.6194491386413574
18.61424422264099,-0.030928876250982285,-0.07143771648406982,-1.337918996810913,1.9352704286575317,-0.6002793312072754
18.652946710586548,-0.030600760132074356,-0.06814363598823547,-1.3458749055862427,1.9237068891525269,-0.5807698369026184
18.691651582717896,-0.02943822555243969,-0.06303004175424576,-1.3532882928848267,1.9118220806121826,-0.5613610744476318
18.732703685760498,-0.02738378383219242,-0.05618249997496605,-1.3599071502685547,1.8997838497161865,-0.542483389377594
18.769877195358276,-0.024412833154201508,-0.04772249236702919,-1.3655201196670532,1.887765884399414,-0.5245423316955566
18.8084659576416,-0.020538268610835075,-0.03779734671115875,-1.3699463605880737,1.8759361505508423,-0.5079110860824585
18.84832191467285,-0.015812678262591362,-0.02657475136220455,-1.3730429410934448,1.8644540309906006,-0.49292320013046265
18.88621211051941,-0.010321972891688347,-0.014231576584279537,-1.3746979236602783,1.8534656763076782,-0.4798682928085327
18.925302743911743,-0.004186184145510197,-0.000952133210375905,-1.3748292922973633,1.8431059122085571,-0.46899285912513733
18.964415788650513,0.002448794897645712,0.013081754557788372,-1.3733789920806885,1.8334832191467285,-0.460492879152298
19.00258708000183,0.009413576684892178,0.02768610417842865,-1.3703060150146484,1.8246865272521973,-0.4545191526412964
19.043163776397705,0.016527371481060982,0.04268072545528412,-1.3655860424041748,1.8167808055877686,-0.4511758089065552
19.081501245498657,0.02359880693256855,0.057888031005859375,-1.3592040538787842,1.8098042011260986,-0.45052197575569153
19.119823932647705,0.030436081811785698,0.07312972843647003,-1.3511561155319214,1.8037692308425903,-0.45257270336151123
19.159957885742188,0.03685439005494118,0.08822783827781677,-1.3414437770843506,1.7986578941345215,-0.45729827880859375
19.19934344291687,0.0426785871386528,0.10300453007221222,-1.3300824165344238,1.7944363355636597,-0.46463140845298767
19.23707890510559,0.04775254428386688,0.11727923899888992,-1.3170946836471558,1.7910404205322266,-0.47446197271347046
19.27685785293579,0.051944244652986526,0.13086913526058197,-1.302520513534546,1.7883926630020142,-0.48664262890815735
19.31616497039795,0.055152278393507004,0.14359167218208313,-1.2864190340042114,1.7863932847976685,-0.5009886622428894
19.354207515716553,0.057306867092847824,0.15526841580867767,-1.2688661813735962,1.784934639930725,-0.5172843337059021
19.394516468048096,0.05837646871805191,0.16572436690330505,-1.24997079372406,1.7838977575302124,-0.5352800488471985
19.433617115020752,0.0583697184920311,0.17479825019836426,-1.229864478111267,1.7831614017486572,-0.5547028183937073
19.47236967086792,0.05733336880803108,0.1823427677154541,-1.2087070941925049,1.7826014757156372,-0.575252890586853
19.513172149658203,0.05535000562667847,0.1882348507642746,-1.1866942644119263,1.7820972204208374,-0.5966207981109619
19.550493001937866,0.05253640189766884,0.1923786848783493,-1.1640371084213257,1.7815355062484741,-0.6184811592102051
19.590113878250122,0.04903436452150345,0.19471099972724915,-1.14097261428833,1.780808687210083,-0.6405074596405029
19.630193948745728,0.04500257968902588,0.19520457088947296,-1.1177476644515991,1.7798240184783936,-0.6623817682266235
19.66839838027954,0.04060880467295647,0.19387149810791016,-1.09461510181427,1.7784972190856934,-0.6837939620018005
19.707804918289185,0.036019835621118546,0.1907593309879303,-1.071819543838501,1.7767584323883057,-0.7044541835784912
19.746821403503418,0.03139200061559677,0.18595212697982788,-1.0495961904525757,1.7745553255081177,-0.7241008281707764
19.78480625152588,0.02686469443142414,0.17956578731536865,-1.0281568765640259,1.7718405723571777,-0.7424991130828857
19.823508262634277,0.022554472088813782,0.1717412769794464,-1.0076897144317627,1.768588662147522,-0.7594494819641113
19.863800764083862,0.018552141264081,0.16264128684997559,-0.9883479475975037,1.7647764682769775,-0.7747877836227417
19.901631116867065,0.014920711517333984,0.1524409055709839,-0.9702547788619995,1.7604001760482788,-0.7883901000022888
19.94028615951538,0.011697383597493172,0.14132432639598846,-0.9535045027732849,1.7554579973220825,-0.800000011920929
19.980191469192505,0.009293930605053902,0.12941521406173706,-0.9373825788497925,1.7496241331100464,-0.8000001907348633
20.018700122833252,0.007258835714310408,0.11710161715745926,-0.9222482442855835,1.743233323097229,-0.8000004291534424
20.058810234069824,0.005331371445208788,0.1042507141828537,-0.909400224685669,1.736322045326233,-0.8000006079673767
20.098626136779785,0.0037693833000957966,0.091362863779068,-0.8975935578346252,1.7290794849395752,-0.8000007271766663
20.136367082595825,0.002317065140232444,0.07831418514251709,-0.8877394795417786,1.7213990688323975,-0.800000786781311
20.176090717315674,0.0011292200069874525,0.06544574350118637,-0.8791742920875549,1.7134122848510742,-0.800000786781311
20.215452671051025,7.678114343434572e-05,0.05276386812329292,-0.8721430897712708,1.7050977945327759,-0.800000786781311
20.252891778945923,-0.0008084771689027548,0.04044759273529053,-0.8664509654045105,1.6965163946151733,-0.8000007271766663
20.293355226516724,-0.0015696239424869418,0.02857498824596405,-0.8619930148124695,1.6877000331878662,-0.8000006079673767
20.33306074142456,-0.002225271426141262,0.017232969403266907,-0.8587343692779541,1.6786785125732422,-0.8000004887580872
20.370057344436646,-0.0027893208898603916,0.006506396923214197,-0.856492817401886,1.6695003509521484,-0.8000003099441528
20.410732984542847,-0.0032858389895409346,-0.0035609425976872444,-0.8552284240722656,1.660191535949707,-0.8000001311302185
20.449782133102417,-0.003733903169631958,-0.012901111505925655,-0.8546856045722961,1.6506149768829346,-0.7966838479042053
20.48782229423523,-0.004236207343637943,-0.021511871367692947,-0.8537222146987915,1.6407138109207153,-0.7875226140022278
20.52809166908264,-0.004755198489874601,-0.029339727014303207,-0.8537228107452393,1.6306357383728027,-0.7777001261711121
20.5667564868927,-0.005302515812218189,-0.03637935593724251,-0.8541402816772461,1.620544672012329,-0.767309844493866
20.605093955993652,-0.005877107847481966,-0.04263615980744362,-0.8548722863197327,1.6104471683502197,-0.7564958333969116
20.645986318588257,-0.006459538359194994,-0.048096902668476105,-0.8561087250709534,1.600360631942749,-0.7453412413597107
20.683988571166992,-0.007058062590658665,-0.052792999893426895,-0.8574671745300293,1.5903570652008057,-0.7339620590209961
20.722496271133423,-0.0076447827741503716,-0.05672740563750267,-0.8591575622558594,1.5804287195205688,-0.7224420309066772
20.76280426979065,-0.0082206716760993,-0.059932515025138855,-0.860944926738739,1.5706372261047363,-0.7108681797981262
20.80144453048706,-0.00876674149185419,-0.06243409588932991,-0.8628763556480408,1.5609914064407349,-0.6993173360824585
20.84232521057129,-0.009273266419768333,-0.06426186114549637,-0.8648861646652222,1.5515280961990356,-0.6878541111946106
20.881524562835693,-0.009731507860124111,-0.06545532494783401,-0.8669270873069763,1.5422699451446533,-0.6765393614768982
20.920934677124023,-0.010128086432814598,-0.06604533642530441,-0.8690014481544495,1.533236026763916,-0.6654216051101685
20.96228551864624,-0.01045938115566969,-0.06607462465763092,-0.8710602521896362,1.5244516134262085,-0.654543399810791
21.00113558769226,-0.010715706273913383,-0.06557796150445938,-0.8731095194816589,1.5159307718276978,-0.643939197063446
21.04006552696228,-0.010894454084336758,-0.06459611654281616,-0.875127375125885,1.5076888799667358,-0.6336329579353333
21.080983638763428,-0.010991426184773445,-0.06316673755645752,-0.8771131038665771,1.4997414350509644,-0.6236461997032166
21.119622230529785,-0.011005142703652382,-0.06132727861404419,-0.8790696859359741,1.4920971393585205,-0.613988995552063
21.16113519668579,-0.010935897007584572,-0.05911536514759064,-0.8809962272644043,1.4847660064697266,-0.6046684980392456
21.201152801513672,-0.010784048587083817,-0.05656635761260986,-0.8829039931297302,1.4777528047561646,-0.5956838726997375
21.24056649208069,-0.010551989078521729,-0.053715191781520844,-0.8848023414611816,1.4710620641708374,-0.5870295166969299
21.281188011169434,-0.010242333635687828,-0.05059567466378212,-0.8867054581642151,1.4646949768066406,-0.5786944627761841
21.320470809936523,-0.009858926758170128,-0.047240372747182846,-0.888630211353302,1.4586529731750488,-0.5706650018692017
21.360476970672607,-0.009405947290360928,-0.04368053376674652,-0.8905922174453735,1.4529327154159546,-0.562922477722168
21.39961552619934,-0.00888796802610159,-0.03994742035865784,-0.8926138877868652,1.4475321769714355,-0.555444598197937
21.437036752700806,-0.008309520781040192,-0.036070290952920914,-0.8947129249572754,1.4424430131912231,-0.5482059717178345
21.477609157562256,-0.007676432374864817,-0.03207872062921524,-0.8969126343727112,1.437663197517395,-0.5411821007728577
21.517168521881104,-0.0069931503385305405,-0.028001559898257256,-0.8992355465888977,1.433181643486023,-0.5343410968780518
21.55566692352295,-0.006265473086386919,-0.023867320269346237,-0.901701807975769,1.428990125656128,-0.5276546478271484
21.59528613090515,-0.005499264691025019,-0.019705023616552353,-0.9043347239494324,1.4250808954238892,-0.5210906863212585
21.634831190109253,-0.004699124023318291,-0.015542827546596527,-0.9071556925773621,1.421441912651062,-0.5146178007125854
21.674992322921753,-0.003872041590511799,-0.011410877108573914,-0.9101853966712952,1.418063759803772,-0.5082061886787415
21.713783502578735,-0.003022995311766863,-0.007338108029216528,-0.9134440422058105,1.4149352312088013,-0.5018230676651001
21.75209403038025,-0.002159042516723275,-0.0033548842184245586,-0.9169492125511169,1.4120447635650635,-0.49543991684913635
21.79211735725403,-0.001286642742343247,0.0005072121857665479,-0.9207184314727783,1.4093835353851318,-0.4890297055244446
21.831785440444946,-0.0004131417954340577,0.004216632340103388,-0.9247664213180542,1.406938910484314,-0.4825654625892639
21.870253086090088,0.0004530777223408222,0.007739605847746134,-0.9291045069694519,1.4047058820724487,-0.47602587938308716
21.910715341567993,0.0013035181909799576,0.011043400503695011,-0.9337449073791504,1.402671456336975,-0.4693911671638489
21.95180869102478,0.0021277726627886295,0.01409248635172844,-0.9386909008026123,1.4008312225341797,-0.46264585852622986
21.99095892906189,0.002914785174652934,0.016851969063282013,-0.943950355052948,1.3991796970367432,-0.45577964186668396
22.031187057495117,0.0036525954492390156,0.01928587071597576,-0.949521541595459,1.3977141380310059,-0.448787122964859
22.07015585899353,0.004326563328504562,0.021357957273721695,-0.9553994536399841,1.3964298963546753,-0.44166770577430725
22.109025955200195,0.004921868909150362,0.023032397031784058,-0.9615792036056519,1.3953301906585693,-0.43442919850349426
22.14754033088684,0.005421643145382404,0.02427314594388008,-0.9680481553077698,1.3944212198257446,-0.4270848035812378
22.18610119819641,0.005807076580822468,0.02504536509513855,-0.9747903347015381,1.3937064409255981,-0.4196547269821167
22.22613286972046,0.006059125065803528,0.025315674021840096,-0.9817863702774048,1.3931992053985596,-0.41216808557510376
22.266419410705566,0.006156546995043755,0.02505180798470974,-0.9890117049217224,1.3929129838943481,-0.40466052293777466
22.303971529006958,0.006077520549297333,0.024224651977419853,-0.9964373707771301,1.3928660154342651,-0.39717772603034973
22.34369993209839,0.0058005815371870995,0.022807251662015915,-1.0040308237075806,1.393080472946167,-0.38977348804473877
22.382859706878662,0.0053028203547000885,0.020776575431227684,-1.0117563009262085,1.3935842514038086,-0.38250911235809326
22.421517372131348,0.0045639644376933575,0.01811271719634533,-1.0195722579956055,1.394406795501709,-0.3754558563232422
22.46095585823059,0.0035633305087685585,0.014801494777202606,-1.0274356603622437,1.3955824375152588,-0.36869245767593384
22.499486684799194,0.002283466747030616,0.010832203552126884,-1.0352996587753296,1.3971527814865112,-0.3623060882091522
22.537920475006104,0.0007103786920197308,0.006200739182531834,-1.0431157350540161,1.3991612195968628,-0.35639050602912903
22.578441381454468,-0.0011672594118863344,0.0009076811256818473,-1.0508326292037964,1.401652455329895,-0.3510458469390869
22.61711859703064,-0.003353923326358199,-0.005040021613240242,-1.0583935976028442,1.4046772718429565,-0.34638065099716187
22.655513525009155,-0.005849596578627825,-0.01162890437990427,-1.0657458305358887,1.4082847833633423,-0.34250444173812866
22.69567108154297,-0.008646455593407154,-0.01883973926305771,-1.0728305578231812,1.4125314950942993,-0.3395330607891083
22.73420214653015,-0.011729101650416851,-0.026645589619874954,-1.0795868635177612,1.4174646139144897,-0.33758243918418884
22.772310972213745,-0.015073917806148529,-0.035014331340789795,-1.0859566926956177,1.423140287399292,-0.33677226305007935
22.812617540359497,-0.018647508695721626,-0.043904777616262436,-1.0918757915496826,1.4296059608459473,-0.33721837401390076
22.850635290145874,-0.02240760438144207,-0.053269535303115845,-1.0972777605056763,1.436903953552246,-0.33903419971466064
22.889359712600708,-0.026302406564354897,-0.0630531832575798,-1.102097511291504,1.4450750350952148,-0.3423309922218323
22.929555892944336,-0.03026934340596199,-0.07319151610136032,-1.1062654256820679,1.4541527032852173,-0.34721171855926514
22.967857360839844,-0.03423851355910301,-0.08361180871725082,-1.1097110509872437,1.4641588926315308,-0.35377025604248047
23.00716781616211,-0.038130998611450195,-0.0942314863204956,-1.1123623847961426,1.475108027458191,-0.36209213733673096
23.04725217819214,-0.04185963794589043,-0.10495656728744507,-1.1141464710235596,1.4870001077651978,-0.3722468912601471
23.085631608963013,-0.045334432274103165,-0.1156836599111557,-1.1149910688400269,1.4998258352279663,-0.38429057598114014
23.125240564346313,-0.048460379242897034,-0.12629364430904388,-1.1148265600204468,1.513564109802246,-0.39825913310050964
23.163785934448242,-0.05114387720823288,-0.13665710389614105,-1.1135891675949097,1.5281767845153809,-0.41417068243026733
23.202768564224243,-0.05329399183392525,-0.14662954211235046,-1.111220359802246,1.5436127185821533,-0.43201616406440735
23.243591785430908,-0.054828424006700516,-0.15605229139328003,-1.1076784133911133,1.5598082542419434,-0.45176005363464355
23.28203821182251,-0.05567660927772522,-0.1647544652223587,-1.1029326915740967,1.5766881704330444,-0.4733416438102722
23.32003402709961,-0.0557851642370224,-0.17255258560180664,-1.0969804525375366,1.594161033630371,-0.49666163325309753
23.360374689102173,-0.055123887956142426,-0.17925335466861725,-1.0898427963256836,1.6121283769607544,-0.5215877294540405
23.39907741546631,-0.05368917062878609,-0.18465980887413025,-1.0815722942352295,1.6304823160171509,-0.5479552745819092
23.4366238117218,-0.05150745436549187,-0.18857264518737793,-1.0722665786743164,1.6491053104400635,-0.5755540728569031
23.477121114730835,-0.048638518899679184,-0.19080081582069397,-1.0620591640472412,1.6678804159164429,-0.6041396260261536
23.516098737716675,-0.04517528787255287,-0.19116616249084473,-1.0511256456375122,1.6866806745529175,-0.633426308631897
23.55469059944153,-0.041239384561777115,-0.1895134001970291,-1.039688229560852,1.7053844928741455,-0.6630995869636536
23.59550404548645,-0.03697795793414116,-0.18571984767913818,-1.0280081033706665,1.7238715887069702,-0.6928076148033142
23.634079217910767,-0.03255373612046242,-0.17969892919063568,-1.0163729190826416,1.7420204877853394,-0.7221747636795044
23.672136783599854,-0.0281341765075922,-0.17141304910182953,-1.0051028728485107,1.759725570678711,-0.7508112788200378
23.712953567504883,-0.023880289867520332,-0.16087478399276733,-0.9945243000984192,1.776879906654358,-0.778312623500824
23.7514545917511,-0.020139921456575394,-0.1480405330657959,-0.9848386645317078,1.7931934595108032,-0.8000000715255737
23.79155707359314,-0.01808527112007141,-0.13324081897735596,-0.9737111926078796,1.8080787658691406,-0.8000007271766663
23.83064866065979,-0.01592439040541649,-0.11658941954374313,-0.964653730392456,1.8221240043640137,-0.8000013828277588
23.869601011276245,-0.013797521591186523,-0.09817393869161606,-0.9581151008605957,1.835457682609558,-0.8000019192695618
23.91167974472046,-0.01187103521078825,-0.07853899896144867,-0.9533284306526184,1.8480746746063232,-0.80000239610672
23.949453592300415,-0.009827558882534504,-0.05763019621372223,-0.9518225193023682,1.859771966934204,-0.8000027537345886
23.987761735916138,-0.007895358838140965,-0.036084700375795364,-0.9527211785316467,1.8706541061401367,-0.8000029921531677
24.02802586555481,-0.005798093043267727,-0.014019555412232876,-0.9569839835166931,1.8805477619171143,-0.800003170967102
24.066438913345337,-0.0036232091952115297,0.008011099882423878,-0.9641772508621216,1.8895072937011719,-0.8000032305717468
24.10478687286377,-0.0012191818095743656,0.029725702479481697,-0.9746334552764893,1.8974486589431763,-0.8000032305717468
24.14602518081665,0.001401933142915368,0.050652001053094864,-0.988129198551178,1.9043867588043213,-0.8000030517578125
24.183667182922363,0.004292430356144905,0.07044663280248642,-1.0046014785766602,1.9103033542633057,-0.8000028133392334
24.222810745239258,0.007423763163387775,0.088712178170681,-1.0238044261932373,1.9152182340621948,-0.8000024557113647
24.26278328895569,0.010770609602332115,0.10513069480657578,-1.0454380512237549,1.9191597700119019,-0.8000019788742065
24.301617860794067,0.014250962063670158,0.11940060555934906,-1.0691440105438232,1.9221770763397217,-0.8000015020370483
24.340495824813843,0.017768297344446182,0.13129118084907532,-1.0944782495498657,1.9243448972702026,-0.8000009059906006
24.380568265914917,0.02119666524231434,0.14062510430812836,-1.1209789514541626,1.9257533550262451,-0.8000002503395081
24.418727159500122,0.024971436709165573,0.14700382947921753,-1.1473110914230347,1.9261219501495361,-0.7860636115074158
24.458662748336792,0.029382949694991112,0.1508612185716629,-1.1707220077514648,1.925739049911499,-0.7614163160324097
24.49812602996826,0.03277047723531723,0.15169237554073334,-1.1956863403320312,1.9247071743011475,-0.7365078926086426
24.535528659820557,0.03584299236536026,0.1501336544752121,-1.2187671661376953,1.9236342906951904,-0.7119611501693726
24.57622766494751,0.03779415041208267,0.14604471623897552,-1.2412068843841553,1.9224039316177368,-0.6883231401443481
24.615392446517944,0.038872525095939636,0.13984815776348114,-1.2619504928588867,1.9213305711746216,-0.6660595536231995
24.653555631637573,0.038826704025268555,0.1317671537399292,-1.2809332609176636,1.9205318689346313,-0.6456667184829712
24.69402289390564,0.03771927207708359,0.1221180260181427,-1.2980380058288574,1.9201583862304688,-0.6274852156639099
24.73257851600647,0.035618893802165985,0.11125610768795013,-1.3129370212554932,1.920371413230896,-0.6118602752685547
24.7705295085907,0.03260235860943794,0.09947255253791809,-1.3257596492767334,1.9212466478347778,-0.5990061163902283
24.81071162223816,0.02887663245201111,0.08712794631719589,-1.336291790008545,1.9228941202163696,-0.5890979170799255
24.8496515750885,0.02458846941590309,0.07450404763221741,-1.3446770906448364,1.925337314605713,-0.5822088718414307
24.88733172416687,0.019982624799013138,0.06192346289753914,-1.3508626222610474,1.9286043643951416,-0.5783494114875793
24.92735266685486,0.015246742404997349,0.04965568706393242,-1.3549778461456299,1.9326597452163696,-0.5774527192115784
24.96621060371399,0.010606908239424229,0.03798043355345726,-1.3570854663848877,1.9374523162841797,-0.5793801546096802
25.00399661064148,0.006242738105356693,0.02714497037231922,-1.3573298454284668,1.942886471748352,-0.5839264392852783
25.04447054862976,0.0023247147910296917,0.0173890870064497,-1.355854868888855,1.9488455057144165,-0.5908227562904358
25.083117246627808,-0.0010210617911070585,0.00892311055213213,-1.3528494834899902,1.9551849365234375,-0.599739670753479
25.121518850326538,-0.0036989999935030937,0.0019360778387635946,-1.348528504371643,1.96174156665802,-0.6102950572967529
25.16237211227417,-0.005659878719598055,-0.0034196877386420965,-1.343139410018921,1.9683423042297363,-0.622062087059021
25.200356006622314,-0.006889802869409323,-0.0070298099890351295,-1.336962342262268,1.9748040437698364,-0.6345766186714172
25.239763259887695,-0.007413123734295368,-0.008830350823700428,-1.3302973508834839,1.9809465408325195,-0.6473528146743774
25.279635906219482,-0.007280941586941481,-0.008810846135020256,-1.3234658241271973,1.9865916967391968,-0.6598906517028809
25.317070245742798,-0.0065674567595124245,-0.00702212518081069,-1.3167924880981445,1.9915722608566284,-0.6716982126235962
25.355485916137695,-0.005356828682124615,-0.003576570423319936,-1.3105964660644531,1.9957382678985596,-0.6823046207427979
25.395560264587402,-0.0037371539510786533,0.0013510220451280475,-1.3051749467849731,1.998955249786377,-0.6912739872932434
25.433807373046875,-0.0017939656972885132,0.007527628447860479,-1.3007935285568237,2.0011088848114014,-0.6982243657112122
25.472479104995728,0.00039622827898710966,0.014671916142106056,-1.2976677417755127,2.0021116733551025,-0.7028399109840393
25.513278484344482,0.0027644080109894276,0.022461453452706337,-1.295958399772644,2.001896858215332,-0.7048826813697815
25.551214933395386,0.005247993860393763,0.030548427253961563,-1.2957614660263062,2.00042462348938,-0.7041983604431152
25.590653896331787,0.007786917965859175,0.038572777062654495,-1.2971038818359375,1.9976791143417358,-0.7007261514663696
25.629419326782227,0.01031897310167551,0.04617724195122719,-1.2999452352523804,1.9936715364456177,-0.6944944262504578
25.667658805847168,0.0127717861905694,0.05302117019891739,-1.3041750192642212,1.9884347915649414,-0.6856222152709961
25.70766282081604,0.01506366953253746,0.05879597365856171,-1.309626579284668,1.9820290803909302,-0.6743118762969971
25.746758460998535,0.017097288742661476,0.06323506683111191,-1.3160784244537354,1.9745365381240845,-0.6608408093452454
25.786724090576172,0.01876618154346943,0.06612320244312286,-1.3232697248458862,1.9660589694976807,-0.6455492377281189
25.827053785324097,0.019954174757003784,0.06730405241250992,-1.330916166305542,1.956719160079956,-0.628827691078186
25.867434978485107,0.020548731088638306,0.06668002903461456,-1.33871591091156,1.9466558694839478,-0.6111000180244446
25.90701389312744,0.020443670451641083,0.0642143189907074,-1.346373438835144,1.9360240697860718,-0.5928125977516174
25.947949647903442,0.01955174282193184,0.0599241703748703,-1.3536055088043213,1.9249869585037231,-0.5744130611419678
25.98702645301819,0.01781146228313446,0.05387641489505768,-1.36014986038208,1.9137130975723267,-0.5563431978225708
26.02569890022278,0.015192004851996899,0.04617660492658615,-1.365781307220459,1.9023778438568115,-0.5390223264694214
26.065168380737305,0.01170135848224163,0.03696284070611,-1.370301365852356,1.8911486864089966,-0.5228399634361267
26.103458166122437,0.007380114868283272,0.02639569342136383,-1.3735547065734863,1.8801876306533813,-0.5081469416618347
26.142226457595825,0.0023086019791662693,0.014648715034127235,-1.3754116296768188,1.8696445226669312,-0.495251327753067
26.18263053894043,-0.00340180192142725,0.0019043699139729142,-1.3757802248001099,1.8596558570861816,-0.48441651463508606
26.22052836418152,-0.009612672962248325,-0.011650330387055874,-1.3745890855789185,1.8503376245498657,-0.47585588693618774
26.260362148284912,-0.01616324856877327,-0.02583152800798416,-1.3717881441116333,1.8417856693267822,-0.46973705291748047
26.29975152015686,-0.022875336930155754,-0.04045253247022629,-1.3673465251922607,1.8340659141540527,-0.4661782383918762
26.33863663673401,-0.02956630289554596,-0.05533210188150406,-1.3612428903579712,1.8272236585617065,-0.4652511477470398
26.379279851913452,-0.03604652360081673,-0.07028575986623764,-1.353471040725708,1.8212770223617554,-0.46698197722435
26.418957710266113,-0.04213554412126541,-0.08513490855693817,-1.3440308570861816,1.816218614578247,-0.47135552763938904
26.457042455673218,-0.0476602241396904,-0.09969533979892731,-1.3329366445541382,1.8120149374008179,-0.4783110022544861
26.497374057769775,-0.05246948450803757,-0.11378390341997147,-1.3202126026153564,1.80861234664917,-0.4877476394176483
26.535832166671753,-0.05643175542354584,-0.1272173821926117,-1.305898666381836,1.8059372901916504,-0.49952763319015503
26.57733392715454,-0.059446267783641815,-0.13981132209300995,-1.290055274963379,1.8038973808288574,-0.5134739875793457
26.616183280944824,-0.06144648790359497,-0.15138520300388336,-1.2727620601654053,1.8023879528045654,-0.5293751358985901
26.65473699569702,-0.062400612980127335,-0.16176487505435944,-1.2541252374649048,1.8012977838516235,-0.5469902753829956
26.69558572769165,-0.06231607869267464,-0.17078664898872375,-1.2342805862426758,1.8005077838897705,-0.5660499334335327
26.734062433242798,-0.06124013289809227,-0.1783045083284378,-1.2133876085281372,1.7998993396759033,-0.5862624645233154
26.773107528686523,-0.059253040701150894,-0.18419234454631805,-1.1916390657424927,1.7993543148040771,-0.6073185205459595
26.813722133636475,-0.056469373404979706,-0.1883542835712433,-1.169243574142456,1.798761248588562,-0.6289021372795105
26.85305166244507,-0.05302763357758522,-0.19072502851486206,-1.1464382410049438,1.7980172634124756,-0.6506902575492859
26.893718242645264,-0.049083415418863297,-0.19127480685710907,-1.1234608888626099,1.7970269918441772,-0.6723652482032776
26.932705879211426,-0.04480009526014328,-0.19001264870166779,-1.1005620956420898,1.7957115173339844,-0.69362473487854
26.971091508865356,-0.0403396300971508,-0.1869833916425705,-1.0779829025268555,1.7940009832382202,-0.7141814231872559
27.011460542678833,-0.03585519641637802,-0.18226830661296844,-1.0559520721435547,1.7918397188186646,-0.7337729930877686
27.05009937286377,-0.03148108720779419,-0.17597824335098267,-1.0346778631210327,1.7891851663589478,-0.7521697878837585
27.087976932525635,-0.027330270037055016,-0.168253093957901,-1.0143423080444336,1.7860090732574463,-0.7691731452941895
27.128648281097412,-0.0234886072576046,-0.15925011038780212,-0.9950972199440002,1.7822895050048828,-0.7846187949180603
27.167339086532593,-0.020016521215438843,-0.14914420247077942,-0.9770624041557312,1.7780187129974365,-0.7983789443969727
27.207635402679443,-0.017579153180122375,-0.1380133330821991,-0.9593319892883301,1.7727367877960205,-0.8000002503395081
27.24700140953064,-0.015492122620344162,-0.12633116543293,-0.94254070520401,1.7669050693511963,-0.8000004887580872
27.28597593307495,-0.013448353856801987,-0.11391504853963852,-0.9280112385749817,1.7605693340301514,-0.8000007271766663
27.32652187347412,-0.01176969613879919,-0.10130665451288223,-0.9144518375396729,1.753892421722412,-0.8000009059906006
27.364892721176147,-0.010165280662477016,-0.08835364133119583,-0.9028863906860352,1.7467498779296875,-0.8000010848045349
27.40347909927368,-0.008821929804980755,-0.07543299347162247,-0.8925951719284058,1.7392839193344116,-0.8000011444091797
27.443567991256714,-0.007593030575662851,-0.06254281103610992,-0.8839055299758911,1.7314534187316895,-0.8000012040138245
27.48538112640381,-0.006524035707116127,-0.049887340515851974,-0.8765954971313477,1.7233259677886963,-0.8000011444091797
27.523975372314453,-0.005566250998526812,-0.03755103424191475,-0.8706009984016418,1.714922547340393,-0.8000011444091797
27.56451916694641,-0.004703843966126442,-0.025635704398155212,-0.8658857345581055,1.7062785625457764,-0.8000010251998901
27.605632305145264,-0.003925764467567205,-0.01423970889300108,-0.8622797727584839,1.697433352470398,-0.8000009059906006
27.645655632019043,-0.00320627074688673,-0.003418443724513054,-0.8597478270530701,1.688410997390747,-0.8000007271766663
27.6847882270813,-0.0025423774495720863,0.006752995774149895,-0.858137309551239,1.6792546510696411,-0.8000005483627319
27.72287893295288,-0.0019170779269188643,0.01624239794909954,-0.8573755025863647,1.6699917316436768,-0.8000003099441528
27.763211727142334,-0.0013290412025526166,0.02500632032752037,-0.8573463559150696,1.660660743713379,-0.8000000715255737
27.801610946655273,-0.0007288884371519089,0.0330149382352829,-0.857673704624176,1.6509802341461182,-0.7945439219474792
27.840774536132812,-5.028152372688055e-05,0.04026951640844345,-0.8572925925254822,1.641111135482788,-0.7846468687057495
27.88095760345459,0.0006301056127995253,0.04675949364900589,-0.8580492734909058,1.6310985088348389,-0.774293065071106
27.919118642807007,0.0013507928233593702,0.05248301848769188,-0.8588017821311951,1.6211681365966797,-0.7635853290557861
27.95824956893921,0.002078751102089882,0.05746877193450928,-0.8599132895469666,1.611250400543213,-0.7526401281356812
27.998718738555908,0.0028042627964168787,0.061705365777015686,-0.8613052368164062,1.6014076471328735,-0.7415262460708618
28.03691792488098,0.0035290136002004147,0.06524715572595596,-0.8627366423606873,1.591681957244873,-0.7303469181060791
28.076778173446655,0.004219542723149061,0.0680905357003212,-0.864402711391449,1.582070231437683,-0.7191652059555054
28.114935874938965,0.004884895868599415,0.07028765231370926,-0.8660512566566467,1.5726290941238403,-0.7080535888671875
28.15365958213806,0.0054981885477900505,0.07185836881399155,-0.8677888512611389,1.5633563995361328,-0.697069525718689
28.19473886489868,0.006058763712644577,0.07284003496170044,-0.869515061378479,1.5542888641357422,-0.6862634420394897
28.23295521736145,0.006556300446391106,0.07327191531658173,-0.8712247014045715,1.5454398393630981,-0.6756795644760132
28.27043390274048,0.006981534417718649,0.07318256795406342,-0.8729144334793091,1.5368247032165527,-0.6653517484664917
28.31113624572754,0.007334169466048479,0.07261636108160019,-0.874546229839325,1.5284632444381714,-0.6553086042404175
28.350281953811646,0.007605698425322771,0.07160268723964691,-0.8761380910873413,1.5203629732131958,-0.6455700993537903
28.389885425567627,0.007798314094543457,0.07018120586872101,-0.8776689767837524,1.5125362873077393,-0.6361497044563293
28.429699659347534,0.007908768020570278,0.06838440895080566,-0.879150390625,1.5049899816513062,-0.627057671546936
28.4697163105011,0.007938418537378311,0.06624636054039001,-0.8805842399597168,1.4977309703826904,-0.6182941198348999
28.51050615310669,0.007889369502663612,0.06380001455545425,-0.881976842880249,1.4907625913619995,-0.6098569631576538
28.551150798797607,0.007763107772916555,0.06107547506690025,-0.8833438754081726,1.4840871095657349,-0.6017386317253113
28.59118103981018,0.007564004044979811,0.05810415372252464,-0.8846943378448486,1.4777036905288696,-0.5939254760742188
28.6313693523407,0.007295335177332163,0.054914023727178574,-0.8860462307929993,1.47161066532135,-0.5864033699035645
28.669129133224487,0.00696147745475173,0.05153356492519379,-0.8874158263206482,1.4658037424087524,-0.5791512131690979
28.708988189697266,0.006567019037902355,0.047990184277296066,-0.8888217806816101,1.460280179977417,-0.5721491575241089
28.749058723449707,0.006116262171417475,0.04430993273854256,-0.8902836441993713,1.4550318717956543,-0.5653705596923828
28.787761926651,0.00561498012393713,0.040519095957279205,-0.8918207287788391,1.4500524997711182,-0.5587896704673767
28.82831621170044,0.00506776524707675,0.03664301335811615,-0.8934553861618042,1.4453353881835938,-0.552379310131073
28.868441104888916,0.004479438066482544,0.03270740061998367,-0.8952085375785828,1.4408692121505737,-0.5461084842681885
28.908293962478638,0.0038555210921913385,0.028737498447299004,-0.8970980048179626,1.4366434812545776,-0.5399479269981384
28.94772720336914,0.0032008043490350246,0.0247594453394413,-0.899146318435669,1.432648777961731,-0.5338680744171143
28.98573064804077,0.002520686713978648,0.02079906314611435,-0.9013722538948059,1.428873896598816,-0.5278382301330566
29.025699138641357,0.00182065658736974,0.01688385009765625,-0.9037942886352539,1.4253112077713013,-0.521830141544342
29.065540552139282,0.0011058064410462976,0.013040347956120968,-0.9064298868179321,1.4219439029693604,-0.5158143639564514
29.10371685028076,0.0003825904568657279,0.009297371841967106,-0.9092940092086792,1.4187653064727783,-0.5097652673721313
29.14346742630005,-0.00034307665191590786,0.0056840647011995316,-0.9124024510383606,1.4157670736312866,-0.5036594271659851
29.18339729309082,-0.0010641161352396011,0.002231116872280836,-0.9157643914222717,1.4129369258880615,-0.49747395515441895
29.220683813095093,-0.0017732976702973247,-0.0010305452160537243,-0.9193909764289856,1.4102674722671509,-0.49119168519973755
29.261363744735718,-0.0024622445926070213,-0.004069263581186533,-0.9232885837554932,1.407752275466919,-0.48479732871055603
29.299945831298828,-0.0031215990893542767,-0.006851404905319214,-0.9274603128433228,1.4053853750228882,-0.4782807528972626
29.338218688964844,-0.0037414252292364836,-0.0093436473980546,-0.9319075345993042,1.4031635522842407,-0.47163695096969604
29.378186464309692,-0.004310311283916235,-0.011512232944369316,-0.936626672744751,1.4010841846466064,-0.4648650288581848
29.41711926460266,-0.004815379157662392,-0.013322406448423862,-0.941611111164093,1.3991491794586182,-0.4579719305038452
29.45488739013672,-0.005243199411779642,-0.014741103164851665,-0.9468511939048767,1.3973610401153564,-0.45096880197525024
29.49621081352234,-0.005578302778303623,-0.015733936801552773,-0.9523308277130127,1.395726203918457,-0.4438754618167877
29.53363275527954,-0.005804913584142923,-0.01626932993531227,-0.9580342173576355,1.3942550420761108,-0.4367171823978424
29.57196879386902,-0.00590601097792387,-0.016316037625074387,-0.9639355540275574,1.392958641052246,-0.429529070854187
29.612552165985107,-0.005862983409315348,-0.015845058485865593,-0.9700098037719727,1.3918554782867432,-0.42235198616981506
29.650492906570435,-0.005658577661961317,-0.01483041699975729,-0.9762285351753235,1.3909649848937988,-0.41523730754852295
29.688751935958862,-0.005273476243019104,-0.01324792206287384,-0.982551634311676,1.3903125524520874,-0.4082409143447876
29.729103565216064,-0.004691235721111298,-0.011078859679400921,-0.9889478087425232,1.3899248838424683,-0.4014299809932709
29.767282009124756,-0.0038946575950831175,-0.008306547068059444,-0.9953689575195312,1.3898358345031738,-0.39487844705581665
29.806653022766113,-0.0028695096261799335,-0.004920667503029108,-1.0017762184143066,1.39008367061615,-0.38866740465164185
29.84654712677002,-0.001603652024641633,-0.000915008713491261,-1.008120059967041,1.3907063007354736,-0.38288581371307373
29.8863844871521,-8.882954716682434e-05,0.0037111537531018257,-1.0143500566482544,1.3917486667633057,-0.37762874364852905
29.925270795822144,0.001678799744695425,0.008952307514846325,-1.0204131603240967,1.3932539224624634,-0.3729966878890991
29.965025901794434,0.0036986973136663437,0.014796862378716469,-1.026260256767273,1.3952754735946655,-0.36909446120262146
30.002410173416138,0.0059630549512803555,0.021226858720183372,-1.0318301916122437,1.397861123085022,-0.3660320043563843
30.042535305023193,0.00845862366259098,0.028217248618602753,-1.0370694398880005,1.4010605812072754,-0.36391955614089966
30.080551385879517,0.011163752526044846,0.03573662042617798,-1.0419172048568726,1.404924750328064,-0.36286982893943787
30.11943292617798,0.014048957265913486,0.043745268136262894,-1.046313762664795,1.409498691558838,-0.3629937171936035
30.15996217727661,0.0170773696154356,0.05219605565071106,-1.0501980781555176,1.4148308038711548,-0.36440035700798035
30.198442697525024,0.02020249329507351,0.06103428825736046,-1.0535060167312622,1.420957326889038,-0.3671942353248596
30.235862970352173,0.023370597511529922,0.07019568979740143,-1.056174874305725,1.4279134273529053,-0.3714749813079834
30.276304960250854,0.02651963382959366,0.07960647344589233,-1.0581364631652832,1.4357225894927979,-0.37733083963394165
30.315205574035645,0.029581548646092415,0.08918581157922745,-1.0593305826187134,1.444401741027832,-0.3848418593406677
30.352643251419067,0.03248066455125809,0.09883738309144974,-1.0596868991851807,1.4539589881896973,-0.39407646656036377
30.393030643463135,0.0351400189101696,0.10845928639173508,-1.0591466426849365,1.4643876552581787,-0.405085027217865
30.432706594467163,0.03747853264212608,0.11793199181556702,-1.0576469898223877,1.4756697416305542,-0.41790062189102173
30.470258951187134,0.03941749036312103,0.12712900340557098,-1.055138111114502,1.4877761602401733,-0.43253761529922485
30.511088848114014,0.04088172689080238,0.13590730726718903,-1.0515735149383545,1.5006632804870605,-0.44898664951324463
30.549580574035645,0.041804149746894836,0.1441134661436081,-1.0469201803207397,1.5142762660980225,-0.4672110378742218
30.58763027191162,0.04213002324104309,0.15158315002918243,-1.0411657094955444,1.5285446643829346,-0.48714786767959595
30.627866983413696,0.04181833565235138,0.15814197063446045,-1.034313678741455,1.543391466140747,-0.508703351020813
30.666599988937378,0.040852002799510956,0.16360768675804138,-1.0263956785202026,1.5587239265441895,-0.5317462682723999
30.70439338684082,0.039234474301338196,0.16779553890228271,-1.0174760818481445,1.5744425058364868,-0.5561163425445557
30.744470834732056,0.03699788823723793,0.17052416503429413,-1.0076485872268677,1.5904444456100464,-0.5816161036491394
30.784433364868164,0.03420041501522064,0.17161796987056732,-0.9970492124557495,1.6066150665283203,-0.6080085635185242
30.824973821640015,0.03092837706208229,0.1709156334400177,-0.9858460426330566,1.6228444576263428,-0.6350290775299072
30.864975214004517,0.027292566373944283,0.16828076541423798,-0.974251389503479,1.6390156745910645,-0.6623751521110535
30.904987573623657,0.02342197671532631,0.16360139846801758,-0.9625051617622375,1.6550159454345703,-0.6897158026695251
30.94354748725891,0.01945904642343521,0.15680454671382904,-0.9508793354034424,1.6707367897033691,-0.716701865196228
30.983275651931763,0.015546940267086029,0.14785641431808472,-0.9396663904190063,1.686073660850525,-0.7429616451263428
31.021511554718018,0.011823052540421486,0.13676990568637848,-0.9291728138923645,1.7009291648864746,-0.7681160569190979
31.061533451080322,0.0084039606153965,0.12360253185033798,-0.9197025895118713,1.7152076959609985,-0.7917822003364563
31.101030349731445,0.0057648224756121635,0.10834385454654694,-0.9109492897987366,1.7282819747924805,-0.8000003099441528
31.13983178138733,0.003960794769227505,0.09152689576148987,-0.9011653065681458,1.7404000759124756,-0.8000008463859558
31.179221868515015,0.0019217669032514095,0.07281786948442459,-0.895238995552063,1.751593828201294,-0.800001323223114
31.21815037727356,0.00018333905609324574,0.05289412662386894,-0.8907471299171448,1.7622554302215576,-0.8000017404556274
31.25917339324951,-0.0015822153072804213,0.031753621995449066,-0.8892706036567688,1.7720654010772705,-0.8000020980834961
31.297321796417236,-0.0032861160580068827,0.009805179201066494,-0.8906188607215881,1.7810968160629272,-0.8000022768974304
31.335529565811157,-0.005019910633563995,-0.012640343979001045,-0.8948888182640076,1.7892831563949585,-0.80000239610672
31.37621808052063,-0.0068608480505645275,-0.035256240516901016,-0.9024671316146851,1.7965668439865112,-0.80000239610672
31.415541410446167,-0.008851921185851097,-0.05762184411287308,-0.9130988717079163,1.802957534790039,-0.8000023365020752
31.45325493812561,-0.011082127690315247,-0.0793931782245636,-0.927024245262146,1.8084006309509277,-0.8000020980834961
31.49470853805542,-0.013582110404968262,-0.10014575719833374,-0.9439668655395508,1.8129150867462158,-0.8000018000602722
31.53319478034973,-0.016390807926654816,-0.1195235550403595,-0.9638807773590088,1.8164821863174438,-0.8000014424324036
31.571011781692505,-0.019495651125907898,-0.13714314997196198,-0.986458420753479,1.819131851196289,-0.8000009059906006
31.611719846725464,-0.022865833714604378,-0.15269102156162262,-1.0114260911941528,1.8208869695663452,-0.8000003099441528
31.650450706481934,-0.02680080570280552,-0.16564218699932098,-1.0382012128829956,1.821460247039795,-0.7892751693725586
31.68880796432495,-0.0325554721057415,-0.1761603206396103,-1.0632795095443726,1.8207741975784302,-0.7632966637611389
31.728485107421875,-0.03809578716754913,-0.183480903506279,-1.09066641330719,1.8189996480941772,-0.7355090379714966
31.767521619796753,-0.043800558894872665,-0.18782636523246765,-1.1181765794754028,1.8166704177856445,-0.7063811421394348
31.806491374969482,-0.049112193286418915,-0.18916741013526917,-1.145599126815796,1.8138195276260376,-0.6765623092651367
31.846348524093628,-0.05366293713450432,-0.187397763133049,-1.172953724861145,1.8105835914611816,-0.6465725302696228
31.884469985961914,-0.05738428980112076,-0.18289685249328613,-1.1990574598312378,1.8072545528411865,-0.6170332431793213
31.92401361465454,-0.059774160385131836,-0.17565234005451202,-1.2242422103881836,1.803910255432129,-0.5884820222854614
31.964003801345825,-0.060896094888448715,-0.1661076694726944,-1.2476556301116943,1.8008546829223633,-0.5614496469497681
32.001798152923584,-0.06047605350613594,-0.15444651246070862,-1.269391655921936,1.7982207536697388,-0.5364060997962952
32.041826248168945,-0.05860081687569618,-0.14105330407619476,-1.2891191244125366,1.796241283416748,-0.5137574672698975
32.080530405044556,-0.05527011677622795,-0.1262246072292328,-1.3067647218704224,1.7950836420059204,-0.49385935068130493
32.11888933181763,-0.05061379820108414,-0.11027871072292328,-1.3223090171813965,1.7949028015136719,-0.4769810438156128
32.15877389907837,-0.044809140264987946,-0.09352204203605652,-1.33567476272583,1.795839548110962,-0.46333736181259155
32.19745492935181,-0.03805404528975487,-0.07622411847114563,-1.3469393253326416,1.7979806661605835,-0.4530680775642395
32.23579668998718,-0.030601589009165764,-0.058655012398958206,-1.3560881614685059,1.8014024496078491,-0.44625595211982727
32.275264263153076,-0.022697243839502335,-0.04104834049940109,-1.3632028102874756,1.8061234951019287,-0.4429159462451935
32.31447434425354,-0.014609646052122116,-0.02363615296781063,-1.3683149814605713,1.812137246131897,-0.44301077723503113
32.35282349586487,-0.006592532619833946,-0.006632099859416485,-1.371493935585022,1.8193953037261963,-0.44644543528556824
32.393439292907715,0.0011120656272396445,0.009758708998560905,-1.3728015422821045,1.8278179168701172,-0.4530731439590454
32.43262219429016,0.008282502181828022,0.025333495810627937,-1.372310757637024,1.8372924327850342,-0.46269863843917847
32.46950101852417,0.014732052572071552,0.03989805653691292,-1.3701092004776,1.8476814031600952,-0.4750758707523346
32.510011434555054,0.020304711535573006,0.05325866863131523,-1.366300106048584,1.858824610710144,-0.4899163842201233
32.54865336418152,0.024891136214137077,0.06523682177066803,-1.36101496219635,1.8705484867095947,-0.5068903565406799
32.58646106719971,0.028424344956874847,0.07566124200820923,-1.3544098138809204,1.8826673030853271,-0.5256255865097046
32.627970933914185,0.030884582549333572,0.08438131213188171,-1.3466771841049194,1.894992470741272,-0.545722484588623
32.66603755950928,0.032298892736434937,0.0912768766283989,-1.3380367755889893,1.9073371887207031,-0.5667523741722107
32.70437479019165,0.032732099294662476,0.09625788778066635,-1.32874596118927,1.919520378112793,-0.5882720351219177
32.7448251247406,0.03228941187262535,0.09927979111671448,-1.319079041481018,1.9313740730285645,-0.609829843044281
32.78414988517761,0.03109683096408844,0.10034596920013428,-1.3093297481536865,1.9427415132522583,-0.6309805512428284
