DanielTruong99/aidin_humanoid_actuator_dynamic/ros2_ws_gene/src/joint_planner/motion_files/joint_states.csv
timestamp,L_hip_joint,L_hip2_joint,L_thigh_joint,L_calf_joint,L_toe_joint
0.0,-0.027832049876451492,-0.08014649897813797,-1.0326565504074097,1.439073085784912,-0.38712459802627563
0.04081845283508301,-0.03222256153821945,-0.08624174445867538,-1.0621691942214966,1.4309608936309814,-0.38380247354507446
0.07609295845031738,-0.026274461299180984,-0.07690899074077606,-1.0442081689834595,1.4349323511123657,-0.3828904330730438
0.11526346206665039,-0.03145952522754669,-0.08295062929391861,-1.0534756183624268,1.431947946548462,-0.3811865746974945
0.16901040077209473,-0.026612993329763412,-0.07585345208644867,-1.0541355609893799,1.4315268993377686,-0.37881138920783997
0.21242499351501465,-0.02911691926419735,-0.07758390158414841,-1.05216646194458,1.431368112564087,-0.37704968452453613
0.2533094882965088,-0.027071870863437653,-0.07408026605844498,-1.0576331615447998,1.429470419883728,-0.3743732273578644
0.29340434074401855,-0.02676461823284626,-0.07204559445381165,-1.0561132431030273,1.4292482137680054,-0.3719814121723175
0.3336653709411621,-0.026521097868680954,-0.070328488945961,-1.059287667274475,1.4277856349945068,-0.36926624178886414
0.373992919921875,-0.024935809895396233,-0.06668184697628021,-1.0606778860092163,1.4268076419830322,-0.36641737818717957
0.4165511131286621,-0.02485569752752781,-0.06473199278116226,-1.0620359182357788,1.425769329071045,-0.36355671286582947
0.45296692848205566,-0.02325195074081421,-0.06089552864432335,-1.0644317865371704,1.424489974975586,-0.3605325520038605
0.4985995292663574,-0.02252091094851494,-0.0578729584813118,-1.0657849311828613,1.4234678745269775,-0.3575260639190674
0.5385184288024902,-0.021177805960178375,-0.054067015647888184,-1.0678668022155762,1.4222691059112549,-0.3544920086860657
0.5785751342773438,-0.019825709983706474,-0.0500749908387661,-1.0696650743484497,1.4211764335632324,-0.3514794707298279
0.6193969249725342,-0.01847410574555397,-0.04596510902047157,-1.0713814496994019,1.420134425163269,-0.3485533595085144
0.6594619750976562,-0.0167726818472147,-0.04131914675235748,-1.0732566118240356,1.4191094636917114,-0.3457190990447998
0.699915885925293,-0.015153264626860619,-0.03662467375397682,-1.0748449563980103,1.4182261228561401,-0.34304919838905334
0.7401814460754395,-0.013242574408650398,-0.03147340193390846,-1.0764837265014648,1.4174118041992188,-0.3405771553516388
0.7805321216583252,-0.01128340419381857,-0.026126524433493614,-1.0779478549957275,1.416748046875,-0.3383535146713257
0.8206467628479004,-0.009162817150354385,-0.020467408001422882,-1.0792582035064697,1.416244626045227,-0.33643704652786255
0.860727071762085,-0.006902315188199282,-0.014515823684632778,-1.0804427862167358,1.4159139394760132,-0.33487212657928467
0.8809351921081543,-0.004543551243841648,-0.008319789543747902,-1.0813839435577393,1.4158096313476562,-0.33372336626052856
0.9359226226806641,-0.0020409966818988323,-0.0018276901682838798,-1.0821356773376465,1.4159343242645264,-0.33304283022880554
0.9754068851470947,0.0005451791803352535,0.004893345758318901,-1.0826184749603271,1.4163323640823364,-0.33289068937301636
1.015627145767212,0.003235704032704234,0.011867583729326725,-1.0828206539154053,1.4170262813568115,-0.33332717418670654
1.0403177738189697,0.005994363687932491,0.019056275486946106,-1.0827162265777588,1.4180409908294678,-0.33441004157066345
1.0878956317901611,0.008806822821497917,0.026444662362337112,-1.0822606086730957,1.4194079637527466,-0.3362002968788147
1.115112543106079,0.011650980450212955,0.03401012346148491,-1.0814343690872192,1.4211485385894775,-0.338753879070282
1.1513004302978516,0.01449497602880001,0.04171670228242874,-1.080197811126709,1.4232898950576782,-0.34212902188301086
1.1875193119049072,0.017313411459326744,0.0495377853512764,-1.0785211324691772,1.425849199295044,-0.3463781476020813
1.2305879592895508,0.02006899192929268,0.05742993578314781,-1.076368808746338,1.4288463592529297,-0.35155192017555237
1.27046537399292,0.022728051990270615,0.06535201519727707,-1.0737096071243286,1.4322928190231323,-0.3576953113079071
1.3103573322296143,0.025251561775803566,0.07325389981269836,-1.0705090761184692,1.4362008571624756,-0.3648490905761719
1.349421501159668,0.027599748224020004,0.08108135312795639,-1.0667364597320557,1.440576434135437,-0.3730461299419403
1.3892526626586914,0.029731744900345802,0.08877268433570862,-1.062362790107727,1.445415735244751,-0.3823123276233673
1.4302654266357422,0.031607236713171005,0.09626112133264542,-1.0573583841323853,1.4507147073745728,-0.3926636874675751
1.4705684185028076,0.03318706899881363,0.10347229987382889,-1.051701545715332,1.4564602375030518,-0.404106467962265
1.510298490524292,0.03443384915590286,0.11032620072364807,-1.0453736782073975,1.4626349210739136,-0.41663432121276855
1.5503902435302734,0.035315483808517456,0.11673639714717865,-1.0383633375167847,1.4692124128341675,-0.43022796511650085
1.5909349918365479,0.03580411896109581,0.1226104274392128,-1.0306663513183594,1.4761629104614258,-0.4448552429676056
1.6452970504760742,0.03588004410266876,0.1278514564037323,-1.0222899913787842,1.4834458827972412,-0.4604649543762207
1.6812407970428467,0.03553173691034317,0.13235819339752197,-1.0132534503936768,1.4910190105438232,-0.47699201107025146
1.7214434146881104,0.034757815301418304,0.13602769374847412,-1.0035878419876099,1.49883234500885,-0.4943523705005646
1.760758399963379,0.03356841951608658,0.13875576853752136,-0.99334317445755,1.5068296194076538,-0.5124433636665344
1.8013889789581299,0.03198570758104324,0.1404413878917694,-0.9825815558433533,1.5149530172348022,-0.5311430096626282
1.8440968990325928,0.030043842270970345,0.14098702371120453,-0.971389651298523,1.5231391191482544,-0.5503126978874207
1.882789134979248,0.027789758518338203,0.14030304551124573,-0.9598656892776489,1.5313225984573364,-0.5697923302650452
1.916027545928955,0.02528003230690956,0.13831079006195068,-0.9481290578842163,1.5394337177276611,-0.5894054770469666
1.9550652503967285,0.02258145995438099,0.13494479656219482,-0.936316728591919,1.5474063158035278,-0.6089610457420349
1.999250888824463,0.019765611737966537,0.13015763461589813,-0.9245775938034058,1.5551714897155762,-0.6282528638839722
2.0378925800323486,0.016907570883631706,0.12392063438892365,-0.9130769968032837,1.5626611709594727,-0.647063672542572
2.0776212215423584,0.014080689288675785,0.11622706055641174,-0.9019869565963745,1.5698097944259644,-0.6651679277420044
2.117506742477417,0.01135342102497816,0.10709445923566818,-0.8914844393730164,1.576554298400879,-0.6823347210884094
2.1585335731506348,0.008783779107034206,0.09656506776809692,-0.8817517161369324,1.5828371047973633,-0.6983340382575989
2.1965243816375732,0.006416564807295799,0.08470615744590759,-0.8729636073112488,1.5885989665985107,-0.7129360437393188
2.2369532585144043,0.004279992543160915,0.07161054015159607,-0.8652930855751038,1.593787670135498,-0.7259178757667542
2.276097059249878,0.002382423263043165,0.05739527940750122,-0.8589009046554565,1.5983549356460571,-0.7370691895484924
2.315408229827881,0.0007123560062609613,0.04220088943839073,-0.853936493396759,1.6022558212280273,-0.7461915612220764
2.3538436889648438,-0.0007627567392773926,0.026189522817730904,-0.8505327105522156,1.6054495573043823,-0.7531057596206665
2.4049816131591797,-0.002094294410198927,0.009544172324240208,-0.8488036394119263,1.607898235321045,-0.757652223110199
2.4288299083709717,-0.0033506774343550205,-0.007533803582191467,-0.8488451838493347,1.609569787979126,-0.759697675704956
2.459667205810547,-0.004612583667039871,-0.024826794862747192,-0.8507302403450012,1.6104357242584229,-0.7591350674629211
2.495504856109619,-0.005967645440250635,-0.042101625353097916,-0.854505717754364,1.6104727983474731,-0.7558886408805847
2.5308079719543457,-0.007505234330892563,-0.05911409109830856,-0.8601932525634766,1.6096616983413696,-0.7499178647994995
2.5662291049957275,-0.009307818487286568,-0.07561091333627701,-0.8677828907966614,1.6079890727996826,-0.741216778755188
2.6192538738250732,-0.01144352275878191,-0.09133247286081314,-0.8772339820861816,1.6054480075836182,-0.7298201322555542
2.641235113143921,-0.013959694653749466,-0.10602038353681564,-0.8884689807891846,1.6020410060882568,-0.71580570936203
2.697932720184326,-0.016873739659786224,-0.11942025274038315,-0.9013744592666626,1.597779631614685,-0.6992943286895752
2.7335565090179443,-0.020169422030448914,-0.13129070401191711,-0.915796160697937,1.5926833152770996,-0.6804513335227966
2.774184226989746,-0.02379107102751732,-0.1414097398519516,-0.9315440058708191,1.5867880582809448,-0.6594895124435425
2.813751220703125,-0.027644675225019455,-0.1495828479528427,-0.9483888149261475,1.5801441669464111,-0.6366649866104126
2.852910280227661,-0.03159951791167259,-0.1556510031223297,-0.9660722017288208,1.572816014289856,-0.6122742295265198
2.8925719261169434,-0.03549307957291603,-0.15949641168117523,-0.9843115210533142,1.5648874044418335,-0.5866527557373047
2.9313971996307373,-0.03914176672697067,-0.16104847192764282,-1.002808690071106,1.5564616918563843,-0.560164749622345
2.953800916671753,-0.042351432144641876,-0.16028596460819244,-1.0212643146514893,1.5476592779159546,-0.5331999063491821
2.9892587661743164,-0.04492919519543648,-0.15723608434200287,-1.0393885374069214,1.538620114326477,-0.5061627626419067
3.024665355682373,-0.04669879749417305,-0.1519729495048523,-1.0569069385528564,1.5295002460479736,-0.47946321964263916
3.0598254203796387,-0.047509390860795975,-0.14461082220077515,-1.0735797882080078,1.5204715728759766,-0.4535091817378998
3.0951433181762695,-0.04724601283669472,-0.1352977305650711,-1.0891997814178467,1.511716604232788,-0.4286969304084778
3.1375207901000977,-0.045837488025426865,-0.12420722097158432,-1.10359787940979,1.5034239292144775,-0.4054037928581238
3.1663401126861572,-0.04325725510716438,-0.11152879148721695,-1.116645097732544,1.4957863092422485,-0.3839815855026245
3.2111868858337402,-0.039525944739580154,-0.09746168553829193,-1.128249168395996,1.4889922142028809,-0.36475256085395813
3.249512195587158,-0.03470885753631592,-0.0822073295712471,-1.1383460760116577,1.4832242727279663,-0.34800413250923157
3.2805001735687256,-0.02891007624566555,-0.06596433371305466,-1.1468979120254517,1.478646993637085,-0.3339868485927582
3.316351890563965,-0.02227097935974598,-0.04892667382955551,-1.153885006904602,1.4754111766815186,-0.32291379570961
3.350918769836426,-0.014960702508687973,-0.031280409544706345,-1.1592929363250732,1.473635196685791,-0.31495651602745056
3.3862624168395996,-0.0071724881418049335,-0.01320576574653387,-1.1631184816360474,1.473416805267334,-0.3102478086948395
3.4210634231567383,0.0008836417691782117,0.005121387541294098,-1.1653499603271484,1.474814772605896,-0.3088796138763428
3.4566521644592285,0.008988434448838234,0.023528747260570526,-1.1659770011901855,1.4778578281402588,-0.31090328097343445
3.49226975440979,0.016915958374738693,0.04184096306562424,-1.1649779081344604,1.48253333568573,-0.3163294494152069
3.5279383659362793,0.024444961920380592,0.05988028272986412,-1.1623282432556152,1.488797664642334,-0.32512667775154114
3.5643532276153564,0.03136083111166954,0.07746003568172455,-1.158004641532898,1.4965729713439941,-0.33722320199012756
3.610095977783203,0.037465766072273254,0.09438354521989822,-1.1519770622253418,1.5057464838027954,-0.35250481963157654
3.6501057147979736,0.042584795504808426,0.11044244468212128,-1.1442303657531738,1.5161794424057007,-0.37081587314605713
3.689990282058716,0.04657359793782234,0.12541571259498596,-1.1347650289535522,1.5277109146118164,-0.39195579290390015
3.7290260791778564,0.04932616278529167,0.13907399773597717,-1.1236047744750977,1.5401626825332642,-0.4156837463378906
3.7677011489868164,0.05078111216425896,0.15117992460727692,-1.1108075380325317,1.553341031074524,-0.44171324372291565
3.8070578575134277,0.050928663462400436,0.16149868071079254,-1.0964770317077637,1.5670515298843384,-0.4697206914424896
3.8447072505950928,0.04981346055865288,0.1698014885187149,-1.0807604789733887,1.5810940265655518,-0.4993400573730469
3.876486301422119,0.047534629702568054,0.17588084936141968,-1.0638636350631714,1.5952762365341187,-0.5301738381385803
3.9120187759399414,0.04424287751317024,0.17955660820007324,-1.0460377931594849,1.609413743019104,-0.5617949366569519
3.968200922012329,0.040132660418748856,0.18069089949131012,-1.0275858640670776,1.6233348846435547,-0.5937557220458984
3.990098476409912,0.03542980179190636,0.17919467389583588,-1.0088469982147217,1.6368857622146606,-0.6255980134010315
4.022552728652954,0.030377108603715897,0.1750357300043106,-0.990185022354126,1.6499284505844116,-0.6568624377250671
4.057915210723877,0.02521701343357563,0.1682421863079071,-0.9719750881195068,1.662346363067627,-0.6870981454849243
4.093442678451538,0.020175108686089516,0.1589023917913437,-0.9545845985412598,1.6740425825119019,-0.7158792614936829
4.128782272338867,0.015444721095263958,0.14716169238090515,-0.9383619427680969,1.6849404573440552,-0.7428077459335327
4.163852691650391,0.011175439693033695,0.13321392238140106,-0.9236205220222473,1.6949782371520996,-0.767526388168335
4.200991153717041,0.007466223556548357,0.11729462444782257,-0.9106324315071106,1.7041109800338745,-0.7897232174873352
4.234695196151733,0.004576492123305798,0.09957997500896454,-0.8993940353393555,1.7118977308273315,-0.8000001907348633
4.270010948181152,0.002657193224877119,0.08065737783908844,-0.8877569437026978,1.7185094356536865,-0.8000006675720215
4.305299758911133,0.0006903489120304585,0.06042620539665222,-0.8801857829093933,1.7240351438522339,-0.8000010251998901
4.3409364223480225,-0.0009527909569442272,0.039489854127168655,-0.8746612071990967,1.728904128074646,-0.800001323223114
4.397022485733032,-0.0025020709726959467,0.018023334443569183,-0.8720325231552124,1.7329254150390625,-0.8000015020370483
4.448955297470093,-0.003970252349972725,-0.0036634989082813263,-0.8723353743553162,1.7361637353897095,-0.8000015616416931
4.499056100845337,-0.005398309323936701,-0.025219706818461418,-0.8751782178878784,1.7386583089828491,-0.8000016212463379
4.533583164215088,-0.006888981442898512,-0.04643326997756958,-0.8809388279914856,1.740372657775879,-0.8000015020370483
4.581011056900024,-0.008461625315248966,-0.06696012616157532,-0.8891122937202454,1.741384506225586,-0.8000013828277588
4.614771366119385,-0.010191144421696663,-0.0866076722741127,-0.8998374342918396,1.7416785955429077,-0.8000010848045349
4.660237073898315,-0.012092058546841145,-0.10509998351335526,-0.9127482771873474,1.7413147687911987,-0.800000786781311
4.697077512741089,-0.014194066636264324,-0.12226619571447372,-0.927729070186615,1.7403093576431274,-0.8000003695487976
4.736958980560303,-0.016542142257094383,-0.13788117468357086,-0.9444811344146729,1.738633394241333,-0.7973399758338928
4.776313066482544,-0.02011231705546379,-0.15174472332000732,-0.9610195755958557,1.7357507944107056,-0.7785108089447021
4.814071893692017,-0.024216385558247566,-0.16391482949256897,-0.9783411026000977,1.7321316003799438,-0.7579588890075684
4.854254484176636,-0.028508611023426056,-0.1739272028207779,-0.9973095059394836,1.7279037237167358,-0.7358934879302979
4.8916542530059814,-0.03323083743453026,-0.18216487765312195,-1.0162352323532104,1.7233130931854248,-0.7126916646957397
4.931028842926025,-0.037863217294216156,-0.18823298811912537,-1.0361336469650269,1.7182458639144897,-0.6886311769485474
4.969577074050903,-0.0425756573677063,-0.19242092967033386,-1.0558725595474243,1.7129327058792114,-0.6640221476554871
5.008882522583008,-0.047012295573949814,-0.19463126361370087,-1.0756858587265015,1.707365870475769,-0.639168918132782
5.048499822616577,-0.05113203823566437,-0.19500397145748138,-1.095215916633606,1.7016733884811401,-0.6143404245376587
5.088376522064209,-0.05479368567466736,-0.19366247951984406,-1.1142088174819946,1.695944905281067,-0.5898122787475586
5.12784481048584,-0.057854387909173965,-0.19069494307041168,-1.1326543092727661,1.6902470588684082,-0.5658174753189087
5.167943239212036,-0.060286570340394974,-0.1862988919019699,-1.1502605676651,1.6846944093704224,-0.5425745248794556
5.2067999839782715,-0.06197981536388397,-0.1805872619152069,-1.1670458316802979,1.6793453693389893,-0.5202711820602417
5.245689392089844,-0.06293825805187225,-0.17374494671821594,-1.1828702688217163,1.674293875694275,-0.4990667998790741
5.283902645111084,-0.06313255429267883,-0.1659177541732788,-1.197709560394287,1.6696062088012695,-0.47909748554229736
5.323340892791748,-0.06258049607276917,-0.15725870430469513,-1.211548924446106,1.6653448343276978,-0.4604651927947998
5.361365795135498,-0.06131548434495926,-0.14791595935821533,-1.2243635654449463,1.6615705490112305,-0.4432522654533386
5.401849269866943,-0.05937571078538895,-0.1380186229944229,-1.2361918687820435,1.6583236455917358,-0.42751267552375793
5.454519271850586,-0.05682520195841789,-0.12769533693790436,-1.2470386028289795,1.6556469202041626,-0.4132816195487976
5.483525037765503,-0.05372370034456253,-0.11705488711595535,-1.2569531202316284,1.6535682678222656,-0.40057373046875
5.522271633148193,-0.05014472454786301,-0.10619993507862091,-1.2659709453582764,1.6521058082580566,-0.38938456773757935
5.560559988021851,-0.04616057500243187,-0.09522068500518799,-1.2741376161575317,1.6512718200683594,-0.3796965181827545
5.599066734313965,-0.04184474050998688,-0.08419542014598846,-1.2815048694610596,1.6510653495788574,-0.3714762032032013
5.637084484100342,-0.037270814180374146,-0.07319578528404236,-1.2881174087524414,1.6514836549758911,-0.3646804988384247
5.676976919174194,-0.03250768780708313,-0.06228258088231087,-1.2940267324447632,1.6525121927261353,-0.3592565953731537
5.715848684310913,-0.027622418478131294,-0.051510367542505264,-1.2992788553237915,1.6541330814361572,-0.3551437258720398
5.754795551300049,-0.02267591841518879,-0.040925730019807816,-1.3039216995239258,1.6563210487365723,-0.3522738218307495
5.793008804321289,-0.01772460527718067,-0.030569573864340782,-1.3079969882965088,1.6590461730957031,-0.35057470202445984
5.832149267196655,-0.012819522060453892,-0.020477933809161186,-1.3115501403808594,1.6622765064239502,-0.3499704897403717
5.87092924118042,-0.00800507515668869,-0.01068097073584795,-1.3146204948425293,1.665975570678711,-0.35038086771965027
5.911603212356567,-0.0033211223781108856,-0.0012060014996677637,-1.3172473907470703,1.6701058149337769,-0.35172659158706665
5.949530839920044,0.0011993860825896263,0.007924518547952175,-1.3194702863693237,1.6746275424957275,-0.35392487049102783
5.989166259765625,0.0055279722437262535,0.016691109165549278,-1.3213239908218384,1.6795005798339844,-0.35689428448677063
6.027477025985718,0.009642553515732288,0.025077592581510544,-1.322845220565796,1.6846848726272583,-0.36055415868759155
6.066863775253296,0.013525490649044514,0.03307006508111954,-1.3240673542022705,1.6901404857635498,-0.3648233413696289
6.1225855350494385,0.017163392156362534,0.040657494217157364,-1.3250247240066528,1.6958280801773071,-0.36962518095970154
6.17535662651062,0.020548077300190926,0.047832190990448,-1.3257485628128052,1.701711654663086,-0.37488269805908203
6.202895402908325,0.02367446944117546,0.05458710342645645,-1.3262722492218018,1.7077537775039673,-0.38052359223365784
6.246215343475342,0.02654152736067772,0.06091870367527008,-1.3266257047653198,1.7139194011688232,-0.3864763081073761
6.2844743728637695,0.02915031835436821,0.06682483106851578,-1.326838731765747,1.720178484916687,-0.39267462491989136
6.323692798614502,0.03150596469640732,0.07230524718761444,-1.326941728591919,1.726500391960144,-0.399055540561676
6.362413167953491,0.03361404687166214,0.07736130058765411,-1.326960802078247,1.7328569889068604,-0.40555885434150696
6.40153956413269,0.03548327088356018,0.08199700713157654,-1.3269234895706177,1.7392231225967407,-0.4121294915676117
6.440171718597412,0.037122372537851334,0.08621539920568466,-1.3268554210662842,1.7455757856369019,-0.41871532797813416
6.479279279708862,0.03854341804981232,0.09002406895160675,-1.3267807960510254,1.7518943548202515,-0.42526912689208984
6.520053863525391,0.03975559026002884,0.09342867136001587,-1.3267207145690918,1.7581591606140137,-0.4317477345466614
6.5742716789245605,0.04077230021357536,0.09643814712762833,-1.3266972303390503,1.7643556594848633,-0.4381120204925537
6.596709251403809,0.0416036881506443,0.09906017035245895,-1.326729655265808,1.7704674005508423,-0.4443272650241852
6.637638807296753,0.042262203991413116,0.10130520164966583,-1.3268332481384277,1.7764832973480225,-0.4503631889820099
6.6763105392456055,0.04275882989168167,0.10318212956190109,-1.3270238637924194,1.7823927402496338,-0.45619308948516846
6.71506667137146,0.043103739619255066,0.10470140725374222,-1.3273155689239502,1.7881845235824585,-0.4617937207221985
6.754721403121948,0.04330727085471153,0.10587324947118759,-1.3277169466018677,1.7938543558120728,-0.4671475887298584
6.793525457382202,0.043378591537475586,0.10670794546604156,-1.3282395601272583,1.7993961572647095,-0.47223979234695435
6.83321213722229,0.043325792998075485,0.10721570253372192,-1.3288873434066772,1.8048049211502075,-0.47705885767936707
6.873064756393433,0.0431564599275589,0.10740615427494049,-1.329667329788208,1.8100780248641968,-0.4815983176231384
6.913969278335571,0.04287736490368843,0.10728926211595535,-1.3305792808532715,1.8152137994766235,-0.48585382103919983
6.954806089401245,0.04249369353055954,0.10687483102083206,-1.3316242694854736,1.820212721824646,-0.48982492089271545
6.99565577507019,0.04201031103730202,0.10617128014564514,-1.3328015804290771,1.825074553489685,-0.4935147166252136
7.034090280532837,0.04143136739730835,0.10518757253885269,-1.3341052532196045,1.829801321029663,-0.49692898988723755
7.073923349380493,0.040759384632110596,0.10393191874027252,-1.3355315923690796,1.8343970775604248,-0.5000770688056946
7.113908290863037,0.03999711200594902,0.10241211205720901,-1.337071418762207,1.8388651609420776,-0.5029700994491577
7.154008865356445,0.03914617374539375,0.10063589364290237,-1.33871591091156,1.8432105779647827,-0.5056237578392029
7.193209409713745,0.03820795938372612,0.09861091524362564,-1.3404533863067627,1.847437858581543,-0.5080543160438538
7.232761859893799,0.03718294948339462,0.0963439792394638,-1.3422722816467285,1.8515558242797852,-0.5102817416191101
7.272509574890137,0.03607220947742462,0.09384267032146454,-1.3441555500030518,1.8555693626403809,-0.5123284459114075
7.312208652496338,0.034875087440013885,0.09111422300338745,-1.346089243888855,1.8594872951507568,-0.5142191052436829
7.353105783462524,0.03359324485063553,0.0881659984588623,-1.3480559587478638,1.8633192777633667,-0.5159798860549927
7.392549276351929,0.03222610056400299,0.08500559628009796,-1.3500374555587769,1.8670719861984253,-0.5176379084587097
7.432859659194946,0.030775565654039383,0.08164165914058685,-1.3520126342773438,1.8707586526870728,-0.5192250609397888
7.472654104232788,0.029242180287837982,0.07808255404233932,-1.3539645671844482,1.8743876218795776,-0.5207722783088684
7.511829376220703,0.027627937495708466,0.07433876395225525,-1.3558686971664429,1.8779712915420532,-0.5223129987716675
7.5525171756744385,0.025935960933566093,0.070420041680336,-1.3577048778533936,1.8815194368362427,-0.5238803029060364
7.5917558670043945,0.02416958473622799,0.06633825600147247,-1.3594504594802856,1.8850432634353638,-0.5255095362663269
7.631231069564819,0.022333873435854912,0.06210682541131973,-1.3610814809799194,1.8885550498962402,-0.5272359251976013
7.67161226272583,0.020433982834219933,0.057739585638046265,-1.3625773191452026,1.8920660018920898,-0.5290958881378174
7.711020469665527,0.018478121608495712,0.05325279384851456,-1.3639129400253296,1.8955872058868408,-0.5311233401298523
7.75201940536499,0.01647419109940529,0.048664238303899765,-1.3650684356689453,1.899129867553711,-0.5333533883094788
7.790227651596069,0.014432543888688087,0.04399297758936882,-1.366018533706665,1.902703881263733,-0.5358206629753113
7.829961061477661,0.012364670634269714,0.03926103934645653,-1.3667439222335815,1.906319260597229,-0.5385568737983704
7.871117830276489,0.010283024050295353,0.03449154645204544,-1.3672232627868652,1.9099838733673096,-0.5415919423103333
7.910251617431641,0.008202489465475082,0.029711108654737473,-1.3674389123916626,1.913704514503479,-0.5449529886245728
7.9501633644104,0.006138697266578674,0.024946624413132668,-1.3673697710037231,1.917487382888794,-0.5486654043197632
7.991778373718262,0.004108344204723835,0.020228715613484383,-1.367004632949829,1.9213372468948364,-0.5527494549751282
8.02975606918335,0.0021293899044394493,0.015590105205774307,-1.3663278818130493,1.9252561330795288,-0.5572202801704407
8.069406986236572,0.00021963717881590128,0.011065141297876835,-1.3653305768966675,1.9292432069778442,-0.5620905160903931
8.107280969619751,-0.0016012827400118113,0.006690477021038532,-1.3640024662017822,1.933296799659729,-0.5673637986183167
8.146322250366211,-0.003315284848213196,0.0025051215197890997,-1.3623454570770264,1.9374101161956787,-0.5730392336845398
8.186434507369995,-0.004904243629425764,-0.001451794058084488,-1.3603545427322388,1.9415768384933472,-0.5791085362434387
8.22447919845581,-0.006349639967083931,-0.005138124339282513,-1.3580420017242432,1.9457861185073853,-0.5855540037155151
8.263814926147461,-0.007636376656591892,-0.00851286482065916,-1.3554128408432007,1.9500229358673096,-0.5923519730567932
8.303542375564575,-0.008748980239033699,-0.011533137410879135,-1.3524881601333618,1.954270601272583,-0.5994681119918823
8.343256950378418,-0.009676062501966953,-0.014158334583044052,-1.3492892980575562,1.958508849143982,-0.6068587899208069
8.382350444793701,-0.010407492518424988,-0.016348963603377342,-1.3458476066589355,1.962713599205017,-0.6144714951515198
8.421185493469238,-0.01093683484941721,-0.018067294731736183,-1.342198371887207,1.9668605327606201,-0.6222432851791382
8.45961594581604,-0.011260360479354858,-0.01927983947098255,-1.3383876085281372,1.9709177017211914,-0.6301023364067078
8.498302221298218,-0.011378235183656216,-0.019959047436714172,-1.3344643115997314,1.9748547077178955,-0.6379659175872803
8.53748631477356,-0.011293326504528522,-0.02008168213069439,-1.3304885625839233,1.978638768196106,-0.6457453370094299
8.576757907867432,-0.011012056842446327,-0.019633453339338303,-1.3265221118927002,1.982232928276062,-0.6533409357070923
8.618818521499634,-0.010544142685830593,-0.018608925864100456,-1.322636365890503,1.9855999946594238,-0.6606481671333313
8.65871548652649,-0.009901056066155434,-0.017011919990181923,-1.318902850151062,1.9887034893035889,-0.6675571799278259
8.69696831703186,-0.009098242036998272,-0.014858984388411045,-1.3154003620147705,1.991503357887268,-0.6739552021026611
8.736411333084106,-0.00815093144774437,-0.012178042903542519,-1.3122057914733887,1.9939624071121216,-0.6797277331352234
8.774869680404663,-0.007077167276293039,-0.009010860696434975,-1.3093945980072021,1.996044635772705,-0.6847620606422424
8.812947988510132,-0.005895029753446579,-0.005411816295236349,-1.307044267654419,1.9977149963378906,-0.6889485120773315
8.851099252700806,-0.004624144174158573,-0.0014498252421617508,-1.3052202463150024,1.9989407062530518,-0.6921864151954651
8.889419555664062,-0.00328442151658237,0.0027930662035942078,-1.3039854764938354,1.9996927976608276,-0.6943838596343994
8.928336143493652,-0.001896142726764083,0.007223485037684441,-1.3033910989761353,1.9999464750289917,-0.695462167263031
8.967058658599854,-0.00048195128329098225,0.01173543743789196,-1.3034740686416626,1.999680757522583,-0.6953595876693726
9.009005784988403,0.0009353812783956528,0.016215166077017784,-1.3042597770690918,1.9988806247711182,-0.6940324902534485
9.047379732131958,0.0023294053971767426,0.020540712401270866,-1.3057538270950317,1.9975383281707764,-0.6914598941802979
9.086016654968262,0.0036708104889839888,0.024585142731666565,-1.3079466819763184,1.9956527948379517,-0.6876457333564758
9.125001430511475,0.004927840083837509,0.028221789747476578,-1.3108068704605103,1.993229866027832,-0.6826186776161194
9.163981914520264,0.006061776075512171,0.031324081122875214,-1.3142850399017334,1.990285038948059,-0.6764353513717651
9.202298641204834,0.0070326076820492744,0.03377282992005348,-1.318311095237732,1.9868422746658325,-0.6691825985908508
9.24094033241272,0.0077935513108968735,0.03545495122671127,-1.3227958679199219,1.982933759689331,-0.660973310470581
9.279183387756348,0.008297013118863106,0.03627168387174606,-1.3276349306106567,1.9786046743392944,-0.6519477963447571
9.318032026290894,0.00849200040102005,0.036137424409389496,-1.332707166671753,1.9739078283309937,-0.6422742009162903
9.355688095092773,0.00832884106785059,0.03498529642820358,-1.3378782272338867,1.9689059257507324,-0.6321420669555664
9.393991947174072,0.007761272601783276,0.032767798751592636,-1.3430068492889404,1.9636698961257935,-0.621762752532959
9.431706190109253,0.006747941952198744,0.029457267373800278,-1.347943902015686,1.9582812786102295,-0.6113654971122742
9.47002625465393,0.0052590626291930676,0.025048960000276566,-1.3525390625,1.9528268575668335,-0.6011887788772583
9.508569955825806,0.003275168128311634,0.019558148458600044,-1.3566415309906006,1.947401762008667,-0.5914831161499023
9.550386190414429,0.0007942202500998974,0.013022426515817642,-1.3601059913635254,1.942102074623108,-0.5824998617172241
9.58633303642273,-0.0021693622693419456,0.005498193204402924,-1.3627885580062866,1.9370274543762207,-0.5744889378547668
9.623901128768921,-0.005580246914178133,-0.002938484074547887,-1.3645572662353516,1.932277798652649,-0.5676963925361633
9.662428617477417,-0.009383182041347027,-0.012194760143756866,-1.3652855157852173,1.9279462099075317,-0.562354564666748
9.699987173080444,-0.013501263223588467,-0.02216128259897232,-1.3648555278778076,1.9241225719451904,-0.5586825013160706
9.739330053329468,-0.017838651314377785,-0.03271201625466347,-1.3631591796875,1.920885682106018,-0.5568775534629822
9.776937484741211,-0.022280912846326828,-0.043707095086574554,-1.3600982427597046,1.9183025360107422,-0.5571150183677673
9.815346240997314,-0.02669813297688961,-0.05499015748500824,-1.3555837869644165,1.9164254665374756,-0.5595393776893616
9.853862762451172,-0.030951065942645073,-0.06638967245817184,-1.3495360612869263,1.9152891635894775,-0.564265787601471
9.892420291900635,-0.03489241376519203,-0.07771818339824677,-1.3418899774551392,1.9149059057235718,-0.571369469165802
9.932148933410645,-0.03837752714753151,-0.08877058327198029,-1.3325953483581543,1.9152706861495972,-0.5808869004249573
9.971718549728394,-0.0412667952477932,-0.09932617098093033,-1.3216205835342407,1.91635262966156,-0.5928075909614563
10.010408401489258,-0.04343777894973755,-0.10914746671915054,-1.308959722518921,1.9181005954742432,-0.6070723533630371
10.048301458358765,-0.044790323823690414,-0.11798323690891266,-1.2946393489837646,1.920440912246704,-0.623568594455719
10.087626457214355,-0.04525606334209442,-0.12557266652584076,-1.2787227630615234,1.9232794046401978,-0.6421279907226562
10.126304864883423,-0.04480620473623276,-0.13165132701396942,-1.2613193988800049,1.926504135131836,-0.6625204682350159
10.165992975234985,-0.04345550760626793,-0.13595782220363617,-1.242588996887207,1.9299888610839844,-0.6844608187675476
10.205839395523071,-0.041267041116952896,-0.13824708759784698,-1.2227495908737183,1.9335938692092896,-0.7076013684272766
10.243570804595947,-0.03834857791662216,-0.13830016553401947,-1.202068567276001,1.9371730089187622,-0.7315447330474854
10.282840728759766,-0.034849535673856735,-0.13593721389770508,-1.180870771408081,1.940576195716858,-0.7558456659317017
10.321861505508423,-0.0309490617364645,-0.13103148341178894,-1.1595234870910645,1.9436564445495605,-0.78001868724823
10.361676454544067,-0.026978598907589912,-0.12341806292533875,-1.1382781267166138,1.9461708068847656,-0.8000000715255737
10.400112867355347,-0.02406010776758194,-0.11321724206209183,-1.1148977279663086,1.9475775957107544,-0.8000006675720215
10.440038442611694,-0.02086159586906433,-0.10054139047861099,-1.0931562185287476,1.9481548070907593,-0.8000012636184692
10.477925777435303,-0.01764656975865364,-0.0854850485920906,-1.0732263326644897,1.9480034112930298,-0.800001859664917
10.516830921173096,-0.014532537199556828,-0.06840015202760696,-1.0550549030303955,1.9470243453979492,-0.8000022768974304
10.577232360839844,-0.011411556974053383,-0.04937277361750603,-1.039768099784851,1.9450796842575073,-0.8000026941299438
10.61721396446228,-0.008454336784780025,-0.028888367116451263,-1.0270150899887085,1.9421896934509277,-0.800002932548523
10.655833959579468,-0.0055083041079342365,-0.007177197840064764,-1.0176352262496948,1.938226342201233,-0.8000031113624573
10.694563388824463,-0.0026361332274973392,0.01525361929088831,-1.0114305019378662,1.933212399482727,-0.8000031113624573
10.734112977981567,0.00028319633565843105,0.038046400994062424,-1.008795976638794,1.927074909210205,-0.8000030517578125
10.772826433181763,0.003262805286794901,0.06070778891444206,-1.0096027851104736,1.919828176498413,-0.8000028729438782
10.811306715011597,0.006377930752933025,0.08282637596130371,-1.0139000415802002,1.91144859790802,-0.8000025749206543
10.850147724151611,0.009648455306887627,0.10394732654094696,-1.0215004682540894,1.9019581079483032,-0.8000021576881409
10.889357328414917,0.01309300772845745,0.12367511540651321,-1.0322073698043823,1.8913698196411133,-0.8000016212463379
10.92827320098877,0.016687611117959023,0.14162275195121765,-1.0457113981246948,1.879726767539978,-0.8000010251998901
10.96671438217163,0.020388104021549225,0.15746618807315826,-1.0616469383239746,1.8670783042907715,-0.8000002503395081
11.006495952606201,0.024992944672703743,0.17053137719631195,-1.0786100625991821,1.8528902530670166,-0.7824605703353882
11.044120073318481,0.031066283583641052,0.18122084438800812,-1.0936859846115112,1.8374477624893188,-0.7515214681625366
11.083008050918579,0.03660394623875618,0.1885881870985031,-1.1118686199188232,1.820799469947815,-0.7185841202735901
11.121601104736328,0.0424385592341423,0.19318214058876038,-1.1294139623641968,1.8035694360733032,-0.6841996908187866
11.160568475723267,0.04760842025279999,0.19464455544948578,-1.1474058628082275,1.7855995893478394,-0.6489711403846741
11.199169635772705,0.05212858319282532,0.19313639402389526,-1.1649748086929321,1.7671561241149902,-0.6134058237075806
11.23779845237732,0.055707793682813644,0.18887968361377716,-1.1814696788787842,1.748435616493225,-0.5781128406524658
11.277339696884155,0.05799529701471329,0.18191923201084137,-1.1970515251159668,1.7295480966567993,-0.543580949306488
11.316282272338867,0.05902818590402603,0.17267781496047974,-1.2109099626541138,1.7107915878295898,-0.5103216171264648
11.35478401184082,0.05852599814534187,0.16128993034362793,-1.2232474088668823,1.6922855377197266,-0.47876644134521484
11.394278764724731,0.056607428938150406,0.14814524352550507,-1.233676791191101,1.6742902994155884,-0.44930151104927063
11.432510614395142,0.05322587490081787,0.13348084688186646,-1.2422279119491577,1.6569756269454956,-0.4222615361213684
11.470805883407593,0.04851439595222473,0.1175951287150383,-1.2488740682601929,1.6405303478240967,-0.39791008830070496
11.509966373443604,0.042611874639987946,0.10075404495000839,-1.2535815238952637,1.6251338720321655,-0.3764713406562805
11.548980951309204,0.03568167984485626,0.08318545669317245,-1.2564619779586792,1.610917568206787,-0.3581017851829529
11.587952852249146,0.027948005124926567,0.06512477248907089,-1.2575169801712036,1.5980182886123657,-0.3429184854030609
11.626652479171753,0.019611943513154984,0.04675709828734398,-1.2568597793579102,1.5865201950073242,-0.3309856057167053
11.664983749389648,0.010913906618952751,0.028272029012441635,-1.2545413970947266,1.5764883756637573,-0.3223245441913605
11.704214572906494,0.0020740602631121874,0.009830581024289131,-1.2506325244903564,1.5679545402526855,-0.3169185221195221
11.743167400360107,-0.006684362422674894,-0.008411222137510777,-1.2452045679092407,1.5609135627746582,-0.3147084712982178
11.782501459121704,-0.015150219202041626,-0.02630442939698696,-1.2383028268814087,1.5553373098373413,-0.3156040906906128
11.820389032363892,-0.023134272545576096,-0.043708860874176025,-1.2299903631210327,1.5511603355407715,-0.3194778561592102
11.859176635742188,-0.030460771173238754,-0.06048132851719856,-1.2203086614608765,1.5482968091964722,-0.32617178559303284
11.897725582122803,-0.03698617219924927,-0.07648387551307678,-1.2093126773834229,1.546633005142212,-0.33549764752388
11.936826944351196,-0.04259077459573746,-0.09157627075910568,-1.1970571279525757,1.5460424423217773,-0.3472403585910797
11.975682497024536,-0.04718828573822975,-0.1056206151843071,-1.1836093664169312,1.5463829040527344,-0.36115893721580505
12.015541315078735,-0.050726186484098434,-0.11848466843366623,-1.169049620628357,1.5474997758865356,-0.3769904375076294
12.053920269012451,-0.0531853549182415,-0.1300402581691742,-1.1534762382507324,1.549241304397583,-0.3944542109966278
12.092696189880371,-0.05458300933241844,-0.14017261564731598,-1.1370073556900024,1.5514487028121948,-0.4132518172264099
12.131923198699951,-0.05496877804398537,-0.14878079295158386,-1.1197832822799683,1.5539727210998535,-0.4330785870552063
12.170594215393066,-0.0544218085706234,-0.15578359365463257,-1.1019625663757324,1.5566712617874146,-0.4536217749118805
12.20944333076477,-0.053047649562358856,-0.16112485527992249,-1.0837231874465942,1.559409260749817,-0.47456955909729004
12.247733116149902,-0.05097007006406784,-0.16477376222610474,-1.0652538537979126,1.5620670318603516,-0.4956178069114685
12.286537885665894,-0.04832692816853523,-0.16673074662685394,-1.046754002571106,1.564538598060608,-0.5164713859558105
12.325801610946655,-0.045260075479745865,-0.16702453792095184,-1.0284223556518555,1.5667330026626587,-0.5368561744689941
12.36446738243103,-0.04191005975008011,-0.16571512818336487,-1.0104529857635498,1.5685746669769287,-0.5565166473388672
12.403541564941406,-0.03840850666165352,-0.16288858652114868,-0.9930320382118225,1.5700029134750366,-0.5752244591712952
12.4425528049469,-0.03487337380647659,-0.15865635871887207,-0.9763230681419373,1.5709717273712158,-0.5927827954292297
12.481521844863892,-0.0314050130546093,-0.1531495898962021,-0.960472583770752,1.571447730064392,-0.6090223789215088
12.520099401473999,-0.028082765638828278,-0.14651410281658173,-0.9456019997596741,1.5714091062545776,-0.623809278011322
12.559322118759155,-0.024966398254036903,-0.1389080137014389,-0.9318078756332397,1.5708483457565308,-0.637042760848999
12.598564863204956,-0.022094009444117546,-0.1304938793182373,-0.9191597104072571,1.5697617530822754,-0.6486489176750183
12.636711835861206,-0.019486134871840477,-0.12143611162900925,-0.9077049493789673,1.5681589841842651,-0.6585887670516968
12.675799369812012,-0.017147473990917206,-0.1118968278169632,-0.8974639773368835,1.5660518407821655,-0.666846752166748
12.714597940444946,-0.015068926848471165,-0.10203182697296143,-0.8884398937225342,1.5634616613388062,-0.6734359860420227
12.753172397613525,-0.013233295641839504,-0.09198930859565735,-0.8806144595146179,1.560410737991333,-0.6783890724182129
12.792969942092896,-0.011615663766860962,-0.08190687745809555,-0.8739556670188904,1.5569287538528442,-0.681759238243103
12.831373691558838,-0.010187993757426739,-0.07191070169210434,-0.8684185743331909,1.5530457496643066,-0.6836168766021729
12.870848655700684,-0.008921441622078419,-0.06211359426379204,-0.8639450073242188,1.5487935543060303,-0.6840442419052124
12.90956735610962,-0.007787865586578846,-0.05261613056063652,-0.8604717254638672,1.5442076921463013,-0.6831346154212952
12.948222398757935,-0.006761501543223858,-0.04350528120994568,-0.8579273819923401,1.539324164390564,-0.6809910535812378
12.987437963485718,-0.005819972138851881,-0.03485483303666115,-0.8562381863594055,1.534177541732788,-0.6777206659317017
13.026312589645386,-0.004945955239236355,-0.02672596089541912,-0.8553249835968018,1.5288078784942627,-0.673437237739563
13.064801454544067,-0.004124910105019808,-0.019167274236679077,-0.8551117181777954,1.5232489109039307,-0.6682510375976562
13.10370397567749,-0.0033476846292614937,-0.012216288596391678,-0.8555198907852173,1.5175398588180542,-0.6622782349586487
13.142646551132202,-0.0026091395411640406,-0.00589889008551836,-0.8564727306365967,1.511717677116394,-0.6556288599967957
13.181313514709473,-0.0019069872796535492,-0.0002317586331628263,-0.8579001426696777,1.5058177709579468,-0.6484120488166809
13.219929933547974,-0.001242723548784852,0.004777820780873299,-0.8597294688224792,1.4998749494552612,-0.6407330632209778
13.258860111236572,-0.0006189438281580806,0.009131276980042458,-0.8618965744972229,1.4939217567443848,-0.6326892971992493
13.29717230796814,-4.0519749745726585e-05,0.012836179696023464,-0.8643420934677124,1.487992525100708,-0.6243753433227539
13.335444450378418,0.0004861405468545854,0.015907349064946175,-0.8670092821121216,1.4821176528930664,-0.6158766150474548
13.374470710754395,0.0009554415009915829,0.018364574760198593,-0.8698509931564331,1.4763264656066895,-0.607273519039154
13.414075136184692,0.0013611975591629744,0.020231444388628006,-0.8728213310241699,1.470646619796753,-0.5986366271972656
13.452775239944458,0.001697593368589878,0.021536091342568398,-0.8758845329284668,1.4651012420654297,-0.590029776096344
13.491968393325806,0.001960000954568386,0.022308217361569405,-0.8790075778961182,1.4597141742706299,-0.5815093517303467
13.530972003936768,0.0021441723220050335,0.022581104189157486,-0.8821630477905273,1.4545066356658936,-0.5731241106987
13.56951642036438,0.002247249474748969,0.022387899458408356,-0.8853315711021423,1.4494982957839966,-0.5649149417877197
13.608157873153687,0.002267556730657816,0.021762704476714134,-0.8884967565536499,1.4447020292282104,-0.5569138526916504
13.646974802017212,0.0022050796542316675,0.020740710198879242,-0.8916462659835815,1.4401346445083618,-0.5491492748260498
13.684974431991577,0.002059804741293192,0.019356191158294678,-0.8947734236717224,1.4358032941818237,-0.541638970375061
13.724137783050537,0.001833729911595583,0.017643161118030548,-0.897875189781189,1.431719422340393,-0.5343970656394958
13.763066291809082,0.0015290756709873676,0.015634827315807343,-0.9009522795677185,1.4278895854949951,-0.5274313688278198
13.802820920944214,0.0011489656753838062,0.0133636724203825,-0.9040083885192871,1.4243167638778687,-0.5207443237304688
13.840871572494507,0.0006979302270337939,0.010860559530556202,-0.907049298286438,1.4210046529769897,-0.514332115650177
13.880088806152344,0.00017972028581425548,0.00815553218126297,-0.9100846648216248,1.417953372001648,-0.5081877708435059
13.91823148727417,-0.00040076085133478045,0.005278034135699272,-0.9131252765655518,1.415159821510315,-0.5023005604743958
13.956946849822998,-0.0010386070935055614,0.0022551442962139845,-0.9161839485168457,1.4126224517822266,-0.4966554343700409
13.99603819847107,-0.0017283775378018618,-0.0008857920183800161,-0.9192736744880676,1.4103373289108276,-0.4912346601486206
14.035009860992432,-0.002465187106281519,-0.004119839984923601,-0.9224119186401367,1.408297061920166,-0.48601779341697693
14.073833703994751,-0.003243404906243086,-0.007421595975756645,-0.9256123304367065,1.406495213508606,-0.4809821844100952
14.112306594848633,-0.0040580458007752895,-0.010766910389065742,-0.9288938045501709,1.4049217700958252,-0.4761029779911041
14.153952598571777,-0.0049038841389119625,-0.014132780954241753,-0.9322721362113953,1.403571367263794,-0.4713556170463562
14.188928365707397,-0.005775521043688059,-0.017495574429631233,-0.9357659816741943,1.402431607246399,-0.4667121469974518
14.232583045959473,-0.006667918525636196,-0.02083255536854267,-0.9393900632858276,1.4014934301376343,-0.4621468484401703
14.271887302398682,-0.007575663737952709,-0.024121101945638657,-0.9431637525558472,1.4007455110549927,-0.45763128995895386
14.310205698013306,-0.008493209257721901,-0.027337882667779922,-0.9471008777618408,1.4001774787902832,-0.4531386196613312
14.34936785697937,-0.009415648877620697,-0.030460579320788383,-0.9512183666229248,1.3997782468795776,-0.44864293932914734
14.388105154037476,-0.010336237959563732,-0.033464979380369186,-0.9555297493934631,1.3995383977890015,-0.4441186785697937
14.4269540309906,-0.011249524541199207,-0.03632786124944687,-0.9600493907928467,1.3994472026824951,-0.4395417869091034
14.465620756149292,-0.01214829832315445,-0.03902406245470047,-0.9647865295410156,1.3994947671890259,-0.43489059805870056
14.504677057266235,-0.01302544679492712,-0.041529372334480286,-0.9697534441947937,1.3996721506118774,-0.43014490604400635
14.54412579536438,-0.013872360810637474,-0.043817561119794846,-0.974956750869751,1.3999722003936768,-0.4252888262271881
14.582757949829102,-0.014680870808660984,-0.045862969011068344,-0.9804022312164307,1.4003875255584717,-0.4203072488307953
14.621474027633667,-0.015440131537616253,-0.047638196498155594,-0.9860952496528625,1.4009133577346802,-0.41519102454185486
14.66061806678772,-0.01613958179950714,-0.049116212874650955,-0.9920333027839661,1.4015451669692993,-0.40993279218673706
14.699398756027222,-0.016767088323831558,-0.050269924104213715,-0.9982171654701233,1.4022793769836426,-0.4045308530330658
14.738036870956421,-0.017308434471488,-0.05107088014483452,-1.0046411752700806,1.4031200408935547,-0.39898979663848877
14.777475595474243,-0.017749756574630737,-0.05149213969707489,-1.011296272277832,1.4040650129318237,-0.3933161199092865
14.816010475158691,-0.0180746428668499,-0.05150549113750458,-1.0181732177734375,1.4051203727722168,-0.38752487301826477
14.854817628860474,-0.018265927210450172,-0.051085297018289566,-1.0252552032470703,1.4062950611114502,-0.3816356956958771
14.893708229064941,-0.018305188044905663,-0.05020514130592346,-1.0325264930725098,1.4075961112976074,-0.37567511200904846
14.932236671447754,-0.01817387156188488,-0.048841044306755066,-1.0399634838104248,1.409039855003357,-0.3696768283843994
14.975422859191895,-0.01785200648009777,-0.04697023704648018,-1.0475444793701172,1.4106411933898926,-0.3636798560619354
15.008652925491333,-0.01731986552476883,-0.04457227885723114,-1.0552387237548828,1.4124207496643066,-0.35773125290870667
15.0533926486969,-0.01655796729028225,-0.04162919148802757,-1.063017725944519,1.4144023656845093,-0.35188600420951843
15.09220576286316,-0.015547459945082664,-0.038125839084386826,-1.0708467960357666,1.4166135787963867,-0.34620487689971924
15.131670951843262,-0.014270417392253876,-0.034050531685352325,-1.078689455986023,1.4190834760665894,-0.3407552242279053
15.170089483261108,-0.012711492367088795,-0.029394730925559998,-1.0865064859390259,1.421849250793457,-0.33561229705810547
15.209404230117798,-0.010858220048248768,-0.024154847487807274,-1.094258427619934,1.4249444007873535,-0.330856591463089
15.247594594955444,-0.008700273931026459,-0.0183296799659729,-1.1019001007080078,1.4284141063690186,-0.32657554745674133
15.286513566970825,-0.006233311258256435,-0.011924377642571926,-1.1093871593475342,1.4322993755340576,-0.3228602111339569
15.325801372528076,-0.0034568514674901962,-0.004947521258145571,-1.116673469543457,1.4366437196731567,-0.3198074400424957
15.36452841758728,-0.0003759944811463356,0.002586971502751112,-1.1237084865570068,1.4414955377578735,-0.3175179064273834
15.403737783432007,0.002996452385559678,0.010660124011337757,-1.1304436922073364,1.4469020366668701,-0.31609249114990234
15.442348718643188,0.006641861982643604,0.01924765296280384,-1.1368272304534912,1.4529083967208862,-0.3156374990940094
15.481144189834595,0.010532677173614502,0.028321219608187675,-1.1428031921386719,1.4595599174499512,-0.31625625491142273
15.52003026008606,0.01463339477777481,0.03784385696053505,-1.1483173370361328,1.466901421546936,-0.3180531859397888
15.559231042861938,0.018901173025369644,0.047775086015462875,-1.1533123254776,1.4749692678451538,-0.3211285471916199
15.598503828048706,0.023282786831259727,0.05806676670908928,-1.1577261686325073,1.4838002920150757,-0.3255811035633087
15.636386156082153,0.027717916294932365,0.0686633512377739,-1.1614983081817627,1.4934203624725342,-0.33150243759155273
15.675604343414307,0.032137200236320496,0.07950244843959808,-1.164563775062561,1.503849983215332,-0.33897665143013
15.713771104812622,0.03646402060985565,0.09051186591386795,-1.1668550968170166,1.5151015520095825,-0.34808042645454407
15.752944469451904,0.04061576724052429,0.10161103308200836,-1.1683073043823242,1.527177333831787,-0.35887792706489563
15.792428255081177,0.0445040762424469,0.11270823329687119,-1.1688505411148071,1.5400679111480713,-0.37141963839530945
15.83071780204773,0.048038680106401443,0.1237005740404129,-1.168419361114502,1.5537556409835815,-0.3857426047325134
15.869653463363647,0.05112675204873085,0.13447250425815582,-1.166953206062317,1.5682059526443481,-0.40186381340026855
15.908963918685913,0.0536799319088459,0.14489643275737762,-1.1643940210342407,1.5833783149719238,-0.41978102922439575
15.94747018814087,0.05561517924070358,0.15483026206493378,-1.160697102546692,1.5992156267166138,-0.43946778774261475
15.98680305480957,0.056858260184526443,0.1641203612089157,-1.155829906463623,1.6156522035598755,-0.4608735740184784
16.025088787078857,0.05735107138752937,0.1725998818874359,-1.1497772932052612,1.632609486579895,-0.48391619324684143
16.063861846923828,0.05705254524946213,0.18009337782859802,-1.1425516605377197,1.650001049041748,-0.5084852576255798
16.10232901573181,0.055947113782167435,0.1864170879125595,-1.134191870689392,1.6677305698394775,-0.5344354510307312
16.141815662384033,0.0540451817214489,0.19138526916503906,-1.1247682571411133,1.6856924295425415,-0.5615860819816589
16.17997908592224,0.05138620361685753,0.19481629133224487,-1.1143925189971924,1.7037813663482666,-0.5897230505943298
16.218795776367188,0.048042744398117065,0.19653655588626862,-1.103215217590332,1.7218843698501587,-0.6185935735702515
16.25761604309082,0.0441155880689621,0.19639088213443756,-1.0914273262023926,1.739890694618225,-0.647914707660675
16.29690456390381,0.039732493460178375,0.19424937665462494,-1.0792587995529175,1.7576849460601807,-0.6773677468299866
16.335628986358643,0.035041455179452896,0.19001442193984985,-1.0669727325439453,1.7751574516296387,-0.7066113352775574
16.37470817565918,0.030201882123947144,0.1836296021938324,-1.0548619031906128,1.7922052145004272,-0.7352833151817322
16.413357734680176,0.025374658405780792,0.17508308589458466,-1.0432356595993042,1.8087295293807983,-0.7630071043968201
16.4521906375885,0.02071097493171692,0.16441194713115692,-1.032410740852356,1.824634313583374,-0.7894031405448914
16.491382122039795,0.016812430694699287,0.15149013698101044,-1.0222934484481812,1.839443564414978,-0.8000003099441528
16.530744791030884,0.014246462844312191,0.13705313205718994,-1.0101590156555176,1.8532068729400635,-0.8000009655952454
16.569716453552246,0.011113835498690605,0.12052369117736816,-1.0020012855529785,1.8659380674362183,-0.8000015616416931
16.608856201171875,0.008445050567388535,0.10280967503786087,-0.9948856234550476,1.8780908584594727,-0.8000020384788513
16.647266149520874,0.0056687332689762115,0.08374794572591782,-0.9906185269355774,1.8893128633499146,-0.8000024557113647
16.685945749282837,0.0030560949817299843,0.0638154000043869,-0.9889172315597534,1.8996853828430176,-0.8000028133392334
16.72484302520752,0.0004888923140242696,0.04327094927430153,-0.9899371862411499,1.90913987159729,-0.8000030517578125
16.766990423202515,-0.0020598154515028,0.022442106157541275,-0.994026780128479,1.9176267385482788,-0.800003170967102
16.80129909515381,-0.004596157465130091,0.0017289898823946714,-1.0009534358978271,1.925160527229309,-0.800003170967102
16.847837448120117,-0.007194640580564737,-0.01854715310037136,-1.010938048362732,1.9316959381103516,-0.800003170967102
16.881333589553833,-0.009851460345089436,-0.03798115625977516,-1.0236961841583252,1.9372637271881104,-0.8000029921531677
16.925507307052612,-0.012606247328221798,-0.056249186396598816,-1.0391855239868164,1.9418601989746094,-0.8000026941299438
16.964911460876465,-0.01543622836470604,-0.07299887388944626,-1.05707848072052,1.9455276727676392,-0.8000023365020752
17.003156661987305,-0.018325431272387505,-0.08794796466827393,-1.0771195888519287,1.9483044147491455,-0.8000019192695618
17.041505098342896,-0.02121157944202423,-0.10083384066820145,-1.0989114046096802,1.9502556324005127,-0.8000013828277588
17.080827713012695,-0.02402447909116745,-0.11146389693021774,-1.1220576763153076,1.9514594078063965,-0.8000008463859558
17.119245767593384,-0.02666499651968479,-0.11969522386789322,-1.1461111307144165,1.9520111083984375,-0.8000002503395081
17.15834093093872,-0.029374685138463974,-0.1252226084470749,-1.1702117919921875,1.9517625570297241,-0.7868666052818298
17.197524309158325,-0.03293680027127266,-0.12850144505500793,-1.19083571434021,1.9508329629898071,-0.7641172409057617
17.238282680511475,-0.03540613129734993,-0.12889933586120605,-1.213117241859436,1.9492799043655396,-0.741327166557312
17.272207021713257,-0.037664927542209625,-0.1271936595439911,-1.233376383781433,1.9477838277816772,-0.7190654873847961
17.317442417144775,-0.03888881579041481,-0.12319306284189224,-1.2530598640441895,1.9461838006973267,-0.6978254914283752
17.356061220169067,-0.03939314931631088,-0.11733643710613251,-1.2710803747177124,1.9448002576828003,-0.6780128479003906
17.39479660987854,-0.03893878683447838,-0.10981308668851852,-1.2874460220336914,1.9437150955200195,-0.660067081451416
17.433857679367065,-0.0376223623752594,-0.10093289613723755,-1.3020435571670532,1.9430691003799438,-0.6442756652832031
17.47326922416687,-0.035504475235939026,-0.09101644158363342,-1.3145755529403687,1.942994236946106,-0.6309369802474976
17.512098789215088,-0.03267388418316841,-0.08034422248601913,-1.3251757621765137,1.9435477256774902,-0.6202187538146973
17.550986289978027,-0.0293121337890625,-0.06924709677696228,-1.3336366415023804,1.944818139076233,-0.612257182598114
17.590405702590942,-0.025558460503816605,-0.05799620598554611,-1.3401093482971191,1.946810007095337,-0.6070924997329712
17.628928422927856,-0.021622270345687866,-0.0468941330909729,-1.3445357084274292,1.9495365619659424,-0.6047061085700989
17.667426824569702,-0.017669273540377617,-0.03619982674717903,-1.3470581769943237,1.9529482126235962,-0.6050027012825012
17.7067129611969,-0.013888387940824032,-0.026179026812314987,-1.3477391004562378,1.9569882154464722,-0.6078251600265503
17.744539499282837,-0.01042808499187231,-0.017066217958927155,-1.346734881401062,1.9615535736083984,-0.6129476428031921
17.783108234405518,-0.00742510799318552,-0.009086251258850098,-1.3441991806030273,1.966528296470642,-0.6200870871543884
17.822129249572754,-0.004974755458533764,-0.0024319926742464304,-1.340330958366394,1.9717692136764526,-0.6289054751396179
17.860016584396362,-0.00314413127489388,0.0027285944670438766,-1.33535897731781,1.9771217107772827,-0.6390159130096436
17.8984112739563,-0.0019594186451286077,0.006268524099141359,-1.3295392990112305,1.9824204444885254,-0.6499925851821899
17.93696928024292,-0.0014182201121002436,0.008101881481707096,-1.323156714439392,1.9874945878982544,-0.6613796949386597
17.97556495666504,-0.0014851533342152834,0.008195502683520317,-1.316515326499939,1.9921780824661255,-0.6727057695388794
18.014103889465332,-0.002106511266902089,0.0065711308270692825,-1.3099273443222046,1.99630606174469,-0.683495044708252
18.052933931350708,-0.003211800940334797,0.003310948144644499,-1.3037084341049194,1.9997295141220093,-0.6932849884033203
18.09129238128662,-0.0047256676480174065,-0.0014442489482462406,-1.298154592514038,2.0023107528686523,-0.7016413807868958
18.129462242126465,-0.00657280208542943,-0.007494379300624132,-1.2935411930084229,2.0039303302764893,-0.7081705927848816
18.168251037597656,-0.008683226071298122,-0.014590508304536343,-1.2900995016098022,2.004488945007324,-0.7125378847122192
18.206193685531616,-0.010994063690304756,-0.02243669144809246,-1.288013219833374,2.0039095878601074,-0.714476466178894
18.246192455291748,-0.013449572958052158,-0.030707623809576035,-1.2874068021774292,2.0021376609802246,-0.7137981057167053
18.285032987594604,-0.015996400266885757,-0.039057329297065735,-1.2883399724960327,1.9991430044174194,-0.7103976011276245
18.323702335357666,-0.018580522388219833,-0.04713469371199608,-1.2908051013946533,1.9949181079864502,-0.7042606472969055
18.36211133003235,-0.021139873191714287,-0.05459681525826454,-1.2947289943695068,1.9894821643829346,-0.69545978307724
18.400888204574585,-0.023601386696100235,-0.061122503131628036,-1.2999731302261353,1.982873797416687,-0.6841492056846619
18.439493417739868,-0.02587684988975525,-0.06642600893974304,-1.3063467741012573,1.9751602411270142,-0.6705643534660339
18.478228092193604,-0.02786424197256565,-0.07026750594377518,-1.3136097192764282,1.9664252996444702,-0.655006468296051
18.51672124862671,-0.029448043555021286,-0.0724591314792633,-1.3214889764785767,1.9567793607711792,-0.6378350853919983
18.55531144142151,-0.030509136617183685,-0.07287223637104034,-1.3296929597854614,1.9463468790054321,-0.6194489598274231
18.5941002368927,-0.03092901036143303,-0.07143764197826385,-1.3379186391830444,1.9352705478668213,-0.6002795100212097
18.63324737548828,-0.030600866302847862,-0.06814350932836533,-1.3458757400512695,1.9237068891525269,-0.5807695388793945
18.671675205230713,-0.029438259080052376,-0.06303001195192337,-1.3532874584197998,1.911821722984314,-0.5613611936569214
18.710808277130127,-0.027383724227547646,-0.05618251860141754,-1.359906792640686,1.8997833728790283,-0.5424832701683044
18.74885392189026,-0.024412857368588448,-0.047722481191158295,-1.3655203580856323,1.8877657651901245,-0.524542510509491
18.78714370727539,-0.020538248121738434,-0.037797216325998306,-1.3699461221694946,1.8759353160858154,-0.5079110860824585
18.82628870010376,-0.015812629833817482,-0.026574844494462013,-1.3730429410934448,1.8644534349441528,-0.49292299151420593
18.864332675933838,-0.01032203808426857,-0.014231550507247448,-1.3746973276138306,1.8534660339355469,-0.4798682630062103
18.90341281890869,-0.004185996949672699,-0.0009521646425127983,-1.3748291730880737,1.8431059122085571,-0.4689931273460388
18.941567420959473,0.0024487818591296673,0.01308161299675703,-1.373379111289978,1.8334828615188599,-0.4604925513267517
18.979923009872437,0.009413559921085835,0.027685953304171562,-1.3703058958053589,1.8246864080429077,-0.4545190930366516
19.01875138282776,0.016527431085705757,0.042680758982896805,-1.3655860424041748,1.8167802095413208,-0.45117607712745667
19.057368278503418,0.023598825559020042,0.05788789317011833,-1.3592036962509155,1.8098036050796509,-0.4505220651626587
19.097007989883423,0.030436206609010696,0.07312953472137451,-1.3511561155319214,1.8037686347961426,-0.4525727927684784
19.13585114479065,0.03685447946190834,0.08822787553071976,-1.3414438962936401,1.7986582517623901,-0.4572983682155609
19.174728870391846,0.042678363621234894,0.10300468653440475,-1.3300820589065552,1.794435977935791,-0.46463122963905334
19.213071823120117,0.04775264486670494,0.1172793060541153,-1.3170949220657349,1.7910411357879639,-0.47446197271347046
19.251827001571655,0.051944050937891006,0.130869060754776,-1.3025213479995728,1.7883931398391724,-0.4866425395011902
19.2911856174469,0.05515233799815178,0.14359192550182343,-1.2864185571670532,1.7863932847976685,-0.5009884238243103
19.329959630966187,0.05730670690536499,0.15526852011680603,-1.2688658237457275,1.7849340438842773,-0.5172842741012573
19.36830759048462,0.05837647616863251,0.16572442650794983,-1.2499712705612183,1.783898115158081,-0.5352799296379089
19.407453536987305,0.05836978927254677,0.17479823529720306,-1.2298640012741089,1.783161997795105,-0.5547028183937073
19.44651222229004,0.05733324587345123,0.1823427975177765,-1.2087074518203735,1.7826015949249268,-0.5752531290054321
19.484748601913452,0.0553501658141613,0.1882348358631134,-1.1866940259933472,1.7820972204208374,-0.5966206789016724
19.524106979370117,0.052536506205797195,0.19237852096557617,-1.1640369892120361,1.781535267829895,-0.6184813380241394
19.562876224517822,0.04903445392847061,0.1947108656167984,-1.1409730911254883,1.7808083295822144,-0.6405075192451477
19.60184645652771,0.045002564787864685,0.19520467519760132,-1.117747187614441,1.7798234224319458,-0.6623818278312683
19.640732049942017,0.04060874134302139,0.19387152791023254,-1.0946152210235596,1.7784970998764038,-0.6837940216064453
19.679059982299805,0.03601996228098869,0.19075937569141388,-1.0718193054199219,1.7767585515975952,-0.7044544219970703
19.717758178710938,0.03139211982488632,0.18595203757286072,-1.0495960712432861,1.7745559215545654,-0.7241010069847107
19.757411003112793,0.02686469443142414,0.17956572771072388,-1.028157114982605,1.7718404531478882,-0.7424987554550171
19.795921564102173,0.022554632276296616,0.17174138128757477,-1.0076892375946045,1.7685881853103638,-0.7594497203826904
19.83483123779297,0.01855214685201645,0.1626412570476532,-0.9883479475975037,1.7647768259048462,-0.7747878432273865
19.874032974243164,0.014920790679752827,0.15244074165821075,-0.9702546000480652,1.760400652885437,-0.7883896827697754
19.911992073059082,0.011697350069880486,0.14132429659366608,-0.9535044431686401,1.7554572820663452,-0.7999999523162842
19.95114755630493,0.009293925948441029,0.12941516935825348,-0.9373822212219238,1.749624252319336,-0.8000001907348633
19.99012041091919,0.007258744910359383,0.11710169166326523,-0.9222487211227417,1.743233561515808,-0.8000004291534424
20.029171228408813,0.00533132953569293,0.10425075143575668,-0.9093998670578003,1.7363213300704956,-0.8000006079673767
20.067264556884766,0.003769408678635955,0.09136289358139038,-0.8975934982299805,1.729079008102417,-0.8000007271766663
20.106263399124146,0.002317016012966633,0.07831401377916336,-0.8877391219139099,1.7213983535766602,-0.800000786781311
20.14458703994751,0.0011292016133666039,0.06544587761163712,-0.8791742920875549,1.7134124040603638,-0.800000786781311
20.18354034423828,7.667188765481114e-05,0.05276388302445412,-0.8721433281898499,1.7050973176956177,-0.800000786781311
20.22262954711914,-0.0008087007445283234,0.0404476523399353,-0.8664504885673523,1.6965161561965942,-0.8000007271766663
20.261098861694336,-0.0015696915797889233,0.02857506461441517,-0.8619934320449829,1.687699794769287,-0.8000006079673767
20.299672603607178,-0.002225301694124937,0.017232976853847504,-0.8587341904640198,1.67867910861969,-0.8000004887580872
20.338370323181152,-0.002789182821288705,0.0065062763169407845,-0.8564931154251099,1.6695008277893066,-0.8000003099441528
20.377393007278442,-0.0032858073245733976,-0.0035609265323728323,-0.8552285432815552,1.6601918935775757,-0.8000001311302185
20.400160789489746,-0.003733910620212555,-0.012901182286441326,-0.8546858429908752,1.6506152153015137,-0.796683669090271
20.443903923034668,-0.004236241802573204,-0.021511774510145187,-0.8537222146987915,1.6407138109207153,-0.7875227332115173
20.482482194900513,-0.004755088593810797,-0.029339786618947983,-0.853722870349884,1.630636215209961,-0.7777002453804016
20.521594047546387,-0.005302524659782648,-0.036379374563694,-0.8541404604911804,1.620544672012329,-0.7673095464706421
20.561265468597412,-0.005877065472304821,-0.042636219412088394,-0.8548721671104431,1.6104475259780884,-0.7564963102340698
20.5999436378479,-0.006459459196776152,-0.04809689521789551,-0.8561087846755981,1.6003601551055908,-0.7453414797782898
20.642365217208862,-0.0070579200983047485,-0.05279306694865227,-0.8574668765068054,1.5903569459915161,-0.7339619398117065
20.694716453552246,-0.007644787430763245,-0.05672747641801834,-0.8591580986976624,1.5804286003112793,-0.7224423885345459
20.739945888519287,-0.00822063721716404,-0.05993242189288139,-0.8609446883201599,1.5706372261047363,-0.710868239402771
20.775845289230347,-0.008766846731305122,-0.06243416666984558,-0.8628764748573303,1.5609917640686035,-0.699317216873169
20.810962438583374,-0.009273197501897812,-0.06426188349723816,-0.8648864030838013,1.5515276193618774,-0.6878535151481628
20.851921319961548,-0.009731310419738293,-0.06545545905828476,-0.8669264912605286,1.5422704219818115,-0.6765391826629639
20.890814542770386,-0.010128005407750607,-0.06604530662298203,-0.8690020442008972,1.5332359075546265,-0.6654214262962341
20.93147110939026,-0.010459324344992638,-0.06607460975646973,-0.8710600733757019,1.524451732635498,-0.6545435786247253
20.970136642456055,-0.010715910233557224,-0.0655779242515564,-0.873108983039856,1.5159295797348022,-0.6439390778541565
21.00479531288147,-0.010894556529819965,-0.0645960196852684,-0.8751273155212402,1.5076888799667358,-0.6336331367492676
21.043595790863037,-0.010991441085934639,-0.06316675990819931,-0.8771132230758667,1.4997414350509644,-0.623646080493927
21.08372187614441,-0.011005195789039135,-0.061327334493398666,-0.8790693879127502,1.492097020149231,-0.6139893531799316
21.1248140335083,-0.010935874655842781,-0.05911538004875183,-0.8809963464736938,1.484765648841858,-0.6046683192253113
21.16419291496277,-0.010784142650663853,-0.05656629055738449,-0.8829037547111511,1.4777522087097168,-0.5956840515136719
21.204976558685303,-0.010551905259490013,-0.05371535196900368,-0.8848024010658264,1.4710613489151,-0.587029218673706
21.24628210067749,-0.010242302902042866,-0.05059567838907242,-0.8867060542106628,1.4646960496902466,-0.578694760799408
21.287893056869507,-0.009858901612460613,-0.047240354120731354,-0.888629674911499,1.4586528539657593,-0.5706648230552673
21.32809042930603,-0.009405967779457569,-0.04368049278855324,-0.8905925154685974,1.4529327154159546,-0.5629223585128784
21.368768215179443,-0.008887888863682747,-0.039947353303432465,-0.8926136493682861,1.4475317001342773,-0.5554443597793579
21.408835649490356,-0.008309651166200638,-0.03607020899653435,-0.8947131633758545,1.4424442052841187,-0.5482063293457031
21.448590517044067,-0.007676267996430397,-0.03207884356379509,-0.8969123959541321,1.4376622438430786,-0.5411813855171204
21.488447904586792,-0.006993137300014496,-0.02800154499709606,-0.8992353081703186,1.4331811666488647,-0.5343410968780518
21.530573844909668,-0.0062655373476445675,-0.023867269977927208,-0.9017019867897034,1.4289910793304443,-0.5276545882225037
21.569968461990356,-0.0054991883225739,-0.019705111160874367,-0.9043346047401428,1.4250812530517578,-0.5210906863212585
21.61164116859436,-0.0046992176212370396,-0.01554272510111332,-0.9071559309959412,1.421441912651062,-0.5146180391311646
21.65150785446167,-0.0038720606826245785,-0.01141093485057354,-0.9101849794387817,1.4180635213851929,-0.5082056522369385
21.691638708114624,-0.0030230749398469925,-0.007338053081184626,-0.9134441018104553,1.4149353504180908,-0.5018231868743896
21.731123685836792,-0.0021589058451354504,-0.00335500156506896,-0.9169490337371826,1.4120450019836426,-0.49544045329093933
21.773362398147583,-0.001286584883928299,0.0005072128842584789,-0.9207181334495544,1.4093832969665527,-0.48902949690818787
21.81855535507202,-0.00041300064185634255,0.004216529428958893,-0.9247667193412781,1.4069401025772095,-0.4825657904148102
21.84529423713684,0.00045296770986169577,0.00773960817605257,-0.9291045665740967,1.4047050476074219,-0.4760257601737976
21.880586624145508,0.0013035137671977282,0.011043413542211056,-0.933744490146637,1.4026719331741333,-0.46939119696617126
21.91800045967102,0.002127675339579582,0.014092554338276386,-0.9386917948722839,1.4008322954177856,-0.4626460075378418
21.96501851081848,0.0029148519970476627,0.016851913183927536,-0.9439502358436584,1.399179458618164,-0.4557792842388153
22.005659341812134,0.003652405459433794,0.019285935908555984,-0.9495214223861694,1.3977137804031372,-0.4487870931625366
22.042540550231934,0.004326611757278442,0.02135794796049595,-0.9553996920585632,1.3964298963546753,-0.4416678249835968
22.087015628814697,0.004921887069940567,0.023032398894429207,-0.9615791440010071,1.395330548286438,-0.43442919850349426
22.12610125541687,0.0054215313866734505,0.024273192510008812,-0.9680480360984802,1.3944207429885864,-0.427084356546402
22.154505252838135,0.005807042121887207,0.025045443326234818,-0.9747903943061829,1.3937063217163086,-0.4196547269821167
22.190152883529663,0.006059022154659033,0.025315716862678528,-0.9817860126495361,1.3931982517242432,-0.4121674597263336
22.226630449295044,0.006156440358608961,0.02505188062787056,-0.9890115261077881,1.3929120302200317,-0.40466025471687317
22.27982521057129,0.006077559664845467,0.02422453835606575,-0.9964377284049988,1.392866611480713,-0.39717814326286316
22.320305109024048,0.005800493527203798,0.02280745655298233,-1.0040311813354492,1.393080711364746,-0.3897733986377716
22.360005855560303,0.005303001031279564,0.020776234567165375,-1.0117558240890503,1.3935846090316772,-0.38250917196273804
22.400339365005493,0.004564057569950819,0.018112827092409134,-1.0195722579956055,1.394405722618103,-0.3754557967185974
22.44039225578308,0.003563186153769493,0.014801415614783764,-1.027435302734375,1.3955830335617065,-0.3686928451061249
22.478992462158203,0.0022834003902971745,0.01083225104957819,-1.0353002548217773,1.3971532583236694,-0.362306147813797
22.502870321273804,0.0007101716473698616,0.006200957112014294,-1.0431157350540161,1.3991619348526,-0.3563905954360962
22.56021499633789,-0.0011673574335873127,0.0009076165151782334,-1.0508325099945068,1.401652455329895,-0.3510459065437317
22.580832481384277,-0.003354014130309224,-0.0050399391911923885,-1.058393955230713,1.404677152633667,-0.34638065099716187
22.614739894866943,-0.005849543958902359,-0.011628909967839718,-1.0657457113265991,1.4082852602005005,-0.34250468015670776
22.650113105773926,-0.00864638015627861,-0.01883983239531517,-1.0728302001953125,1.4125311374664307,-0.3395328223705292
22.685717582702637,-0.011729247868061066,-0.02664559707045555,-1.0795871019363403,1.4174655675888062,-0.33758291602134705
22.72109293937683,-0.015073943883180618,-0.03501419723033905,-1.085957407951355,1.4231412410736084,-0.33677247166633606
22.757212162017822,-0.018647467717528343,-0.0439048632979393,-1.0918751955032349,1.42960524559021,-0.33721786737442017
22.79812526702881,-0.022407621145248413,-0.05326959118247032,-1.097278118133545,1.4369043111801147,-0.3390342593193054
22.831650972366333,-0.026302294805645943,-0.06305325031280518,-1.1020978689193726,1.4450756311416626,-0.342331200838089
22.86707854270935,-0.030269509181380272,-0.07319152355194092,-1.1062651872634888,1.4541524648666382,-0.3472115397453308
22.902519941329956,-0.03423856198787689,-0.08361164480447769,-1.1097112894058228,1.464159369468689,-0.35377034544944763
22.937835216522217,-0.03813100606203079,-0.09423152357339859,-1.1123627424240112,1.4751075506210327,-0.36209219694137573
22.973462104797363,-0.04185950383543968,-0.10495664179325104,-1.1141456365585327,1.486999750137329,-0.37224698066711426
23.00895404815674,-0.04533446952700615,-0.1156836748123169,-1.1149910688400269,1.4998259544372559,-0.38429057598114014
23.04452347755432,-0.048460476100444794,-0.12629342079162598,-1.1148269176483154,1.513564109802246,-0.39825913310050964
23.079330444335938,-0.05114398151636124,-0.13665719330310822,-1.1135890483856201,1.5281765460968018,-0.4141705334186554
23.11555290222168,-0.05329390987753868,-0.14662958681583405,-1.1112202405929565,1.5436127185821533,-0.4320160746574402
23.1572847366333,-0.054828234016895294,-0.15605230629444122,-1.1076784133911133,1.5598076581954956,-0.4517601728439331
23.190233945846558,-0.05567663908004761,-0.16475459933280945,-1.1029322147369385,1.5766874551773071,-0.47334110736846924
23.22522735595703,-0.055785078555345535,-0.17255261540412903,-1.0969806909561157,1.5941612720489502,-0.496661901473999
23.260788202285767,-0.0551239475607872,-0.17925342917442322,-1.089842438697815,1.6121280193328857,-0.5215880870819092
23.296076774597168,-0.05368930846452713,-0.1846596896648407,-1.08157217502594,1.6304821968078613,-0.5479550957679749
23.331217050552368,-0.051507458090782166,-0.18857251107692719,-1.0722668170928955,1.6491061449050903,-0.5755541324615479
23.366761684417725,-0.04863855987787247,-0.19080103933811188,-1.0620585680007935,1.6678804159164429,-0.604139506816864
23.401824235916138,-0.045175109058618546,-0.19116605818271637,-1.0511257648468018,1.6866801977157593,-0.6334264874458313
23.437016010284424,-0.04123935103416443,-0.18951377272605896,-1.0396881103515625,1.7053842544555664,-0.6630995273590088
23.47245192527771,-0.036977797746658325,-0.1857197880744934,-1.028007984161377,1.7238709926605225,-0.6928078532218933
23.507396697998047,-0.032553814351558685,-0.1796988695859909,-1.0163726806640625,1.742020606994629,-0.7221749424934387
23.543529748916626,-0.028134148567914963,-0.17141292989253998,-1.0051031112670898,1.7597259283065796,-0.7508111596107483
23.57831645011902,-0.023880423977971077,-0.16087466478347778,-0.9945246577262878,1.7768803834915161,-0.7783127427101135
23.61357545852661,-0.020140066742897034,-0.14804047346115112,-0.9848385453224182,1.7931935787200928,-0.8000000715255737
23.64814305305481,-0.018085326999425888,-0.13324075937271118,-0.9737116098403931,1.8080790042877197,-0.8000007271766663
23.683688163757324,-0.015924539417028427,-0.11658935993909836,-0.9646537899971008,1.8221237659454346,-0.8000013828277588
23.719266414642334,-0.013797428458929062,-0.09817390143871307,-0.9581148624420166,1.8354575634002686,-0.8000019192695618
23.76486587524414,-0.01187105756253004,-0.07853902876377106,-0.9533286690711975,1.848075032234192,-0.80000239610672
23.79283905029297,-0.009827443398535252,-0.05763019621372223,-0.9518225789070129,1.859771966934204,-0.8000027537345886
23.82792592048645,-0.007895417511463165,-0.03608475625514984,-0.9527212977409363,1.8706541061401367,-0.8000029921531677
23.862908363342285,-0.005798048339784145,-0.014019426889717579,-0.9569835662841797,1.8805474042892456,-0.800003170967102
23.89764928817749,-0.0036231810227036476,0.00801113247871399,-0.9641776084899902,1.8895082473754883,-0.8000032305717468
23.932388067245483,-0.0012191605055704713,0.02972562052309513,-0.9746336936950684,1.8974491357803345,-0.8000032305717468
23.967408657073975,0.0014019242953509092,0.05065198987722397,-0.9881291389465332,1.9043868780136108,-0.8000030517578125
24.002546548843384,0.004292390774935484,0.07044646143913269,-1.0046015977859497,1.9103034734725952,-0.8000027537345886
24.03714871406555,0.0074238888919353485,0.0887124240398407,-1.0238037109375,1.915217399597168,-0.8000024557113647
24.072103261947632,0.010770559310913086,0.10513047128915787,-1.0454380512237549,1.919158935546875,-0.8000019788742065
24.106972694396973,0.014251059852540493,0.11940076947212219,-1.0691441297531128,1.9221771955490112,-0.8000015020370483
24.141819715499878,0.017768513411283493,0.13129116594791412,-1.0944784879684448,1.9243451356887817,-0.8000009059906006
24.176798582077026,0.021196627989411354,0.14062513411045074,-1.1209791898727417,1.9257538318634033,-0.8000002503395081
24.211711406707764,0.0249714944511652,0.14700374007225037,-1.1473110914230347,1.9261221885681152,-0.786063551902771
24.24699568748474,0.029383033514022827,0.15086112916469574,-1.170722484588623,1.92573881149292,-0.7614158987998962
24.281875133514404,0.032770659774541855,0.15169231593608856,-1.1956859827041626,1.924707055091858,-0.7365078926086426
24.317447185516357,0.03584292531013489,0.1501336246728897,-1.2187670469284058,1.9236345291137695,-0.7119609713554382
24.35805869102478,0.03779401630163193,0.14604462683200836,-1.2412065267562866,1.922404170036316,-0.6883230805397034
24.390571355819702,0.03887256979942322,0.1398482620716095,-1.261950135231018,1.921330451965332,-0.6660598516464233
24.42541766166687,0.038826655596494675,0.1317671537399292,-1.280933141708374,1.920530915260315,-0.6456671357154846
24.460708618164062,0.03771921619772911,0.12211799621582031,-1.2980374097824097,1.9201580286026,-0.6274846792221069
24.495356798171997,0.035618823021650314,0.11125606298446655,-1.3129372596740723,1.9203709363937378,-0.6118601560592651
24.530679941177368,0.032602500170469284,0.09947258234024048,-1.3257598876953125,1.9212465286254883,-0.5990059971809387
24.565735340118408,0.028876500204205513,0.08712778985500336,-1.3362915515899658,1.9228943586349487,-0.5890982747077942
24.60033917427063,0.024588650092482567,0.07450404018163681,-1.344677448272705,1.9253380298614502,-0.5822087526321411
24.63555669784546,0.019982581958174706,0.06192336231470108,-1.3508628606796265,1.928604006767273,-0.5783494710922241
24.670145511627197,0.015246918424963951,0.04965570941567421,-1.3549776077270508,1.9326605796813965,-0.5774530172348022
24.705027103424072,0.010606849566102028,0.03798026964068413,-1.357086181640625,1.9374521970748901,-0.5793799161911011
24.7400324344635,0.006242925766855478,0.0271450262516737,-1.3573294878005981,1.9428868293762207,-0.5839264988899231
24.774742126464844,0.0023245313204824924,0.017389051616191864,-1.3558547496795654,1.9488452672958374,-0.5908225774765015
24.80967926979065,-0.0010208553867414594,0.008923099376261234,-1.3528496026992798,1.9551846981048584,-0.5997399687767029
24.8442223072052,-0.003699058201164007,0.001936025801114738,-1.3485286235809326,1.9617418050765991,-0.6102949380874634
24.878886938095093,-0.005659674294292927,-0.0034196623601019382,-1.343139886856079,1.9683425426483154,-0.6220619678497314
24.91335654258728,-0.006889925338327885,-0.007029925473034382,-1.3369622230529785,1.9748048782348633,-0.6345769762992859
24.96485209465027,-0.007412975654006004,-0.008830340579152107,-1.3302974700927734,1.9809467792510986,-0.647352397441864
24.98703956604004,-0.0072808703407645226,-0.008810941129922867,-1.3234655857086182,1.9865914583206177,-0.6598901748657227
25.021809101104736,-0.0065674325451254845,-0.007022128440439701,-1.3167928457260132,1.991572380065918,-0.6716983318328857
25.055867910385132,-0.005356691777706146,-0.0035764737986028194,-1.3105961084365845,1.9957383871078491,-0.6823046207427979
25.09064221382141,-0.003737181890755892,0.0013508806005120277,-1.3051753044128418,1.9989553689956665,-0.6912742853164673
25.124998092651367,-0.0017939648823812604,0.007527648936957121,-1.3007935285568237,2.0011086463928223,-0.6982241868972778
25.159867525100708,0.00039627007208764553,0.014671886339783669,-1.2976675033569336,2.0021111965179443,-0.7028403878211975
25.19450044631958,0.002764405682682991,0.022461388260126114,-1.295958399772644,2.0018973350524902,-0.7048825621604919
25.22902488708496,0.00524801854044199,0.030548490583896637,-1.295761227607727,2.0004241466522217,-0.7041983604431152
25.263871431350708,0.007786863017827272,0.038572683930397034,-1.2971038818359375,1.9976791143417358,-0.700726330280304
25.299941539764404,0.010318937711417675,0.04617708548903465,-1.2999452352523804,1.9936708211898804,-0.694494366645813
25.345545291900635,0.012772132642567158,0.053021140396595,-1.3041750192642212,1.9884345531463623,-0.6856219172477722
25.382526874542236,0.015063352882862091,0.058796029537916183,-1.3096264600753784,1.9820291996002197,-0.6743122339248657
25.418872594833374,0.01709745079278946,0.06323500722646713,-1.3160781860351562,1.9745360612869263,-0.6608406901359558
25.451149940490723,0.01876591332256794,0.06612331420183182,-1.3232696056365967,1.966058373451233,-0.6455492973327637
25.486119508743286,0.01995438151061535,0.06730388849973679,-1.3309156894683838,1.9567185640335083,-0.628827691078186
25.54207682609558,0.020548563450574875,0.06668015569448471,-1.3387161493301392,1.9466559886932373,-0.6111001968383789
25.562421083450317,0.020443731918931007,0.06421446800231934,-1.3463735580444336,1.9360235929489136,-0.5928123593330383
25.595333099365234,0.019551707431674004,0.059924233704805374,-1.3536056280136108,1.9249871969223022,-0.5744130611419678
25.63010597229004,0.01781131513416767,0.0538766123354435,-1.360149621963501,1.9137134552001953,-0.5563434958457947
25.665252447128296,0.015192104503512383,0.04617651551961899,-1.3657808303833008,1.902377724647522,-0.5390222072601318
25.700096130371094,0.01170116662979126,0.03696301206946373,-1.3703017234802246,1.8911486864089966,-0.5228399038314819
25.734857320785522,0.007380195893347263,0.026395751163363457,-1.373553991317749,1.8801873922348022,-0.5081469416618347
25.769784927368164,0.002308591501787305,0.014648471027612686,-1.3754123449325562,1.8696446418762207,-0.4952515959739685
25.803975820541382,-0.0034016419667750597,0.00190436327829957,-1.3757798671722412,1.859656572341919,-0.4844166338443756
25.838624477386475,-0.009612811729311943,-0.011650433763861656,-1.3745893239974976,1.850338339805603,-0.4758562743663788
25.87307381629944,-0.016163203865289688,-0.025831524282693863,-1.3717879056930542,1.841785192489624,-0.4697372019290924
25.907286167144775,-0.022875307127833366,-0.040452685207128525,-1.3673465251922607,1.8340660333633423,-0.4661782383918762
25.942058801651,-0.029566220939159393,-0.055331964045763016,-1.3612431287765503,1.8272242546081543,-0.46525126695632935
25.976624011993408,-0.036046531051397324,-0.07028583437204361,-1.353471279144287,1.8212774991989136,-0.46698206663131714
26.011702299118042,-0.04213562235236168,-0.08513478189706802,-1.3440310955047607,1.8162182569503784,-0.47135549783706665
26.04623579978943,-0.04766030237078667,-0.09969525039196014,-1.3329365253448486,1.8120148181915283,-0.47831106185913086
26.08110284805298,-0.0524694100022316,-0.11378384381532669,-1.320212483406067,1.808612585067749,-0.4877476096153259
26.11673903465271,-0.05643192678689957,-0.12721724808216095,-1.3058981895446777,1.8059366941452026,-0.49952763319015503
26.162785291671753,-0.05944627523422241,-0.13981127738952637,-1.2900551557540894,1.8038973808288574,-0.5134742259979248
26.190253257751465,-0.061446525156497955,-0.15138521790504456,-1.2727620601654053,1.8023875951766968,-0.5293744802474976
26.22511577606201,-0.06240049749612808,-0.16176490485668182,-1.2541254758834839,1.801297664642334,-0.546990156173706
26.259934902191162,-0.06231604889035225,-0.17078684270381927,-1.2342808246612549,1.8005077838897705,-0.5660502314567566
26.295143365859985,-0.061240099370479584,-0.17830458283424377,-1.2133872509002686,1.7998987436294556,-0.5862624645233154
26.329886436462402,-0.05925315245985985,-0.18419216573238373,-1.1916388273239136,1.7993537187576294,-0.6073187589645386
26.365012168884277,-0.05646945536136627,-0.1883542835712433,-1.169243335723877,1.7987607717514038,-0.6289022564888
26.399794340133667,-0.05302760750055313,-0.1907249242067337,-1.146437644958496,1.798016905784607,-0.6506904363632202
26.436274528503418,-0.04908338561654091,-0.19127480685710907,-1.1234607696533203,1.7970267534255981,-0.6723650693893433
26.48461651802063,-0.044800061732530594,-0.19001254439353943,-1.1005619764328003,1.7957112789154053,-0.6936246156692505
26.522425889968872,-0.04033973813056946,-0.18698345124721527,-1.077982783317566,1.7940009832382202,-0.7141813039779663
26.560680627822876,-0.0358552411198616,-0.18226827681064606,-1.0559524297714233,1.791839838027954,-0.7337729334831238
26.600653171539307,-0.03148077800869942,-0.17597824335098267,-1.0346773862838745,1.7891854047775269,-0.7521697878837585
26.6396906375885,-0.02733025513589382,-0.1682530790567398,-1.0143427848815918,1.7860089540481567,-0.7691729068756104
26.68061923980713,-0.02348877117037773,-0.15925008058547974,-0.995096743106842,1.7822890281677246,-0.784618616104126
26.718769311904907,-0.020016521215438843,-0.14914415776729584,-0.9770629405975342,1.7780187129974365,-0.7983790040016174
26.757519006729126,-0.017579134553670883,-0.13801337778568268,-0.9593316912651062,1.7727367877960205,-0.8000002503395081
26.796295881271362,-0.015492063015699387,-0.12633126974105835,-0.9425411820411682,1.7669050693511963,-0.8000004887580872
26.835740327835083,-0.013448255136609077,-0.11391504853963852,-0.9280111193656921,1.7605699300765991,-0.8000007271766663
26.86561894416809,-0.011769725009799004,-0.10130676627159119,-0.9144516587257385,1.7538926601409912,-0.8000009059906006
26.910250902175903,-0.010165235958993435,-0.08835356682538986,-0.902886688709259,1.7467492818832397,-0.8000010848045349
26.96268391609192,-0.008821831084787846,-0.07543308287858963,-0.8925949931144714,1.7392843961715698,-0.8000011444091797
27.00231957435608,-0.00759311905130744,-0.06254275888204575,-0.8839057683944702,1.7314530611038208,-0.8000012040138245
27.041272401809692,-0.0065240212716162205,-0.04988725855946541,-0.8765952587127686,1.7233258485794067,-0.8000012040138245
27.08089852333069,-0.005566388368606567,-0.037551019340753555,-0.8706009984016418,1.714922308921814,-0.8000011444091797
27.119988203048706,-0.004703788552433252,-0.025635596364736557,-0.8658859133720398,1.7062784433364868,-0.8000010251998901
27.163111686706543,-0.0039257691241800785,-0.014239686541259289,-0.8622795939445496,1.6974338293075562,-0.8000009059906006
27.190950870513916,-0.0032062337268143892,-0.0034184304531663656,-0.859748125076294,1.6884108781814575,-0.8000007271766663
27.229674816131592,-0.0025423667393624783,0.0067529152147471905,-0.8581370711326599,1.6792550086975098,-0.8000005483627319
27.268166303634644,-0.0019171496387571096,0.016242502257227898,-0.8573757410049438,1.6699919700622559,-0.8000003099441528
27.300064086914062,-0.0013290643692016602,0.02500629797577858,-0.8573461771011353,1.6606611013412476,-0.8000000715255737
27.355175495147705,-0.0007287919288501143,0.03301490470767021,-0.8576734066009521,1.650979995727539,-0.7945443391799927
27.376255750656128,-5.024124402552843e-05,0.0402694009244442,-0.8572925925254822,1.6411105394363403,-0.7846468687057495
27.408618211746216,0.0006303362315520644,0.04675951972603798,-0.8580492734909058,1.6310985088348389,-0.774293065071106
27.444414138793945,0.0013508195988833904,0.05248279124498367,-0.8588017225265503,1.6211674213409424,-0.7635851502418518
38.60644340515137,0.002078982535749674,0.05746883153915405,-0.8599135279655457,1.611250877380371,-0.7526403069496155
38.80934262275696,0.0028042690828442574,0.0617053396999836,-0.8613050580024719,1.6014065742492676,-0.7415259480476379
38.84405851364136,0.003529011271893978,0.06524719297885895,-0.8627365231513977,1.591681957244873,-0.730347216129303
38.88797974586487,0.00421967264264822,0.06809064745903015,-0.8644028306007385,1.5820704698562622,-0.7191654443740845
38.90960121154785,0.004884692840278149,0.07028765231370926,-0.8660509586334229,1.572628140449524,-0.7080530524253845
38.943469524383545,0.005498332902789116,0.07185838371515274,-0.8677886724472046,1.5633561611175537,-0.6970691680908203
38.986955404281616,0.0060588824562728405,0.07284000515937805,-0.8695148825645447,1.5542891025543213,-0.6862634420394897
39.025973081588745,0.006556175649166107,0.07327195256948471,-0.8712249994277954,1.5454397201538086,-0.6756800413131714
39.06511187553406,0.0069813900627195835,0.07318265736103058,-0.8729141354560852,1.5368248224258423,-0.6653515100479126
39.10312557220459,0.0073342835530638695,0.07261618226766586,-0.8745465874671936,1.5284630060195923,-0.6553083062171936
39.13850235939026,0.00760585255920887,0.07160278409719467,-0.876137912273407,1.5203627347946167,-0.6455700397491455
39.186965465545654,0.007798175327479839,0.07018113881349564,-0.877669095993042,1.5125361680984497,-0.6361501216888428
39.22841954231262,0.007908605970442295,0.06838436424732208,-0.8791501522064209,1.5049893856048584,-0.6270573735237122
39.262863874435425,0.007938133552670479,0.06624656170606613,-0.8805840015411377,1.49773108959198,-0.6182942986488342
39.307766914367676,0.007889175787568092,0.06380003690719604,-0.8819772005081177,1.4907623529434204,-0.6098572015762329
39.34834289550781,0.007762992288917303,0.06107555329799652,-0.8833433985710144,1.4840863943099976,-0.601738452911377
39.39345026016235,0.00756433792412281,0.05810408666729927,-0.8846942186355591,1.4777032136917114,-0.5939255952835083
39.426536321640015,0.007295217830687761,0.054913900792598724,-0.8860461711883545,1.4716099500656128,-0.5864031314849854
39.466238498687744,0.006961520295590162,0.051533784717321396,-0.8874158263206482,1.465803623199463,-0.5791515111923218
39.506272315979004,0.006566779688000679,0.047990161925554276,-0.8888216018676758,1.4602793455123901,-0.5721489191055298
39.546703815460205,0.006116365548223257,0.044309914112091064,-0.8902834057807922,1.4550321102142334,-0.5653707981109619
39.58650350570679,0.005615103989839554,0.040519002825021744,-0.8918212056159973,1.450053334236145,-0.5587899684906006
39.62797474861145,0.005067638121545315,0.03664304316043854,-0.893455982208252,1.4453353881835938,-0.5523792505264282
39.667882680892944,0.004479581490159035,0.032707296311855316,-0.8952080607414246,1.4408690929412842,-0.5461085438728333
39.708571672439575,0.0038555313367396593,0.028737539425492287,-0.897098183631897,1.436643362045288,-0.539948046207428
39.74929761886597,0.0032007796689867973,0.024759391322731972,-0.8991461396217346,1.4326483011245728,-0.5338677167892456
39.78946805000305,0.002520711161196232,0.020799055695533752,-0.9013723134994507,1.4288746118545532,-0.5278384685516357
39.829827547073364,0.0018205951200798154,0.01688382588326931,-0.9037945866584778,1.4253101348876953,-0.5218300223350525
39.87008213996887,0.0011058016680181026,0.013040401041507721,-0.9064294695854187,1.4219436645507812,-0.5158145427703857
39.90997004508972,0.00038253713864833117,0.009297425858676434,-0.9092943072319031,1.4187655448913574,-0.5097656846046448
39.95080900192261,-0.0003432466182857752,0.005684048403054476,-0.9124024510383606,1.4157670736312866,-0.5036596655845642
39.991509437561035,-0.0010640746913850307,0.002231159945949912,-0.9157644510269165,1.412937045097351,-0.49747389554977417
40.031644344329834,-0.0017732582055032253,-0.0010306703625246882,-0.9193910360336304,1.41026771068573,-0.4911918044090271
40.07069396972656,-0.00246230885386467,-0.004069190006703138,-0.9232884645462036,1.4077519178390503,-0.48479703068733215
40.104440689086914,-0.0031216267962008715,-0.006851406302303076,-0.9274604916572571,1.4053852558135986,-0.4782803952693939
40.16308522224426,-0.0037415456026792526,-0.009343685582280159,-0.9319077730178833,1.4031637907028198,-0.47163712978363037
40.20276856422424,-0.004310296382755041,-0.011512153781950474,-0.9366269111633301,1.4010844230651855,-0.4648652970790863
40.24289608001709,-0.004815441556274891,-0.013322371058166027,-0.941611111164093,1.3991494178771973,-0.4579719603061676
40.27850103378296,-0.005243338644504547,-0.014741051942110062,-0.9468510746955872,1.3973605632781982,-0.4509689211845398
40.3189971446991,-0.005578294862061739,-0.01573389209806919,-0.9523306488990784,1.3957267999649048,-0.4438752233982086
40.358946561813354,-0.005804837681353092,-0.016269486397504807,-0.958034098148346,1.3942539691925049,-0.4367169439792633
40.39924073219299,-0.005905936937779188,-0.01631605066359043,-0.963935375213623,1.3929582834243774,-0.42952921986579895
40.43922662734985,-0.00586286373436451,-0.01584519073367119,-0.9700102806091309,1.3918553590774536,-0.42235204577445984
40.47932958602905,-0.005658424459397793,-0.014830424450337887,-0.9762281775474548,1.3909653425216675,-0.4152374565601349
40.51928758621216,-0.005273417104035616,-0.013247971422970295,-0.9825516939163208,1.3903121948242188,-0.40824076533317566
40.56048369407654,-0.0046914140693843365,-0.011078767478466034,-0.9889475107192993,1.3899247646331787,-0.4014301300048828
40.59987926483154,-0.003894579131156206,-0.008306588977575302,-0.995369017124176,1.3898355960845947,-0.39487823843955994
40.640517234802246,-0.002869571093469858,-0.00492065167054534,-1.001776099205017,1.390082836151123,-0.3886675536632538
40.68034291267395,-0.0016036878805607557,-0.0009149704128503799,-1.0081195831298828,1.3907064199447632,-0.38288602232933044
40.72062015533447,-8.890748722478747e-05,0.0037111337296664715,-1.0143498182296753,1.3917478322982788,-0.3776284456253052
40.76035237312317,0.001678817206993699,0.008952287957072258,-1.0204133987426758,1.3932545185089111,-0.3729965388774872
40.80055522918701,0.003698486601933837,0.014796852134168148,-1.0262606143951416,1.3952760696411133,-0.36909446120262146
40.84125828742981,0.005963230039924383,0.021226800978183746,-1.0318303108215332,1.3978615999221802,-0.3660321533679962
40.88105320930481,0.00845864787697792,0.028217211365699768,-1.0370694398880005,1.4010605812072754,-0.363919734954834
40.921356201171875,0.011163766495883465,0.035736676305532455,-1.0419175624847412,1.4049243927001953,-0.362869530916214
40.961763858795166,0.014048805460333824,0.04374529421329498,-1.0463136434555054,1.4094997644424438,-0.362993985414505
41.00141668319702,0.017077336087822914,0.052196137607097626,-1.0501989126205444,1.4148318767547607,-0.3644005060195923
41.042227268218994,0.020202621817588806,0.06103433296084404,-1.05350661277771,1.4209586381912231,-0.367194801568985
41.080790758132935,0.02337057515978813,0.07019560784101486,-1.0561740398406982,1.4279128313064575,-0.3714747130870819
41.12044048309326,0.02651955932378769,0.0796065628528595,-1.0581371784210205,1.4357231855392456,-0.37733086943626404
41.15951752662659,0.029581531882286072,0.08918577432632446,-1.0593301057815552,1.4444025754928589,-0.38484230637550354
41.183340549468994,0.032480522990226746,0.09883761405944824,-1.0596868991851807,1.4539592266082764,-0.39407673478126526
41.219067335128784,0.03513995185494423,0.10845928639173508,-1.059146523475647,1.4643874168395996,-0.4050849676132202
41.25438928604126,0.037478361278772354,0.1179320216178894,-1.0576469898223877,1.4756696224212646,-0.4179005026817322
41.29023551940918,0.039417367428541183,0.12712900340557098,-1.0551377534866333,1.487776279449463,-0.43253764510154724
41.337998390197754,0.04088157042860985,0.13590750098228455,-1.0515735149383545,1.5006632804870605,-0.4489867091178894
41.366029024124146,0.041804105043411255,0.1441134363412857,-1.0469204187393188,1.5142762660980225,-0.4672107696533203
41.40105485916138,0.04212968051433563,0.15158337354660034,-1.0411653518676758,1.52854323387146,-0.4871474802494049
41.43658423423767,0.04181832820177078,0.1581418514251709,-1.0343130826950073,1.543391227722168,-0.5087031722068787
41.47171998023987,0.040852077305316925,0.163607656955719,-1.0263961553573608,1.5587238073349,-0.5317462086677551
41.50737190246582,0.039234522730112076,0.16779549419879913,-1.0174758434295654,1.5744420289993286,-0.5561163425445557
41.548672676086426,0.036997973918914795,0.17052416503429413,-1.0076484680175781,1.5904439687728882,-0.5816156268119812
41.60881686210632,0.034200623631477356,0.1716177612543106,-0.9970489740371704,1.606614589691162,-0.6080083847045898
41.63696241378784,0.03092828579246998,0.17091572284698486,-0.9858461022377014,1.622844934463501,-0.6350293159484863
41.68076992034912,0.02729264833033085,0.16828076541423798,-0.974251389503479,1.6390159130096436,-0.6623751521110535
41.71937131881714,0.023422149941325188,0.16360127925872803,-0.9625051021575928,1.655016541481018,-0.6897159814834595
41.76139235496521,0.019459035247564316,0.15680456161499023,-0.9508800506591797,1.6707371473312378,-0.7167016267776489
41.8008348941803,0.015546943061053753,0.1478564292192459,-0.9396660923957825,1.6860744953155518,-0.7429618239402771
41.83995509147644,0.011823010630905628,0.1367698311805725,-0.9291728138923645,1.7009285688400269,-0.7681156992912292
41.879399061203,0.008403767831623554,0.12360277771949768,-0.9197025299072266,1.715207815170288,-0.7917820811271667
41.920007944107056,0.005764651112258434,0.10834384709596634,-0.9109495282173157,1.7282826900482178,-0.8000003099441528
41.96103358268738,0.003960813395678997,0.09152679145336151,-0.9011654257774353,1.7404003143310547,-0.8000008463859558
41.99957299232483,0.0019217799417674541,0.07281801849603653,-0.8952391743659973,1.7515943050384521,-0.800001323223114
42.039175510406494,0.00018333899788558483,0.052894096821546555,-0.8907473683357239,1.7622556686401367,-0.8000017404556274
42.07898235321045,-0.001582366181537509,0.03175376355648041,-0.8892703652381897,1.7720650434494019,-0.8000020384788513
42.1201376914978,-0.003286158898845315,0.009805107489228249,-0.890619158744812,1.7810966968536377,-0.8000022768974304
42.1570827960968,-0.005019863601773977,-0.012640352360904217,-0.8948888778686523,1.7892827987670898,-0.80000239610672
42.197596073150635,-0.006860780529677868,-0.03525623679161072,-0.9024670720100403,1.7965666055679321,-0.80000239610672
42.23640537261963,-0.008851875551044941,-0.05762198194861412,-0.9130989909172058,1.8029578924179077,-0.8000023365020752
42.27629494667053,-0.011082070879638195,-0.07939311861991882,-0.9270243048667908,1.8084009885787964,-0.8000020980834961
42.31692981719971,-0.013582258485257626,-0.10014569759368896,-0.9439671635627747,1.8129150867462158,-0.8000018000602722
42.35632586479187,-0.01639064960181713,-0.11952367424964905,-0.9638811349868774,1.8164829015731812,-0.8000014424324036
42.39522838592529,-0.019495612010359764,-0.13714301586151123,-0.9864580631256104,1.8191320896148682,-0.8000009059906006
42.434170961380005,-0.02286597527563572,-0.15269096195697784,-1.0114262104034424,1.820886492729187,-0.8000003099441528
42.47266674041748,-0.026800986379384995,-0.16564197838306427,-1.0382007360458374,1.821460485458374,-0.7892751693725586
42.511346101760864,-0.03255534917116165,-0.17616038024425507,-1.0632802248001099,1.8207743167877197,-0.763296365737915
42.54962658882141,-0.03809591010212898,-0.183480903506279,-1.0906656980514526,1.8189995288848877,-0.7355090975761414
42.58923149108887,-0.043800558894872665,-0.1878262609243393,-1.1181764602661133,1.8166701793670654,-0.7063813209533691
42.628758907318115,-0.04911234602332115,-0.18916727602481842,-1.1455992460250854,1.8138198852539062,-0.6765627861022949
42.668514013290405,-0.05366288870573044,-0.18739794194698334,-1.172953486442566,1.8105837106704712,-0.6465727686882019
42.707561016082764,-0.05738420411944389,-0.18289676308631897,-1.199057698249817,1.8072543144226074,-0.6170335412025452
42.74868083000183,-0.05977443605661392,-0.17565223574638367,-1.2242422103881836,1.8039096593856812,-0.588482141494751
42.7868971824646,-0.06089608371257782,-0.16610758006572723,-1.247655987739563,1.8008549213409424,-0.5614495277404785
42.826162338256836,-0.060476116836071014,-0.15444675087928772,-1.269391417503357,1.7982208728790283,-0.5364058017730713
42.86498951911926,-0.05860079452395439,-0.14105311036109924,-1.2891191244125366,1.7962414026260376,-0.5137576460838318
42.904704570770264,-0.05527012422680855,-0.126224547624588,-1.306765079498291,1.7950836420059204,-0.4938592314720154
42.94376850128174,-0.05061381310224533,-0.11027869582176208,-1.3223090171813965,1.794903039932251,-0.47698134183883667
42.983933210372925,-0.044809214770793915,-0.0935220792889595,-1.335674524307251,1.7958393096923828,-0.46333760023117065
43.02192425727844,-0.038054004311561584,-0.07622399926185608,-1.3469394445419312,1.797980546951294,-0.45306816697120667
43.06077432632446,-0.030601810663938522,-0.058654870837926865,-1.3560882806777954,1.801403284072876,-0.44625604152679443
43.09997892379761,-0.02269713021814823,-0.04104842245578766,-1.363202691078186,1.80612313747406,-0.44291582703590393
43.139812707901,-0.014609637670218945,-0.023636214435100555,-1.368315577507019,1.812137484550476,-0.4430106580257416
43.18285322189331,-0.006592553108930588,-0.006632083561271429,-1.371493935585022,1.8193955421447754,-0.44644540548324585
43.22079014778137,0.0011119332630187273,0.009758767671883106,-1.3728015422821045,1.8278177976608276,-0.4530734121799469
43.2593150138855,0.008282409980893135,0.025333555415272713,-1.3723104000091553,1.8372917175292969,-0.4626981317996979
43.29809069633484,0.01473203580826521,0.039897818118333817,-1.3701088428497314,1.847681999206543,-0.4750763773918152
43.33668065071106,0.020304659381508827,0.053259000182151794,-1.3663009405136108,1.8588248491287231,-0.4899164140224457
43.37651324272156,0.02489103376865387,0.06523652374744415,-1.3610148429870605,1.870548963546753,-0.5068908333778381
43.41464376449585,0.028424633666872978,0.07566119730472565,-1.3544100522994995,1.8826674222946167,-0.5256260633468628
43.45279908180237,0.030884332954883575,0.08438142389059067,-1.3466769456863403,1.8949933052062988,-0.5457228422164917
43.49157524108887,0.03229885920882225,0.09127700328826904,-1.3380370140075684,1.9073374271392822,-0.5667526125907898
43.53139090538025,0.032731976360082626,0.09625789523124695,-1.3287460803985596,1.9195208549499512,-0.5882721543312073
43.57094430923462,0.03228957578539848,0.09927976131439209,-1.319078803062439,1.9313746690750122,-0.6098299026489258
43.60991430282593,0.031096627935767174,0.10034602135419846,-1.3093304634094238,1.942741870880127,-0.6309807896614075
